public/luts/arctic.cube
# edite look: Arctic (CC0)
TITLE "Arctic"
LUT_3D_SIZE 9
DOMAIN_MIN 0.0 0.0 0.0
DOMAIN_MAX 1.0 1.0 1.0
0.0124 0.0124 0.0226
0.1307 0.0135 0.0236
0.2490 0.0145 0.0247
0.3672 0.0155 0.0257
0.4855 0.0166 0.0268
0.6038 0.0176 0.0278
0.7220 0.0187 0.0288
0.8403 0.0197 0.0299
0.9586 0.0207 0.0309
0.0161 0.1382 0.0262
0.1343 0.1392 0.0273
0.2526 0.1403 0.0283
0.3709 0.1413 0.0294
0.4891 0.1423 0.0304
0.6074 0.1434 0.0314
0.7257 0.1444 0.0325
0.8439 0.1455 0.0335
0.9622 0.1465 0.0346
0.0197 0.2639 0.0299
0.1380 0.2650 0.0309
0.2562 0.2660 0.0320
0.3745 0.2670 0.0330
0.4928 0.2681 0.0340
0.6110 0.2691 0.0351
0.7293 0.2702 0.0361
0.8476 0.2712 0.0372
0.9658 0.2722 0.0382
0.0233 0.3897 0.0335
0.1416 0.3907 0.0346
0.2599 0.3918 0.0356
0.3781 0.3928 0.0366
0.4964 0.3938 0.0377
0.6147 0.3949 0.0387
0.7329 0.3959 0.0398
0.8512 0.3970 0.0408
0.9695 0.3980 0.0418
0.0270 0.5154 0.0372
0.1453 0.5165 0.0382
0.2635 0.5175 0.0392
0.3818 0.5185 0.0403
0.5001 0.5196 0.0413
0.6183 0.5206 0.0424
0.7366 0.5217 0.0434
0.8548 0.5227 0.0444
0.9731 0.5237 0.0455
0.0306 0.6412 0.0408
0.1489 0.6422 0.0418
0.2672 0.6433 0.0429
0.3854 0.6443 0.0439
0.5037 0.6453 0.0450
0.6220 0.6464 0.0460
0.7402 0.6474 0.0470
0.8585 0.6485 0.0481
0.9768 0.6495 0.0491
0.0343 0.7669 0.0444
0.1525 0.7680 0.0455
0.2708 0.7690 0.0465
0.3891 0.7701 0.0476
0.5073 0.7711 0.0486
0.6256 0.7721 0.0496
0.7439 0.7732 0.0507
0.8621 0.7742 0.0517
0.9804 0.7752 0.0527
0.0379 0.8927 0.0481
0.1562 0.8937 0.0491
0.2744 0.8948 0.0502
0.3927 0.8958 0.0512
0.5110 0.8968 0.0522
0.6292 0.8979 0.0533
0.7475 0.8989 0.0543
0.8658 0.9000 0.0553
0.9840 0.9010 0.0564
0.0415 1.0000 0.0517
0.1598 1.0000 0.0528
0.2781 1.0000 0.0538
0.3963 1.0000 0.0548
0.5146 1.0000 0.0559
0.6329 1.0000 0.0569
0.7511 1.0000 0.0579
0.8694 1.0000 0.0590
0.9877 1.0000 0.0600
0.0128 0.0128 0.1535
0.1311 0.0139 0.1545
0.2494 0.0149 0.1556
0.3676 0.0159 0.1566
0.4859 0.0170 0.1577
0.6042 0.0180 0.1587
0.7224 0.0191 0.1597
0.8407 0.0201 0.1608
0.9590 0.0211 0.1618
0.0165 0.1386 0.1571
0.1347 0.1396 0.1582
0.2530 0.1407 0.1592
0.3713 0.1417 0.1603
0.4895 0.1427 0.1613
0.6078 0.1438 0.1623
0.7261 0.1448 0.1634
0.8443 0.1458 0.1644
0.9626 0.1469 0.1655
0.0201 0.2643 0.1608
0.1384 0.2654 0.1618
0.2566 0.2664 0.1629
0.3749 0.2674 0.1639
0.4932 0.2685 0.1649
0.6114 0.2695 0.1660
0.7297 0.2706 0.1670
0.8480 0.2716 0.1681
0.9662 0.2726 0.1691
0.0237 0.3901 0.1644
0.1420 0.3911 0.1655
0.2603 0.3922 0.1665
0.3785 0.3932 0.1675
0.4968 0.3942 0.1686
0.6151 0.3953 0.1696
0.7333 0.3963 0.1707
0.8516 0.3973 0.1717
0.9699 0.3984 0.1727
0.0274 0.5158 0.1681
0.1456 0.5169 0.1691
0.2639 0.5179 0.1701
0.3822 0.5189 0.1712
0.5004 0.5200 0.1722
0.6187 0.5210 0.1733
0.7370 0.5221 0.1743
0.8552 0.5231 0.1753
0.9735 0.5241 0.1764
0.0310 0.6416 0.1717
0.1493 0.6426 0.1727
0.2675 0.6437 0.1738
0.3858 0.6447 0.1748
0.5041 0.6457 0.1759
0.6223 0.6468 0.1769
0.7406 0.6478 0.1779
0.8589 0.6488 0.1790
0.9771 0.6499 0.1800
0.0347 0.7673 0.1753
0.1529 0.7684 0.1764
0.2712 0.7694 0.1774
0.3895 0.7704 0.1785
0.5077 0.7715 0.1795
0.6260 0.7725 0.1805
0.7443 0.7736 0.1816
0.8625 0.7746 0.1826
0.9808 0.7756 0.1836
0.0383 0.8931 0.1790
0.1566 0.8941 0.1800
0.2748 0.8952 0.1811
0.3931 0.8962 0.1821
0.5114 0.8972 0.1831
0.6296 0.8983 0.1842
0.7479 0.8993 0.1852
0.8662 0.9003 0.1862
0.9844 0.9014 0.1873
0.0419 1.0000 0.1826
0.1602 1.0000 0.1837
0.2785 1.0000 0.1847
0.3967 1.0000 0.1857
0.5150 1.0000 0.1868
0.6333 1.0000 0.1878
0.7515 1.0000 0.1888
0.8698 1.0000 0.1899
0.9881 1.0000 0.1909
0.0132 0.0132 0.2844
0.1315 0.0143 0.2854
0.2497 0.0153 0.2865
0.3680 0.0163 0.2875
0.4863 0.0174 0.2886
0.6045 0.0184 0.2896
0.7228 0.0194 0.2906
0.8411 0.0205 0.2917
0.9593 0.0215 0.2927
0.0169 0.1390 0.2880
0.1351 0.1400 0.2891
0.2534 0.1410 0.2901
0.3717 0.1421 0.2912
0.4899 0.1431 0.2922
0.6082 0.1442 0.2932
0.7265 0.1452 0.2943
0.8447 0.1462 0.2953
0.9630 0.1473 0.2964
0.0205 0.2647 0.2917
0.1388 0.2658 0.2927
0.2570 0.2668 0.2938
0.3753 0.2678 0.2948
0.4936 0.2689 0.2958
0.6118 0.2699 0.2969
0.7301 0.2709 0.2979
0.8484 0.2720 0.2990
0.9666 0.2730 0.3000
0.0241 0.3905 0.2953
0.1424 0.3915 0.2964
0.2607 0.3925 0.2974
0.3789 0.3936 0.2984
0.4972 0.3946 0.2995
0.6155 0.3957 0.3005
0.7337 0.3967 0.3016
0.8520 0.3977 0.3026
0.9703 0.3988 0.3036
0.0278 0.5162 0.2990
0.1460 0.5173 0.3000
0.2643 0.5183 0.3010
0.3826 0.5193 0.3021
0.5008 0.5204 0.3031
0.6191 0.5214 0.3042
0.7374 0.5225 0.3052
0.8556 0.5235 0.3062
0.9739 0.5245 0.3073
0.0314 0.6420 0.3026
0.1497 0.6430 0.3036
0.2679 0.6440 0.3047
0.3862 0.6451 0.3057
0.5045 0.6461 0.3068
0.6227 0.6472 0.3078
0.7410 0.6482 0.3088
0.8593 0.6492 0.3099
0.9775 0.6503 0.3109
0.0350 0.7677 0.3062
0.1533 0.7688 0.3073
0.2716 0.7698 0.3083
0.3898 0.7708 0.3094
0.5081 0.7719 0.3104
0.6264 0.7729 0.3114
0.7446 0.7740 0.3125
0.8629 0.7750 0.3135
0.9812 0.7760 0.3145
0.0387 0.8935 0.3099
0.1570 0.8945 0.3109
0.2752 0.8955 0.3120
0.3935 0.8966 0.3130
0.5118 0.8976 0.3140
0.6300 0.8987 0.3151
0.7483 0.8997 0.3161
0.8666 0.9007 0.3171
0.9848 0.9018 0.3182
0.0423 1.0000 0.3135
0.1606 1.0000 0.3146
0.2789 1.0000 0.3156
0.3971 1.0000 0.3166
0.5154 1.0000 0.3177
0.6337 1.0000 0.3187
0.7519 1.0000 0.3197
0.8702 1.0000 0.3208
0.9885 1.0000 0.3218
0.0136 0.0136 0.4153
0.1319 0.0146 0.4163
0.2501 0.0157 0.4174
0.3684 0.0167 0.4184
0.4867 0.0178 0.4195
0.6049 0.0188 0.4205
0.7232 0.0198 0.4215
0.8415 0.0209 0.4226
0.9597 0.0219 0.4236
0.0172 0.1394 0.4189
0.1355 0.1404 0.4200
0.2538 0.1414 0.4210
0.3720 0.1425 0.4221
0.4903 0.1435 0.4231
0.6086 0.1446 0.4241
0.7268 0.1456 0.4252
0.8451 0.1466 0.4262
0.9634 0.1477 0.4273
0.0209 0.2651 0.4226
0.1392 0.2661 0.4236
0.2574 0.2672 0.4247
0.3757 0.2682 0.4257
0.4940 0.2693 0.4267
0.6122 0.2703 0.4278
0.7305 0.2713 0.4288
0.8487 0.2724 0.4299
0.9670 0.2734 0.4309
0.0245 0.3909 0.4262
0.1428 0.3919 0.4273
0.2611 0.3929 0.4283
0.3793 0.3940 0.4293
0.4976 0.3950 0.4304
0.6159 0.3961 0.4314
0.7341 0.3971 0.4325
0.8524 0.3981 0.4335
0.9707 0.3992 0.4345
0.0282 0.5166 0.4299
0.1464 0.5177 0.4309
0.2647 0.5187 0.4319
0.3830 0.5197 0.4330
0.5012 0.5208 0.4340
0.6195 0.5218 0.4351
0.7378 0.5228 0.4361
0.8560 0.5239 0.4371
0.9743 0.5249 0.4382
0.0318 0.6424 0.4335
0.1501 0.6434 0.4345
0.2683 0.6444 0.4356
0.3866 0.6455 0.4366
0.5049 0.6465 0.4377
0.6231 0.6476 0.4387
0.7414 0.6486 0.4397
0.8597 0.6496 0.4408
0.9779 0.6507 0.4418
0.0354 0.7681 0.4371
0.1537 0.7692 0.4382
0.2720 0.7702 0.4392
0.3902 0.7712 0.4403
0.5085 0.7723 0.4413
0.6268 0.7733 0.4423
0.7450 0.7743 0.4434
0.8633 0.7754 0.4444
0.9816 0.7764 0.4454
0.0391 0.8939 0.4408
0.1573 0.8949 0.4418
0.2756 0.8959 0.4429
0.3939 0.8970 0.4439
0.5121 0.8980 0.4449
0.6304 0.8991 0.4460
0.7487 0.9001 0.4470
0.8669 0.9011 0.4480
0.9852 0.9022 0.4491
0.0427 1.0000 0.4444
0.1610 1.0000 0.4455
0.2793 1.0000 0.4465
0.3975 1.0000 0.4475
0.5158 1.0000 0.4486
0.6340 1.0000 0.4496
0.7523 1.0000 0.4506
0.8706 1.0000 0.4517
0.9888 1.0000 0.4527
0.0140 0.0140 0.5462
0.1323 0.0150 0.5472
0.2505 0.0161 0.5483
0.3688 0.0171 0.5493
0.4871 0.0182 0.5504
0.6053 0.0192 0.5514
0.7236 0.0202 0.5524
0.8419 0.0213 0.5535
0.9601 0.0223 0.5545
0.0176 0.1398 0.5498
0.1359 0.1408 0.5509
0.2542 0.1418 0.5519
0.3724 0.1429 0.5530
0.4907 0.1439 0.5540
0.6090 0.1449 0.5550
0.7272 0.1460 0.5561
0.8455 0.1470 0.5571
0.9638 0.1481 0.5582
0.0213 0.2655 0.5535
0.1395 0.2665 0.5545
0.2578 0.2676 0.5556
0.3761 0.2686 0.5566
0.4943 0.2697 0.5576
0.6126 0.2707 0.5587
0.7309 0.2717 0.5597
0.8491 0.2728 0.5608
0.9674 0.2738 0.5618
0.0249 0.3913 0.5571
0.1432 0.3923 0.5582
0.2614 0.3933 0.5592
0.3797 0.3944 0.5602
0.4980 0.3954 0.5613
0.6162 0.3964 0.5623
0.7345 0.3975 0.5634
0.8528 0.3985 0.5644
0.9710 0.3996 0.5654
0.0286 0.5170 0.5608
0.1468 0.5180 0.5618
0.2651 0.5191 0.5628
0.3834 0.5201 0.5639
0.5016 0.5212 0.5649
0.6199 0.5222 0.5660
0.7382 0.5232 0.5670
0.8564 0.5243 0.5680
0.9747 0.5253 0.5691
0.0322 0.6428 0.5644
0.1505 0.6438 0.5654
0.2687 0.6448 0.5665
0.3870 0.6459 0.5675
0.5053 0.6469 0.5686
0.6235 0.6479 0.5696
0.7418 0.6490 0.5706
0.8601 0.6500 0.5717
0.9783 0.6511 0.5727
0.0358 0.7685 0.5680
0.1541 0.7695 0.5691
0.2724 0.7706 0.5701
0.3906 0.7716 0.5712
0.5089 0.7727 0.5722
0.6272 0.7737 0.5732
0.7454 0.7747 0.5743
0.8637 0.7758 0.5753
0.9820 0.7768 0.5763
0.0395 0.8943 0.5717
0.1577 0.8953 0.5727
0.2760 0.8963 0.5738
0.3943 0.8974 0.5748
0.5125 0.8984 0.5758
0.6308 0.8994 0.5769
0.7491 0.9005 0.5779
0.8673 0.9015 0.5789
0.9856 0.9026 0.5800
0.0431 1.0000 0.5753
0.1614 1.0000 0.5764
0.2796 1.0000 0.5774
0.3979 1.0000 0.5784
0.5162 1.0000 0.5795
0.6344 1.0000 0.5805
0.7527 1.0000 0.5815
0.8710 1.0000 0.5826
0.9892 1.0000 0.5836
0.0144 0.0144 0.6771
0.1327 0.0154 0.6781
0.2509 0.0165 0.6792
0.3692 0.0175 0.6802
0.4875 0.0185 0.6813
0.6057 0.0196 0.6823
0.7240 0.0206 0.6833
0.8423 0.0217 0.6844
0.9605 0.0227 0.6854
0.0180 0.1401 0.6807
0.1363 0.1412 0.6818
0.2546 0.1422 0.6828
0.3728 0.1433 0.6839
0.4911 0.1443 0.6849
0.6094 0.1453 0.6859
0.7276 0.1464 0.6870
0.8459 0.1474 0.6880
0.9642 0.1485 0.6891
0.0217 0.2659 0.6844
0.1399 0.2669 0.6854
0.2582 0.2680 0.6865
0.3765 0.2690 0.6875
0.4947 0.2700 0.6885
0.6130 0.2711 0.6896
0.7313 0.2721 0.6906
0.8495 0.2732 0.6917
0.9678 0.2742 0.6927
0.0253 0.3916 0.6880
0.1436 0.3927 0.6891
0.2618 0.3937 0.6901
0.3801 0.3948 0.6911
0.4984 0.3958 0.6922
0.6166 0.3968 0.6932
0.7349 0.3979 0.6943
0.8532 0.3989 0.6953
0.9714 0.4000 0.6963
0.0289 0.5174 0.6917
0.1472 0.5184 0.6927
0.2655 0.5195 0.6937
0.3837 0.5205 0.6948
0.5020 0.5216 0.6958
0.6203 0.5226 0.6969
0.7385 0.5236 0.6979
0.8568 0.5247 0.6989
0.9751 0.5257 0.7000
0.0326 0.6431 0.6953
0.1509 0.6442 0.6963
0.2691 0.6452 0.6974
0.3874 0.6463 0.6984
0.5057 0.6473 0.6995
0.6239 0.6483 0.7005
0.7422 0.6494 0.7015
0.8605 0.6504 0.7026
0.9787 0.6515 0.7036
0.0362 0.7689 0.6989
0.1545 0.7699 0.7000
0.2728 0.7710 0.7010
0.3910 0.7720 0.7021
0.5093 0.7731 0.7031
0.6276 0.7741 0.7041
0.7458 0.7751 0.7052
0.8641 0.7762 0.7062
0.9824 0.7772 0.7072
0.0399 0.8947 0.7026
0.1581 0.8957 0.7036
0.2764 0.8967 0.7047
0.3947 0.8978 0.7057
0.5129 0.8988 0.7067
0.6312 0.8998 0.7078
0.7495 0.9009 0.7088
0.8677 0.9019 0.7098
0.9860 0.9030 0.7109
0.0435 1.0000 0.7062
0.1618 1.0000 0.7073
0.2800 1.0000 0.7083
0.3983 1.0000 0.7093
0.5166 1.0000 0.7104
0.6348 1.0000 0.7114
0.7531 1.0000 0.7124
0.8714 1.0000 0.7135
0.9896 1.0000 0.7145
0.0148 0.0148 0.8080
0.1331 0.0158 0.8090
0.2513 0.0169 0.8101
0.3696 0.0179 0.8111
0.4879 0.0189 0.8122
0.6061 0.0200 0.8132
0.7244 0.0210 0.8142
0.8426 0.0221 0.8153
0.9609 0.0231 0.8163
0.0184 0.1405 0.8116
0.1367 0.1416 0.8127
0.2550 0.1426 0.8137
0.3732 0.1437 0.8148
0.4915 0.1447 0.8158
0.6098 0.1457 0.8168
0.7280 0.1468 0.8179
0.8463 0.1478 0.8189
0.9646 0.1488 0.8200
0.0221 0.2663 0.8153
0.1403 0.2673 0.8163
0.2586 0.2684 0.8174
0.3769 0.2694 0.8184
0.4951 0.2704 0.8194
0.6134 0.2715 0.8205
0.7317 0.2725 0.8215
0.8499 0.2736 0.8226
0.9682 0.2746 0.8236
0.0257 0.3920 0.8189
0.1440 0.3931 0.8200
0.2622 0.3941 0.8210
0.3805 0.3952 0.8220
0.4988 0.3962 0.8231
0.6170 0.3972 0.8241
0.7353 0.3983 0.8252
0.8536 0.3993 0.8262
0.9718 0.4003 0.8272
0.0293 0.5178 0.8226
0.1476 0.5188 0.8236
0.2659 0.5199 0.8246
0.3841 0.5209 0.8257
0.5024 0.5219 0.8267
0.6207 0.5230 0.8278
0.7389 0.5240 0.8288
0.8572 0.5251 0.8298
0.9755 0.5261 0.8309
0.0330 0.6435 0.8262
0.1512 0.6446 0.8272
0.2695 0.6456 0.8283
0.3878 0.6467 0.8293
0.5060 0.6477 0.8304
0.6243 0.6487 0.8314
0.7426 0.6498 0.8324
0.8608 0.6508 0.8335
0.9791 0.6518 0.8345
0.0366 0.7693 0.8298
0.1549 0.7703 0.8309
0.2732 0.7714 0.8319
0.3914 0.7724 0.8330
0.5097 0.7734 0.8340
0.6279 0.7745 0.8350
0.7462 0.7755 0.8361
0.8645 0.7766 0.8371
0.9827 0.7776 0.8381
0.0403 0.8950 0.8335
0.1585 0.8961 0.8345
0.2768 0.8971 0.8356
0.3951 0.8982 0.8366
0.5133 0.8992 0.8376
0.6316 0.9002 0.8387
0.7499 0.9013 0.8397
0.8681 0.9023 0.8407
0.9864 0.9034 0.8418
0.0439 1.0000 0.8371
0.1622 1.0000 0.8382
0.2804 1.0000 0.8392
0.3987 1.0000 0.8402
0.5170 1.0000 0.8413
0.6352 1.0000 0.8423
0.7535 1.0000 0.8433
0.8718 1.0000 0.8444
0.9900 1.0000 0.8454
0.0152 0.0152 0.9389
0.1334 0.0162 0.9399
0.2517 0.0173 0.9410
0.3700 0.0183 0.9420
0.4882 0.0193 0.9431
0.6065 0.0204 0.9441
0.7248 0.0214 0.9451
0.8430 0.0224 0.9462
0.9613 0.0235 0.9472
0.0188 0.1409 0.9425
0.1371 0.1420 0.9436
0.2553 0.1430 0.9446
0.3736 0.1440 0.9457
0.4919 0.1451 0.9467
0.6101 0.1461 0.9477
0.7284 0.1472 0.9488
0.8467 0.1482 0.9498
0.9649 0.1492 0.9509
0.0225 0.2667 0.9462
0.1407 0.2677 0.9472
0.2590 0.2688 0.9483
0.3773 0.2698 0.9493
0.4955 0.2708 0.9503
0.6138 0.2719 0.9514
0.7321 0.2729 0.9524
0.8503 0.2739 0.9535
0.9686 0.2750 0.9545
0.0261 0.3924 0.9498
0.1444 0.3935 0.9509
0.2626 0.3945 0.9519
0.3809 0.3955 0.9529
0.4992 0.3966 0.9540
0.6174 0.3976 0.9550
0.7357 0.3987 0.9561
0.8540 0.3997 0.9571
0.9722 0.4007 0.9581
0.0297 0.5182 0.9535
0.1480 0.5192 0.9545
0.2663 0.5203 0.9555
0.3845 0.5213 0.9566
0.5028 0.5223 0.9576
0.6211 0.5234 0.9587
0.7393 0.5244 0.9597
0.8576 0.5255 0.9607
0.9759 0.5265 0.9618
0.0334 0.6439 0.9571
0.1516 0.6450 0.9581
0.2699 0.6460 0.9592
0.3882 0.6470 0.9602
0.5064 0.6481 0.9613
0.6247 0.6491 0.9623
0.7430 0.6502 0.9633
0.8612 0.6512 0.9644
0.9795 0.6522 0.9654
0.0370 0.7697 0.9607
0.1553 0.7707 0.9618
0.2735 0.7718 0.9628
0.3918 0.7728 0.9639
0.5101 0.7738 0.9649
0.6283 0.7749 0.9659
0.7466 0.7759 0.9670
0.8649 0.7770 0.9680
0.9831 0.7780 0.9690
0.0407 0.8954 0.9644
0.1589 0.8965 0.9654
0.2772 0.8975 0.9665
0.3954 0.8986 0.9675
0.5137 0.8996 0.9685
0.6320 0.9006 0.9696
0.7502 0.9017 0.9706
0.8685 0.9027 0.9716
0.9868 0.9037 0.9727
0.0443 1.0000 0.9680
0.1626 1.0000 0.9691
0.2808 1.0000 0.9701
0.3991 1.0000 0.9711
0.5174 1.0000 0.9722
0.6356 1.0000 0.9732
0.7539 1.0000 0.9742
0.8722 1.0000 0.9753
0.9904 1.0000 0.9763
0.0156 0.0156 1.0000
0.1338 0.0166 1.0000
0.2521 0.0176 1.0000
0.3704 0.0187 1.0000
0.4886 0.0197 1.0000
0.6069 0.0208 1.0000
0.7252 0.0218 1.0000
0.8434 0.0228 1.0000
0.9617 0.0239 1.0000
0.0192 0.1413 1.0000
0.1375 0.1424 1.0000
0.2557 0.1434 1.0000
0.3740 0.1444 1.0000
0.4923 0.1455 1.0000
0.6105 0.1465 1.0000
0.7288 0.1476 1.0000
0.8471 0.1486 1.0000
0.9653 0.1496 1.0000
0.0228 0.2671 1.0000
0.1411 0.2681 1.0000
0.2594 0.2692 1.0000
0.3776 0.2702 1.0000
0.4959 0.2712 1.0000
0.6142 0.2723 1.0000
0.7324 0.2733 1.0000
0.8507 0.2743 1.0000
0.9690 0.2754 1.0000
0.0265 0.3928 1.0000
0.1448 0.3939 1.0000
0.2630 0.3949 1.0000
0.3813 0.3959 1.0000
0.4996 0.3970 1.0000
0.6178 0.3980 1.0000
0.7361 0.3991 1.0000
0.8544 0.4001 1.0000
0.9726 0.4011 1.0000
0.0301 0.5186 1.0000
0.1484 0.5196 1.0000
0.2667 0.5207 1.0000
0.3849 0.5217 1.0000
0.5032 0.5227 1.0000
0.6215 0.5238 1.0000
0.7397 0.5248 1.0000
0.8580 0.5258 1.0000
0.9763 0.5269 1.0000
0.0338 0.6443 1.0000
0.1520 0.6454 1.0000
0.2703 0.6464 1.0000
0.3886 0.6474 1.0000
0.5068 0.6485 1.0000
0.6251 0.6495 1.0000
0.7434 0.6506 1.0000
0.8616 0.6516 1.0000
0.9799 0.6526 1.0000
0.0374 0.7701 1.0000
0.1557 0.7711 1.0000
0.2739 0.7722 1.0000
0.3922 0.7732 1.0000
0.5105 0.7742 1.0000
0.6287 0.7753 1.0000
0.7470 0.7763 1.0000
0.8653 0.7773 1.0000
0.9835 0.7784 1.0000
0.0410 0.8958 1.0000
0.1593 0.8969 1.0000
0.2776 0.8979 1.0000
0.3958 0.8989 1.0000
0.5141 0.9000 1.0000
0.6324 0.9010 1.0000
0.7506 0.9021 1.0000
0.8689 0.9031 1.0000
0.9872 0.9041 1.0000
0.0447 1.0000 1.0000
0.1629 1.0000 1.0000
0.2812 1.0000 1.0000
0.3995 1.0000 1.0000
0.5177 1.0000 1.0000
0.6360 1.0000 1.0000
0.7543 1.0000 1.0000
0.8725 1.0000 1.0000
0.9908 1.0000 1.0000
