public/luts/arctic.cube
# edite look: Arctic (CC0)
TITLE "Arctic"
LUT_3D_SIZE 5
DOMAIN_MIN 0.0 0.0 0.0
DOMAIN_MAX 1.0 1.0 1.0
0.0124 0.0124 0.0226
0.2490 0.0145 0.0247
0.4855 0.0166 0.0268
0.7220 0.0187 0.0288
0.9586 0.0207 0.0309
0.0197 0.2639 0.0299
0.2562 0.2660 0.0320
0.4928 0.2681 0.0340
0.7293 0.2702 0.0361
0.9658 0.2722 0.0382
0.0270 0.5154 0.0372
0.2635 0.5175 0.0392
0.5001 0.5196 0.0413
0.7366 0.5217 0.0434
0.9731 0.5237 0.0455
0.0343 0.7669 0.0444
0.2708 0.7690 0.0465
0.5073 0.7711 0.0486
0.7439 0.7732 0.0507
0.9804 0.7752 0.0527
0.0415 1.0000 0.0517
0.2781 1.0000 0.0538
0.5146 1.0000 0.0559
0.7511 1.0000 0.0579
0.9877 1.0000 0.0600
0.0132 0.0132 0.2844
0.2497 0.0153 0.2865
0.4863 0.0174 0.2886
0.7228 0.0194 0.2906
0.9593 0.0215 0.2927
0.0205 0.2647 0.2917
0.2570 0.2668 0.2938
0.4936 0.2689 0.2958
0.7301 0.2709 0.2979
0.9666 0.2730 0.3000
0.0278 0.5162 0.2990
0.2643 0.5183 0.3010
0.5008 0.5204 0.3031
0.7374 0.5225 0.3052
0.9739 0.5245 0.3073
0.0350 0.7677 0.3062
0.2716 0.7698 0.3083
0.5081 0.7719 0.3104
0.7446 0.7740 0.3125
0.9812 0.7760 0.3145
0.0423 1.0000 0.3135
0.2789 1.0000 0.3156
0.5154 1.0000 0.3177
0.7519 1.0000 0.3197
0.9885 1.0000 0.3218
0.0140 0.0140 0.5462
0.2505 0.0161 0.5483
0.4871 0.0182 0.5504
0.7236 0.0202 0.5524
0.9601 0.0223 0.5545
0.0213 0.2655 0.5535
0.2578 0.2676 0.5556
0.4943 0.2697 0.5576
0.7309 0.2717 0.5597
0.9674 0.2738 0.5618
0.0286 0.5170 0.5608
0.2651 0.5191 0.5628
0.5016 0.5212 0.5649
0.7382 0.5232 0.5670
0.9747 0.5253 0.5691
0.0358 0.7685 0.5680
0.2724 0.7706 0.5701
0.5089 0.7727 0.5722
0.7454 0.7747 0.5743
0.9820 0.7768 0.5763
0.0431 1.0000 0.5753
0.2796 1.0000 0.5774
0.5162 1.0000 0.5795
0.7527 1.0000 0.5815
0.9892 1.0000 0.5836
0.0148 0.0148 0.8080
0.2513 0.0169 0.8101
0.4879 0.0189 0.8122
0.7244 0.0210 0.8142
0.9609 0.0231 0.8163
0.0221 0.2663 0.8153
0.2586 0.2684 0.8174
0.4951 0.2704 0.8194
0.7317 0.2725 0.8215
0.9682 0.2746 0.8236
0.0293 0.5178 0.8226
0.2659 0.5199 0.8246
0.5024 0.5219 0.8267
0.7389 0.5240 0.8288
0.9755 0.5261 0.8309
0.0366 0.7693 0.8298
0.2732 0.7714 0.8319
0.5097 0.7734 0.8340
0.7462 0.7755 0.8361
0.9827 0.7776 0.8381
0.0439 1.0000 0.8371
0.2804 1.0000 0.8392
0.5170 1.0000 0.8413
0.7535 1.0000 0.8433
0.9900 1.0000 0.8454
0.0156 0.0156 1.0000
0.2521 0.0176 1.0000
0.4886 0.0197 1.0000
0.7252 0.0218 1.0000
0.9617 0.0239 1.0000
0.0228 0.2671 1.0000
0.2594 0.2692 1.0000
0.4959 0.2712 1.0000
0.7324 0.2733 1.0000
0.9690 0.2754 1.0000
0.0301 0.5186 1.0000
0.2667 0.5207 1.0000
0.5032 0.5227 1.0000
0.7397 0.5248 1.0000
0.9763 0.5269 1.0000
0.0374 0.7701 1.0000
0.2739 0.7722 1.0000
0.5105 0.7742 1.0000
0.7470 0.7763 1.0000
0.9835 0.7784 1.0000
0.0447 1.0000 1.0000
0.2812 1.0000 1.0000
0.5177 1.0000 1.0000
0.7543 1.0000 1.0000
0.9908 1.0000 1.0000
