public/luts/arctic.cube
# edite look: Arctic (CC0)
TITLE "Arctic"
LUT_3D_SIZE 17
DOMAIN_MIN 0.0 0.0 0.0
DOMAIN_MAX 1.0 1.0 1.0
0.0124 0.0124 0.0226
0.0716 0.0129 0.0231
0.1307 0.0135 0.0236
0.1898 0.0140 0.0242
0.2490 0.0145 0.0247
0.3081 0.0150 0.0252
0.3672 0.0155 0.0257
0.4264 0.0161 0.0262
0.4855 0.0166 0.0268
0.5446 0.0171 0.0273
0.6038 0.0176 0.0278
0.6629 0.0181 0.0283
0.7220 0.0187 0.0288
0.7812 0.0192 0.0294
0.8403 0.0197 0.0299
0.8994 0.0202 0.0304
0.9586 0.0207 0.0309
0.0143 0.0753 0.0244
0.0734 0.0758 0.0249
0.1325 0.0763 0.0255
0.1916 0.0769 0.0260
0.2508 0.0774 0.0265
0.3099 0.0779 0.0270
0.3690 0.0784 0.0275
0.4282 0.0789 0.0281
0.4873 0.0795 0.0286
0.5464 0.0800 0.0291
0.6056 0.0805 0.0296
0.6647 0.0810 0.0301
0.7238 0.0815 0.0307
0.7830 0.0821 0.0312
0.8421 0.0826 0.0317
0.9012 0.0831 0.0322
0.9604 0.0836 0.0327
0.0161 0.1382 0.0262
0.0752 0.1387 0.0268
0.1343 0.1392 0.0273
0.1935 0.1397 0.0278
0.2526 0.1403 0.0283
0.3117 0.1408 0.0288
0.3709 0.1413 0.0294
0.4300 0.1418 0.0299
0.4891 0.1423 0.0304
0.5483 0.1429 0.0309
0.6074 0.1434 0.0314
0.6665 0.1439 0.0320
0.7257 0.1444 0.0325
0.7848 0.1449 0.0330
0.8439 0.1455 0.0335
0.9031 0.1460 0.0340
0.9622 0.1465 0.0346
0.0179 0.2011 0.0281
0.0770 0.2016 0.0286
0.1362 0.2021 0.0291
0.1953 0.2026 0.0296
0.2544 0.2031 0.0301
0.3136 0.2037 0.0307
0.3727 0.2042 0.0312
0.4318 0.2047 0.0317
0.4910 0.2052 0.0322
0.5501 0.2057 0.0327
0.6092 0.2062 0.0333
0.6684 0.2068 0.0338
0.7275 0.2073 0.0343
0.7866 0.2078 0.0348
0.8458 0.2083 0.0353
0.9049 0.2088 0.0359
0.9640 0.2094 0.0364
0.0197 0.2639 0.0299
0.0788 0.2645 0.0304
0.1380 0.2650 0.0309
0.1971 0.2655 0.0314
0.2562 0.2660 0.0320
0.3154 0.2665 0.0325
0.3745 0.2670 0.0330
0.4336 0.2676 0.0335
0.4928 0.2681 0.0340
0.5519 0.2686 0.0346
0.6110 0.2691 0.0351
0.6702 0.2696 0.0356
0.7293 0.2702 0.0361
0.7884 0.2707 0.0366
0.8476 0.2712 0.0372
0.9067 0.2717 0.0377
0.9658 0.2722 0.0382
0.0215 0.3268 0.0317
0.0807 0.3273 0.0322
0.1398 0.3278 0.0327
0.1989 0.3284 0.0333
0.2581 0.3289 0.0338
0.3172 0.3294 0.0343
0.3763 0.3299 0.0348
0.4355 0.3304 0.0353
0.4946 0.3310 0.0359
0.5537 0.3315 0.0364
0.6129 0.3320 0.0369
0.6720 0.3325 0.0374
0.7311 0.3330 0.0379
0.7903 0.3336 0.0385
0.8494 0.3341 0.0390
0.9085 0.3346 0.0395
0.9677 0.3351 0.0400
0.0233 0.3897 0.0335
0.0825 0.3902 0.0340
0.1416 0.3907 0.0346
0.2007 0.3912 0.0351
0.2599 0.3918 0.0356
0.3190 0.3923 0.0361
0.3781 0.3928 0.0366
0.4373 0.3933 0.0372
0.4964 0.3938 0.0377
0.5555 0.3944 0.0382
0.6147 0.3949 0.0387
0.6738 0.3954 0.0392
0.7329 0.3959 0.0398
0.7921 0.3964 0.0403
0.8512 0.3970 0.0408
0.9103 0.3975 0.0413
0.9695 0.3980 0.0418
0.0252 0.4526 0.0353
0.0843 0.4531 0.0359
0.1434 0.4536 0.0364
0.2026 0.4541 0.0369
0.2617 0.4546 0.0374
0.3208 0.4552 0.0379
0.3800 0.4557 0.0385
0.4391 0.4562 0.0390
0.4982 0.4567 0.0395
0.5574 0.4572 0.0400
0.6165 0.4578 0.0405
0.6756 0.4583 0.0411
0.7348 0.4588 0.0416
0.7939 0.4593 0.0421
0.8530 0.4598 0.0426
0.9122 0.4603 0.0431
0.9713 0.4609 0.0437
0.0270 0.5154 0.0372
0.0861 0.5160 0.0377
0.1453 0.5165 0.0382
0.2044 0.5170 0.0387
0.2635 0.5175 0.0392
0.3227 0.5180 0.0398
0.3818 0.5185 0.0403
0.4409 0.5191 0.0408
0.5001 0.5196 0.0413
0.5592 0.5201 0.0418
0.6183 0.5206 0.0424
0.6774 0.5211 0.0429
0.7366 0.5217 0.0434
0.7957 0.5222 0.0439
0.8548 0.5227 0.0444
0.9140 0.5232 0.0450
0.9731 0.5237 0.0455
0.0288 0.5783 0.0390
0.0879 0.5788 0.0395
0.1471 0.5793 0.0400
0.2062 0.5799 0.0405
0.2653 0.5804 0.0411
0.3245 0.5809 0.0416
0.3836 0.5814 0.0421
0.4427 0.5819 0.0426
0.5019 0.5825 0.0431
0.5610 0.5830 0.0437
0.6201 0.5835 0.0442
0.6793 0.5840 0.0447
0.7384 0.5845 0.0452
0.7975 0.5851 0.0457
0.8567 0.5856 0.0463
0.9158 0.5861 0.0468
0.9749 0.5866 0.0473
0.0306 0.6412 0.0408
0.0898 0.6417 0.0413
0.1489 0.6422 0.0418
0.2080 0.6427 0.0424
0.2672 0.6433 0.0429
0.3263 0.6438 0.0434
0.3854 0.6443 0.0439
0.4446 0.6448 0.0444
0.5037 0.6453 0.0450
0.5628 0.6459 0.0455
0.6220 0.6464 0.0460
0.6811 0.6469 0.0465
0.7402 0.6474 0.0470
0.7994 0.6479 0.0476
0.8585 0.6485 0.0481
0.9176 0.6490 0.0486
0.9768 0.6495 0.0491
0.0324 0.7041 0.0426
0.0916 0.7046 0.0431
0.1507 0.7051 0.0437
0.2098 0.7056 0.0442
0.2690 0.7061 0.0447
0.3281 0.7067 0.0452
0.3872 0.7072 0.0457
0.4464 0.7077 0.0463
0.5055 0.7082 0.0468
0.5646 0.7087 0.0473
0.6238 0.7093 0.0478
0.6829 0.7098 0.0483
0.7420 0.7103 0.0489
0.8012 0.7108 0.0494
0.8603 0.7113 0.0499
0.9194 0.7118 0.0504
0.9786 0.7124 0.0509
0.0343 0.7669 0.0444
0.0934 0.7675 0.0450
0.1525 0.7680 0.0455
0.2117 0.7685 0.0460
0.2708 0.7690 0.0465
0.3299 0.7695 0.0470
0.3891 0.7701 0.0476
0.4482 0.7706 0.0481
0.5073 0.7711 0.0486
0.5665 0.7716 0.0491
0.6256 0.7721 0.0496
0.6847 0.7726 0.0502
0.7439 0.7732 0.0507
0.8030 0.7737 0.0512
0.8621 0.7742 0.0517
0.9213 0.7747 0.0522
0.9804 0.7752 0.0527
0.0361 0.8298 0.0463
0.0952 0.8303 0.0468
0.1543 0.8309 0.0473
0.2135 0.8314 0.0478
0.2726 0.8319 0.0483
0.3317 0.8324 0.0489
0.3909 0.8329 0.0494
0.4500 0.8334 0.0499
0.5091 0.8340 0.0504
0.5683 0.8345 0.0509
0.6274 0.8350 0.0515
0.6865 0.8355 0.0520
0.7457 0.8360 0.0525
0.8048 0.8366 0.0530
0.8639 0.8371 0.0535
0.9231 0.8376 0.0540
0.9822 0.8381 0.0546
0.0379 0.8927 0.0481
0.0970 0.8932 0.0486
0.1562 0.8937 0.0491
0.2153 0.8942 0.0496
0.2744 0.8948 0.0502
0.3336 0.8953 0.0507
0.3927 0.8958 0.0512
0.4518 0.8963 0.0517
0.5110 0.8968 0.0522
0.5701 0.8974 0.0528
0.6292 0.8979 0.0533
0.6884 0.8984 0.0538
0.7475 0.8989 0.0543
0.8066 0.8994 0.0548
0.8658 0.9000 0.0553
0.9249 0.9005 0.0559
0.9840 0.9010 0.0564
0.0397 0.9556 0.0499
0.0989 0.9561 0.0504
0.1580 0.9566 0.0509
0.2171 0.9571 0.0515
0.2763 0.9576 0.0520
0.3354 0.9582 0.0525
0.3945 0.9587 0.0530
0.4537 0.9592 0.0535
0.5128 0.9597 0.0541
0.5719 0.9602 0.0546
0.6311 0.9608 0.0551
0.6902 0.9613 0.0556
0.7493 0.9618 0.0561
0.8085 0.9623 0.0566
0.8676 0.9628 0.0572
0.9267 0.9634 0.0577
0.9859 0.9639 0.0582
0.0415 1.0000 0.0517
0.1007 1.0000 0.0522
0.1598 1.0000 0.0528
0.2189 1.0000 0.0533
0.2781 1.0000 0.0538
0.3372 1.0000 0.0543
0.3963 1.0000 0.0548
0.4555 1.0000 0.0554
0.5146 1.0000 0.0559
0.5737 1.0000 0.0564
0.6329 1.0000 0.0569
0.6920 1.0000 0.0574
0.7511 1.0000 0.0579
0.8103 1.0000 0.0585
0.8694 1.0000 0.0590
0.9285 1.0000 0.0595
0.9877 1.0000 0.0600
0.0126 0.0126 0.0881
0.0718 0.0131 0.0886
0.1309 0.0137 0.0891
0.1900 0.0142 0.0896
0.2492 0.0147 0.0901
0.3083 0.0152 0.0907
0.3674 0.0157 0.0912
0.4266 0.0163 0.0917
0.4857 0.0168 0.0922
0.5448 0.0173 0.0927
0.6040 0.0178 0.0932
0.6631 0.0183 0.0938
0.7222 0.0189 0.0943
0.7814 0.0194 0.0948
0.8405 0.0199 0.0953
0.8996 0.0204 0.0958
0.9588 0.0209 0.0964
0.0144 0.0755 0.0899
0.0736 0.0760 0.0904
0.1327 0.0765 0.0909
0.1918 0.0771 0.0914
0.2510 0.0776 0.0920
0.3101 0.0781 0.0925
0.3692 0.0786 0.0930
0.4284 0.0791 0.0935
0.4875 0.0797 0.0940
0.5466 0.0802 0.0945
0.6058 0.0807 0.0951
0.6649 0.0812 0.0956
0.7240 0.0817 0.0961
0.7832 0.0823 0.0966
0.8423 0.0828 0.0971
0.9014 0.0833 0.0977
0.9606 0.0838 0.0982
0.0163 0.1384 0.0917
0.0754 0.1389 0.0922
0.1345 0.1394 0.0927
0.1937 0.1399 0.0933
0.2528 0.1405 0.0938
0.3119 0.1410 0.0943
0.3711 0.1415 0.0948
0.4302 0.1420 0.0953
0.4893 0.1425 0.0958
0.5485 0.1431 0.0964
0.6076 0.1436 0.0969
0.6667 0.1441 0.0974
0.7259 0.1446 0.0979
0.7850 0.1451 0.0984
0.8441 0.1456 0.0990
0.9033 0.1462 0.0995
0.9624 0.1467 0.1000
0.0181 0.2013 0.0935
0.0772 0.2018 0.0940
0.1364 0.2023 0.0946
0.1955 0.2028 0.0951
0.2546 0.2033 0.0956
0.3138 0.2038 0.0961
0.3729 0.2044 0.0966
0.4320 0.2049 0.0971
0.4911 0.2054 0.0977
0.5503 0.2059 0.0982
0.6094 0.2064 0.0987
0.6685 0.2070 0.0992
0.7277 0.2075 0.0997
0.7868 0.2080 0.1003
0.8459 0.2085 0.1008
0.9051 0.2090 0.1013
0.9642 0.2096 0.1018
0.0199 0.2641 0.0953
0.0790 0.2646 0.0959
0.1382 0.2652 0.0964
0.1973 0.2657 0.0969
0.2564 0.2662 0.0974
0.3156 0.2667 0.0979
0.3747 0.2672 0.0984
0.4338 0.2678 0.0990
0.4930 0.2683 0.0995
0.5521 0.2688 0.1000
0.6112 0.2693 0.1005
0.6704 0.2698 0.1010
0.7295 0.2704 0.1016
0.7886 0.2709 0.1021
0.8478 0.2714 0.1026
0.9069 0.2719 0.1031
0.9660 0.2724 0.1036
0.0217 0.3270 0.0972
0.0809 0.3275 0.0977
0.1400 0.3280 0.0982
0.1991 0.3286 0.0987
0.2583 0.3291 0.0992
0.3174 0.3296 0.0997
0.3765 0.3301 0.1003
0.4357 0.3306 0.1008
0.4948 0.3312 0.1013
0.5539 0.3317 0.1018
0.6131 0.3322 0.1023
0.6722 0.3327 0.1029
0.7313 0.3332 0.1034
0.7905 0.3338 0.1039
0.8496 0.3343 0.1044
0.9087 0.3348 0.1049
0.9679 0.3353 0.1055
0.0235 0.3899 0.0990
0.0827 0.3904 0.0995
0.1418 0.3909 0.1000
0.2009 0.3914 0.1005
0.2601 0.3920 0.1011
0.3192 0.3925 0.1016
0.3783 0.3930 0.1021
0.4375 0.3935 0.1026
0.4966 0.3940 0.1031
0.5557 0.3946 0.1036
0.6149 0.3951 0.1042
0.6740 0.3956 0.1047
0.7331 0.3961 0.1052
0.7923 0.3966 0.1057
0.8514 0.3971 0.1062
0.9105 0.3977 0.1068
0.9697 0.3982 0.1073
0.0254 0.4528 0.1008
0.0845 0.4533 0.1013
0.1436 0.4538 0.1018
0.2028 0.4543 0.1024
0.2619 0.4548 0.1029
0.3210 0.4554 0.1034
0.3802 0.4559 0.1039
0.4393 0.4564 0.1044
0.4984 0.4569 0.1049
0.5576 0.4574 0.1055
0.6167 0.4579 0.1060
0.6758 0.4585 0.1065
0.7350 0.4590 0.1070
0.7941 0.4595 0.1075
0.8532 0.4600 0.1081
0.9124 0.4605 0.1086
0.9715 0.4611 0.1091
0.0272 0.5156 0.1026
0.0863 0.5161 0.1031
0.1454 0.5167 0.1037
0.2046 0.5172 0.1042
0.2637 0.5177 0.1047
0.3228 0.5182 0.1052
0.3820 0.5187 0.1057
0.4411 0.5193 0.1062
0.5002 0.5198 0.1068
0.5594 0.5203 0.1073
0.6185 0.5208 0.1078
0.6776 0.5213 0.1083
0.7368 0.5219 0.1088
0.7959 0.5224 0.1094
0.8550 0.5229 0.1099
0.9142 0.5234 0.1104
0.9733 0.5239 0.1109
0.0290 0.5785 0.1044
0.0881 0.5790 0.1050
0.1473 0.5795 0.1055
0.2064 0.5801 0.1060
0.2655 0.5806 0.1065
0.3247 0.5811 0.1070
0.3838 0.5816 0.1075
0.4429 0.5821 0.1081
0.5021 0.5827 0.1086
0.5612 0.5832 0.1091
0.6203 0.5837 0.1096
0.6795 0.5842 0.1101
0.7386 0.5847 0.1107
0.7977 0.5853 0.1112
0.8569 0.5858 0.1117
0.9160 0.5863 0.1122
0.9751 0.5868 0.1127
0.0308 0.6414 0.1063
0.0900 0.6419 0.1068
0.1491 0.6424 0.1073
0.2082 0.6429 0.1078
0.2674 0.6435 0.1083
0.3265 0.6440 0.1088
0.3856 0.6445 0.1094
0.4448 0.6450 0.1099
0.5039 0.6455 0.1104
0.5630 0.6461 0.1109
0.6222 0.6466 0.1114
0.6813 0.6471 0.1120
0.7404 0.6476 0.1125
0.7996 0.6481 0.1130
0.8587 0.6487 0.1135
0.9178 0.6492 0.1140
0.9769 0.6497 0.1146
0.0326 0.7043 0.1081
0.0918 0.7048 0.1086
0.1509 0.7053 0.1091
0.2100 0.7058 0.1096
0.2692 0.7063 0.1101
0.3283 0.7069 0.1107
0.3874 0.7074 0.1112
0.4466 0.7079 0.1117
0.5057 0.7084 0.1122
0.5648 0.7089 0.1127
0.6240 0.7094 0.1133
0.6831 0.7100 0.1138
0.7422 0.7105 0.1143
0.8014 0.7110 0.1148
0.8605 0.7115 0.1153
0.9196 0.7120 0.1159
0.9788 0.7126 0.1164
0.0345 0.7671 0.1099
0.0936 0.7677 0.1104
0.1527 0.7682 0.1109
0.2119 0.7687 0.1114
0.2710 0.7692 0.1120
0.3301 0.7697 0.1125
0.3893 0.7702 0.1130
0.4484 0.7708 0.1135
0.5075 0.7713 0.1140
0.5667 0.7718 0.1146
0.6258 0.7723 0.1151
0.6849 0.7728 0.1156
0.7441 0.7734 0.1161
0.8032 0.7739 0.1166
0.8623 0.7744 0.1172
0.9215 0.7749 0.1177
0.9806 0.7754 0.1182
0.0363 0.8300 0.1117
0.0954 0.8305 0.1122
0.1545 0.8310 0.1127
0.2137 0.8316 0.1133
0.2728 0.8321 0.1138
0.3319 0.8326 0.1143
0.3911 0.8331 0.1148
0.4502 0.8336 0.1153
0.5093 0.8342 0.1159
0.5685 0.8347 0.1164
0.6276 0.8352 0.1169
0.6867 0.8357 0.1174
0.7459 0.8362 0.1179
0.8050 0.8368 0.1185
0.8641 0.8373 0.1190
0.9233 0.8378 0.1195
0.9824 0.8383 0.1200
0.0381 0.8929 0.1135
0.0972 0.8934 0.1140
0.1564 0.8939 0.1146
0.2155 0.8944 0.1151
0.2746 0.8950 0.1156
0.3338 0.8955 0.1161
0.3929 0.8960 0.1166
0.4520 0.8965 0.1172
0.5112 0.8970 0.1177
0.5703 0.8976 0.1182
0.6294 0.8981 0.1187
0.6886 0.8986 0.1192
0.7477 0.8991 0.1198
0.8068 0.8996 0.1203
0.8660 0.9002 0.1208
0.9251 0.9007 0.1213
0.9842 0.9012 0.1218
0.0399 0.9558 0.1153
0.0991 0.9563 0.1159
0.1582 0.9568 0.1164
0.2173 0.9573 0.1169
0.2765 0.9578 0.1174
0.3356 0.9584 0.1179
0.3947 0.9589 0.1185
0.4538 0.9594 0.1190
0.5130 0.9599 0.1195
0.5721 0.9604 0.1200
0.6312 0.9610 0.1205
0.6904 0.9615 0.1211
0.7495 0.9620 0.1216
0.8086 0.9625 0.1221
0.8678 0.9630 0.1226
0.9269 0.9635 0.1231
0.9860 0.9641 0.1237
0.0417 1.0000 0.1172
0.1009 1.0000 0.1177
0.1600 1.0000 0.1182
0.2191 1.0000 0.1187
0.2783 1.0000 0.1192
0.3374 1.0000 0.1198
0.3965 1.0000 0.1203
0.4557 1.0000 0.1208
0.5148 1.0000 0.1213
0.5739 1.0000 0.1218
0.6331 1.0000 0.1224
0.6922 1.0000 0.1229
0.7513 1.0000 0.1234
0.8105 1.0000 0.1239
0.8696 1.0000 0.1244
0.9287 1.0000 0.1250
0.9879 1.0000 0.1255
0.0128 0.0128 0.1535
0.0720 0.0133 0.1540
0.1311 0.0139 0.1545
0.1902 0.0144 0.1551
0.2494 0.0149 0.1556
0.3085 0.0154 0.1561
0.3676 0.0159 0.1566
0.4268 0.0165 0.1571
0.4859 0.0170 0.1577
0.5450 0.0175 0.1582
0.6042 0.0180 0.1587
0.6633 0.0185 0.1592
0.7224 0.0191 0.1597
0.7816 0.0196 0.1603
0.8407 0.0201 0.1608
0.8998 0.0206 0.1613
0.9590 0.0211 0.1618
0.0146 0.0757 0.1553
0.0738 0.0762 0.1558
0.1329 0.0767 0.1564
0.1920 0.0773 0.1569
0.2512 0.0778 0.1574
0.3103 0.0783 0.1579
0.3694 0.0788 0.1584
0.4286 0.0793 0.1590
0.4877 0.0799 0.1595
0.5468 0.0804 0.1600
0.6060 0.0809 0.1605
0.6651 0.0814 0.1610
0.7242 0.0819 0.1616
0.7834 0.0824 0.1621
0.8425 0.0830 0.1626
0.9016 0.0835 0.1631
0.9608 0.0840 0.1636
0.0165 0.1386 0.1571
0.0756 0.1391 0.1577
0.1347 0.1396 0.1582
0.1939 0.1401 0.1587
0.2530 0.1407 0.1592
0.3121 0.1412 0.1597
0.3713 0.1417 0.1603
0.4304 0.1422 0.1608
0.4895 0.1427 0.1613
0.5487 0.1432 0.1618
0.6078 0.1438 0.1623
0.6669 0.1443 0.1629
0.7261 0.1448 0.1634
0.7852 0.1453 0.1639
0.8443 0.1458 0.1644
0.9035 0.1464 0.1649
0.9626 0.1469 0.1655
0.0183 0.2014 0.1590
0.0774 0.2020 0.1595
0.1365 0.2025 0.1600
0.1957 0.2030 0.1605
0.2548 0.2035 0.1610
0.3139 0.2040 0.1616
0.3731 0.2046 0.1621
0.4322 0.2051 0.1626
0.4913 0.2056 0.1631
0.5505 0.2061 0.1636
0.6096 0.2066 0.1642
0.6687 0.2072 0.1647
0.7279 0.2077 0.1652
0.7870 0.2082 0.1657
0.8461 0.2087 0.1662
0.9053 0.2092 0.1668
0.9644 0.2098 0.1673
0.0201 0.2643 0.1608
0.0792 0.2648 0.1613
0.1384 0.2654 0.1618
0.1975 0.2659 0.1623
0.2566 0.2664 0.1629
0.3158 0.2669 0.1634
0.3749 0.2674 0.1639
0.4340 0.2680 0.1644
0.4932 0.2685 0.1649
0.5523 0.2690 0.1655
0.6114 0.2695 0.1660
0.6706 0.2700 0.1665
0.7297 0.2706 0.1670
0.7888 0.2711 0.1675
0.8480 0.2716 0.1681
0.9071 0.2721 0.1686
0.9662 0.2726 0.1691
0.0219 0.3272 0.1626
0.0811 0.3277 0.1631
0.1402 0.3282 0.1636
0.1993 0.3288 0.1642
0.2585 0.3293 0.1647
0.3176 0.3298 0.1652
0.3767 0.3303 0.1657
0.4359 0.3308 0.1662
0.4950 0.3314 0.1668
0.5541 0.3319 0.1673
0.6133 0.3324 0.1678
0.6724 0.3329 0.1683
0.7315 0.3334 0.1688
0.7906 0.3340 0.1694
0.8498 0.3345 0.1699
0.9089 0.3350 0.1704
0.9680 0.3355 0.1709
0.0237 0.3901 0.1644
0.0829 0.3906 0.1649
0.1420 0.3911 0.1655
0.2011 0.3916 0.1660
0.2603 0.3922 0.1665
0.3194 0.3927 0.1670
0.3785 0.3932 0.1675
0.4377 0.3937 0.1681
0.4968 0.3942 0.1686
0.5559 0.3947 0.1691
0.6151 0.3953 0.1696
0.6742 0.3958 0.1701
0.7333 0.3963 0.1707
0.7925 0.3968 0.1712
0.8516 0.3973 0.1717
0.9107 0.3979 0.1722
0.9699 0.3984 0.1727
0.0256 0.4530 0.1662
0.0847 0.4535 0.1668
0.1438 0.4540 0.1673
0.2030 0.4545 0.1678
0.2621 0.4550 0.1683
0.3212 0.4555 0.1688
0.3804 0.4561 0.1694
0.4395 0.4566 0.1699
0.4986 0.4571 0.1704
0.5578 0.4576 0.1709
0.6169 0.4581 0.1714
0.6760 0.4587 0.1720
0.7352 0.4592 0.1725
0.7943 0.4597 0.1730
0.8534 0.4602 0.1735
0.9126 0.4607 0.1740
0.9717 0.4613 0.1746
0.0274 0.5158 0.1681
0.0865 0.5163 0.1686
0.1456 0.5169 0.1691
0.2048 0.5174 0.1696
0.2639 0.5179 0.1701
0.3230 0.5184 0.1707
0.3822 0.5189 0.1712
0.4413 0.5195 0.1717
0.5004 0.5200 0.1722
0.5596 0.5205 0.1727
0.6187 0.5210 0.1733
0.6778 0.5215 0.1738
0.7370 0.5221 0.1743
0.7961 0.5226 0.1748
0.8552 0.5231 0.1753
0.9144 0.5236 0.1759
0.9735 0.5241 0.1764
0.0292 0.5787 0.1699
0.0883 0.5792 0.1704
0.1475 0.5797 0.1709
0.2066 0.5803 0.1714
0.2657 0.5808 0.1720
0.3249 0.5813 0.1725
0.3840 0.5818 0.1730
0.4431 0.5823 0.1735
0.5023 0.5829 0.1740
0.5614 0.5834 0.1746
0.6205 0.5839 0.1751
0.6797 0.5844 0.1756
0.7388 0.5849 0.1761
0.7979 0.5855 0.1766
0.8571 0.5860 0.1772
0.9162 0.5865 0.1777
0.9753 0.5870 0.1782
0.0310 0.6416 0.1717
0.0902 0.6421 0.1722
0.1493 0.6426 0.1727
0.2084 0.6431 0.1733
0.2675 0.6437 0.1738
0.3267 0.6442 0.1743
0.3858 0.6447 0.1748
0.4449 0.6452 0.1753
0.5041 0.6457 0.1759
0.5632 0.6463 0.1764
0.6223 0.6468 0.1769
0.6815 0.6473 0.1774
0.7406 0.6478 0.1779
0.7997 0.6483 0.1785
0.8589 0.6488 0.1790
0.9180 0.6494 0.1795
0.9771 0.6499 0.1800
0.0328 0.7045 0.1735
0.0920 0.7050 0.1740
0.1511 0.7055 0.1746
0.2102 0.7060 0.1751
0.2694 0.7065 0.1756
0.3285 0.7070 0.1761
0.3876 0.7076 0.1766
0.4468 0.7081 0.1772
0.5059 0.7086 0.1777
0.5650 0.7091 0.1782
0.6242 0.7096 0.1787
0.6833 0.7102 0.1792
0.7424 0.7107 0.1798
0.8016 0.7112 0.1803
0.8607 0.7117 0.1808
0.9198 0.7122 0.1813
0.9790 0.7128 0.1818
0.0347 0.7673 0.1753
0.0938 0.7678 0.1759
0.1529 0.7684 0.1764
0.2121 0.7689 0.1769
0.2712 0.7694 0.1774
0.3303 0.7699 0.1779
0.3895 0.7704 0.1785
0.4486 0.7710 0.1790
0.5077 0.7715 0.1795
0.5669 0.7720 0.1800
0.6260 0.7725 0.1805
0.6851 0.7730 0.1811
0.7443 0.7736 0.1816
0.8034 0.7741 0.1821
0.8625 0.7746 0.1826
0.9217 0.7751 0.1831
0.9808 0.7756 0.1836
0.0365 0.8302 0.1772
0.0956 0.8307 0.1777
0.1547 0.8312 0.1782
0.2139 0.8318 0.1787
0.2730 0.8323 0.1792
0.3321 0.8328 0.1798
0.3913 0.8333 0.1803
0.4504 0.8338 0.1808
0.5095 0.8344 0.1813
0.5687 0.8349 0.1818
0.6278 0.8354 0.1824
0.6869 0.8359 0.1829
0.7461 0.8364 0.1834
0.8052 0.8370 0.1839
0.8643 0.8375 0.1844
0.9235 0.8380 0.1849
0.9826 0.8385 0.1855
0.0383 0.8931 0.1790
0.0974 0.8936 0.1795
0.1566 0.8941 0.1800
0.2157 0.8946 0.1805
0.2748 0.8952 0.1811
0.3340 0.8957 0.1816
0.3931 0.8962 0.1821
0.4522 0.8967 0.1826
0.5114 0.8972 0.1831
0.5705 0.8978 0.1837
0.6296 0.8983 0.1842
0.6888 0.8988 0.1847
0.7479 0.8993 0.1852
0.8070 0.8998 0.1857
0.8662 0.9003 0.1862
0.9253 0.9009 0.1868
0.9844 0.9014 0.1873
0.0401 0.9560 0.1808
0.0992 0.9565 0.1813
0.1584 0.9570 0.1818
0.2175 0.9575 0.1824
0.2766 0.9580 0.1829
0.3358 0.9586 0.1834
0.3949 0.9591 0.1839
0.4540 0.9596 0.1844
0.5132 0.9601 0.1850
0.5723 0.9606 0.1855
0.6314 0.9611 0.1860
0.6906 0.9617 0.1865
0.7497 0.9622 0.1870
0.8088 0.9627 0.1875
0.8680 0.9632 0.1881
0.9271 0.9637 0.1886
0.9862 0.9643 0.1891
0.0419 1.0000 0.1826
0.1011 1.0000 0.1831
0.1602 1.0000 0.1837
0.2193 1.0000 0.1842
0.2785 1.0000 0.1847
0.3376 1.0000 0.1852
0.3967 1.0000 0.1857
0.4559 1.0000 0.1863
0.5150 1.0000 0.1868
0.5741 1.0000 0.1873
0.6333 1.0000 0.1878
0.6924 1.0000 0.1883
0.7515 1.0000 0.1888
0.8107 1.0000 0.1894
0.8698 1.0000 0.1899
0.9289 1.0000 0.1904
0.9881 1.0000 0.1909
0.0130 0.0130 0.2190
0.0722 0.0135 0.2195
0.1313 0.0141 0.2200
0.1904 0.0146 0.2205
0.2496 0.0151 0.2210
0.3087 0.0156 0.2216
0.3678 0.0161 0.2221
0.4270 0.0167 0.2226
0.4861 0.0172 0.2231
0.5452 0.0177 0.2236
0.6043 0.0182 0.2241
0.6635 0.0187 0.2247
0.7226 0.0193 0.2252
0.7817 0.0198 0.2257
0.8409 0.0203 0.2262
0.9000 0.0208 0.2267
0.9591 0.0213 0.2273
0.0148 0.0759 0.2208
0.0740 0.0764 0.2213
0.1331 0.0769 0.2218
0.1922 0.0775 0.2223
0.2514 0.0780 0.2229
0.3105 0.0785 0.2234
0.3696 0.0790 0.2239
0.4288 0.0795 0.2244
0.4879 0.0800 0.2249
0.5470 0.0806 0.2254
0.6062 0.0811 0.2260
0.6653 0.0816 0.2265
0.7244 0.0821 0.2270
0.7836 0.0826 0.2275
0.8427 0.0832 0.2280
0.9018 0.0837 0.2286
