public/luts/azure.cube
# edite look: Azure (CC0)
TITLE "Azure"
LUT_3D_SIZE 17
DOMAIN_MIN 0.0 0.0 0.0
DOMAIN_MAX 1.0 1.0 1.0
0.0000 0.0000 0.0000
0.0424 0.0000 0.0000
0.1147 0.0000 0.0000
0.1871 0.0000 0.0000
0.2594 0.0000 0.0000
0.3318 0.0000 0.0000
0.4042 0.0000 0.0000
0.4765 0.0000 0.0000
0.5489 0.0000 0.0000
0.6212 0.0000 0.0000
0.6936 0.0000 0.0000
0.7659 0.0000 0.0000
0.8383 0.0000 0.0000
0.9107 0.0000 0.0000
0.9830 0.0000 0.0000
1.0000 0.0000 0.0000
1.0000 0.0000 0.0000
0.0000 0.0393 0.0000
0.0348 0.0371 0.0000
0.1071 0.0349 0.0000
0.1795 0.0327 0.0000
0.2519 0.0305 0.0000
0.3242 0.0283 0.0000
0.3966 0.0262 0.0000
0.4689 0.0240 0.0000
0.5413 0.0218 0.0000
0.6136 0.0196 0.0000
0.6860 0.0174 0.0000
0.7584 0.0152 0.0000
0.8307 0.0130 0.0000
0.9031 0.0109 0.0000
0.9754 0.0087 0.0000
1.0000 0.0065 0.0000
1.0000 0.0043 0.0000
0.0000 0.1085 0.0000
0.0272 0.1064 0.0000
0.0996 0.1042 0.0000
0.1719 0.1020 0.0000
0.2443 0.0998 0.0000
0.3166 0.0976 0.0000
0.3890 0.0954 0.0000
0.4613 0.0932 0.0000
0.5337 0.0911 0.0000
0.6061 0.0889 0.0000
0.6784 0.0867 0.0000
0.7508 0.0845 0.0000
0.8231 0.0823 0.0000
0.8955 0.0801 0.0000
0.9679 0.0779 0.0000
1.0000 0.0757 0.0000
1.0000 0.0736 0.0000
0.0000 0.1778 0.0000
0.0196 0.1756 0.0000
0.0920 0.1734 0.0000
0.1643 0.1712 0.0000
0.2367 0.1691 0.0000
0.3090 0.1669 0.0000
0.3814 0.1647 0.0000
0.4538 0.1625 0.0000
0.5261 0.1603 0.0000
0.5985 0.1581 0.0000
0.6708 0.1559 0.0000
0.7432 0.1538 0.0000
0.8156 0.1516 0.0000
0.8879 0.1494 0.0000
0.9603 0.1472 0.0000
1.0000 0.1450 0.0000
1.0000 0.1428 0.0000
0.0000 0.2471 0.0000
0.0120 0.2449 0.0000
0.0844 0.2427 0.0000
0.1568 0.2405 0.0000
0.2291 0.2383 0.0000
0.3015 0.2361 0.0000
0.3738 0.2340 0.0000
0.4462 0.2318 0.0000
0.5185 0.2296 0.0000
0.5909 0.2274 0.0000
0.6633 0.2252 0.0000
0.7356 0.2230 0.0000
0.8080 0.2208 0.0000
0.8803 0.2187 0.0000
0.9527 0.2165 0.0000
1.0000 0.2143 0.0000
1.0000 0.2121 0.0000
0.0000 0.3163 0.0000
0.0045 0.3142 0.0000
0.0768 0.3120 0.0000
0.1492 0.3098 0.0000
0.2215 0.3076 0.0000
0.2939 0.3054 0.0000
0.3662 0.3032 0.0000
0.4386 0.3010 0.0000
0.5110 0.2989 0.0000
0.5833 0.2967 0.0000
0.6557 0.2945 0.0000
0.7280 0.2923 0.0000
0.8004 0.2901 0.0000
0.8728 0.2879 0.0000
0.9451 0.2857 0.0000
1.0000 0.2836 0.0000
1.0000 0.2814 0.0000
0.0000 0.3856 0.0000
0.0000 0.3834 0.0000
0.0692 0.3812 0.0000
0.1416 0.3791 0.0000
0.2139 0.3769 0.0000
0.2863 0.3747 0.0000
0.3587 0.3725 0.0000
0.4310 0.3703 0.0000
0.5034 0.3681 0.0000
0.5757 0.3659 0.0000
0.6481 0.3638 0.0000
0.7205 0.3616 0.0000
0.7928 0.3594 0.0000
0.8652 0.3572 0.0000
0.9375 0.3550 0.0000
1.0000 0.3528 0.0000
1.0000 0.3506 0.0000
0.0000 0.4549 0.0000
0.0000 0.4527 0.0000
0.0616 0.4505 0.0000
0.1340 0.4483 0.0000
0.2064 0.4461 0.0000
0.2787 0.4440 0.0000
0.3511 0.4418 0.0000
0.4234 0.4396 0.0000
0.4958 0.4374 0.0000
0.5682 0.4352 0.0000
0.6405 0.4330 0.0000
0.7129 0.4308 0.0000
0.7852 0.4287 0.0000
0.8576 0.4265 0.0000
0.9300 0.4243 0.0000
1.0000 0.4221 0.0000
1.0000 0.4199 0.0000
0.0000 0.5242 0.0000
0.0000 0.5220 0.0000
0.0541 0.5198 0.0000
0.1264 0.5176 0.0000
0.1988 0.5154 0.0000
0.2711 0.5132 0.0000
0.3435 0.5110 0.0000
0.4159 0.5088 0.0000
0.4882 0.5067 0.0000
0.5606 0.5045 0.0000
0.6329 0.5023 0.0000
0.7053 0.5001 0.0000
0.7777 0.4979 0.0000
0.8500 0.4957 0.0000
0.9224 0.4935 0.0000
0.9947 0.4914 0.0000
1.0000 0.4892 0.0000
0.0000 0.5934 0.0000
0.0000 0.5912 0.0000
0.0465 0.5890 0.0000
0.1188 0.5869 0.0000
0.1912 0.5847 0.0000
0.2636 0.5825 0.0000
0.3359 0.5803 0.0000
0.4083 0.5781 0.0000
0.4806 0.5759 0.0000
0.5530 0.5737 0.0000
0.6254 0.5716 0.0000
0.6977 0.5694 0.0000
0.7701 0.5672 0.0000
0.8424 0.5650 0.0000
0.9148 0.5628 0.0000
0.9871 0.5606 0.0000
1.0000 0.5584 0.0000
0.0000 0.6627 0.0000
0.0000 0.6605 0.0000
0.0389 0.6583 0.0000
0.1113 0.6561 0.0000
0.1836 0.6539 0.0000
0.2560 0.6518 0.0000
0.3283 0.6496 0.0000
0.4007 0.6474 0.0000
0.4731 0.6452 0.0000
0.5454 0.6430 0.0000
0.6178 0.6408 0.0000
0.6901 0.6386 0.0000
0.7625 0.6365 0.0000
0.8348 0.6343 0.0000
0.9072 0.6321 0.0000
0.9796 0.6299 0.0000
1.0000 0.6277 0.0000
0.0000 0.7320 0.0000
0.0000 0.7298 0.0000
0.0313 0.7276 0.0000
0.1037 0.7254 0.0000
0.1760 0.7232 0.0000
0.2484 0.7210 0.0000
0.3208 0.7188 0.0000
0.3931 0.7167 0.0000
0.4655 0.7145 0.0000
0.5378 0.7123 0.0000
0.6102 0.7101 0.0000
0.6826 0.7079 0.0000
0.7549 0.7057 0.0000
0.8273 0.7035 0.0000
0.8996 0.7014 0.0000
0.9720 0.6992 0.0000
1.0000 0.6970 0.0000
0.0000 0.8012 0.0000
0.0000 0.7990 0.0000
0.0237 0.7969 0.0000
0.0961 0.7947 0.0000
0.1685 0.7925 0.0000
0.2408 0.7903 0.0000
0.3132 0.7881 0.0000
0.3855 0.7859 0.0000
0.4579 0.7837 0.0000
0.5303 0.7816 0.0000
0.6026 0.7794 0.0000
0.6750 0.7772 0.0000
0.7473 0.7750 0.0000
0.8197 0.7728 0.0000
0.8920 0.7706 0.0000
0.9644 0.7684 0.0000
1.0000 0.7663 0.0000
0.0000 0.8705 0.0000
0.0000 0.8683 0.0000
0.0162 0.8661 0.0000
0.0885 0.8639 0.0000
0.1609 0.8618 0.0000
0.2332 0.8596 0.0000
0.3056 0.8574 0.0000
0.3780 0.8552 0.0000
0.4503 0.8530 0.0000
0.5227 0.8508 0.0000
0.5950 0.8486 0.0000
0.6674 0.8464 0.0000
0.7397 0.8443 0.0000
0.8121 0.8421 0.0000
0.8845 0.8399 0.0000
0.9568 0.8377 0.0000
1.0000 0.8355 0.0000
0.0000 0.9398 0.0000
0.0000 0.9376 0.0000
0.0086 0.9354 0.0000
0.0809 0.9332 0.0000
0.1533 0.9310 0.0000
0.2257 0.9288 0.0000
0.2980 0.9266 0.0000
0.3704 0.9245 0.0000
0.4427 0.9223 0.0000
0.5151 0.9201 0.0000
0.5874 0.9179 0.0000
0.6598 0.9157 0.0000
0.7322 0.9135 0.0000
0.8045 0.9113 0.0000
0.8769 0.9092 0.0000
0.9492 0.9070 0.0000
1.0000 0.9048 0.0000
0.0000 1.0000 0.0000
0.0000 1.0000 0.0000
0.0010 1.0000 0.0000
0.0734 1.0000 0.0000
0.1457 1.0000 0.0000
0.2181 0.9981 0.0000
0.2904 0.9959 0.0000
0.3628 0.9937 0.0000
0.4352 0.9915 0.0000
0.5075 0.9894 0.0000
0.5799 0.9872 0.0000
0.6522 0.9850 0.0000
0.7246 0.9828 0.0000
0.7969 0.9806 0.0000
0.8693 0.9784 0.0000
0.9417 0.9762 0.0000
1.0000 0.9741 0.0000
0.0000 1.0000 0.0000
0.0000 1.0000 0.0000
0.0000 1.0000 0.0000
0.0658 1.0000 0.0000
0.1381 1.0000 0.0000
0.2105 1.0000 0.0000
0.2829 1.0000 0.0000
0.3552 1.0000 0.0000
0.4276 1.0000 0.0000
0.4999 1.0000 0.0000
0.5723 1.0000 0.0000
0.6446 1.0000 0.0000
0.7170 1.0000 0.0000
0.7894 1.0000 0.0000
0.8617 1.0000 0.0000
0.9341 1.0000 0.0000
1.0000 1.0000 0.0000
0.0000 0.0000 0.0506
0.0415 0.0000 0.0485
0.1139 0.0000 0.0463
0.1863 0.0000 0.0441
0.2586 0.0000 0.0419
0.3310 0.0000 0.0397
0.4033 0.0000 0.0375
0.4757 0.0000 0.0353
0.5481 0.0000 0.0332
0.6204 0.0000 0.0310
0.6928 0.0000 0.0288
0.7651 0.0000 0.0266
0.8375 0.0000 0.0244
0.9098 0.0000 0.0222
0.9822 0.0000 0.0200
1.0000 0.0000 0.0179
1.0000 0.0000 0.0157
0.0000 0.0385 0.0431
0.0340 0.0363 0.0409
0.1063 0.0341 0.0387
0.1787 0.0319 0.0365
0.2510 0.0297 0.0343
0.3234 0.0275 0.0321
0.3958 0.0253 0.0300
0.4681 0.0232 0.0278
0.5405 0.0210 0.0256
0.6128 0.0188 0.0234
0.6852 0.0166 0.0212
0.7576 0.0144 0.0190
0.8299 0.0122 0.0168
0.9023 0.0100 0.0147
0.9746 0.0079 0.0125
1.0000 0.0057 0.0103
1.0000 0.0035 0.0081
0.0000 0.1077 0.0355
0.0264 0.1055 0.0333
0.0987 0.1034 0.0311
0.1711 0.1012 0.0289
0.2435 0.0990 0.0267
0.3158 0.0968 0.0246
0.3882 0.0946 0.0224
0.4605 0.0924 0.0202
0.5329 0.0902 0.0180
0.6053 0.0881 0.0158
0.6776 0.0859 0.0136
0.7500 0.0837 0.0114
0.8223 0.0815 0.0093
0.8947 0.0793 0.0071
0.9670 0.0771 0.0049
1.0000 0.0749 0.0027
1.0000 0.0728 0.0005
0.0000 0.1770 0.0279
0.0188 0.1748 0.0257
0.0912 0.1726 0.0235
0.1635 0.1704 0.0213
0.2359 0.1683 0.0192
0.3082 0.1661 0.0170
0.3806 0.1639 0.0148
0.4530 0.1617 0.0126
0.5253 0.1595 0.0104
0.5977 0.1573 0.0082
0.6700 0.1551 0.0060
0.7424 0.1529 0.0039
0.8147 0.1508 0.0017
0.8871 0.1486 0.0000
0.9595 0.1464 0.0000
1.0000 0.1442 0.0000
1.0000 0.1420 0.0000
0.0000 0.2463 0.0203
0.0112 0.2441 0.0181
0.0836 0.2419 0.0160
0.1559 0.2397 0.0138
0.2283 0.2375 0.0116
0.3007 0.2353 0.0094
0.3730 0.2331 0.0072
0.4454 0.2310 0.0050
0.5177 0.2288 0.0028
0.5901 0.2266 0.0007
0.6624 0.2244 0.0000
0.7348 0.2222 0.0000
0.8072 0.2200 0.0000
0.8795 0.2178 0.0000
0.9519 0.2157 0.0000
1.0000 0.2135 0.0000
1.0000 0.2113 0.0000
0.0000 0.3155 0.0127
0.0036 0.3133 0.0106
0.0760 0.3112 0.0084
0.1484 0.3090 0.0062
0.2207 0.3068 0.0040
0.2931 0.3046 0.0018
0.3654 0.3024 0.0000
0.4378 0.3002 0.0000
0.5102 0.2980 0.0000
0.5825 0.2959 0.0000
0.6549 0.2937 0.0000
0.7272 0.2915 0.0000
0.7996 0.2893 0.0000
0.8719 0.2871 0.0000
0.9443 0.2849 0.0000
1.0000 0.2827 0.0000
1.0000 0.2806 0.0000
0.0000 0.3848 0.0052
0.0000 0.3826 0.0030
0.0684 0.3804 0.0008
0.1408 0.3782 0.0000
0.2131 0.3761 0.0000
0.2855 0.3739 0.0000
0.3579 0.3717 0.0000
0.4302 0.3695 0.0000
0.5026 0.3673 0.0000
0.5749 0.3651 0.0000
0.6473 0.3629 0.0000
0.7196 0.3608 0.0000
0.7920 0.3586 0.0000
0.8644 0.3564 0.0000
0.9367 0.3542 0.0000
1.0000 0.3520 0.0000
1.0000 0.3498 0.0000
0.0000 0.4541 0.0000
0.0000 0.4519 0.0000
0.0608 0.4497 0.0000
0.1332 0.4475 0.0000
0.2056 0.4453 0.0000
0.2779 0.4431 0.0000
0.3503 0.4410 0.0000
0.4226 0.4388 0.0000
0.4950 0.4366 0.0000
0.5673 0.4344 0.0000
0.6397 0.4322 0.0000
0.7121 0.4300 0.0000
0.7844 0.4278 0.0000
0.8568 0.4257 0.0000
0.9291 0.4235 0.0000
1.0000 0.4213 0.0000
1.0000 0.4191 0.0000
0.0000 0.5233 0.0000
0.0000 0.5212 0.0000
0.0533 0.5190 0.0000
0.1256 0.5168 0.0000
0.1980 0.5146 0.0000
0.2703 0.5124 0.0000
0.3427 0.5102 0.0000
0.4150 0.5080 0.0000
0.4874 0.5059 0.0000
0.5598 0.5037 0.0000
0.6321 0.5015 0.0000
0.7045 0.4993 0.0000
0.7768 0.4971 0.0000
0.8492 0.4949 0.0000
0.9216 0.4927 0.0000
0.9939 0.4906 0.0000
1.0000 0.4884 0.0000
0.0000 0.5926 0.0000
0.0000 0.5904 0.0000
0.0457 0.5882 0.0000
0.1180 0.5861 0.0000
0.1904 0.5839 0.0000
0.2628 0.5817 0.0000
0.3351 0.5795 0.0000
0.4075 0.5773 0.0000
0.4798 0.5751 0.0000
0.5522 0.5729 0.0000
0.6245 0.5707 0.0000
0.6969 0.5686 0.0000
0.7693 0.5664 0.0000
0.8416 0.5642 0.0000
0.9140 0.5620 0.0000
0.9863 0.5598 0.0000
1.0000 0.5576 0.0000
0.0000 0.6619 0.0000
0.0000 0.6597 0.0000
0.0381 0.6575 0.0000
0.1105 0.6553 0.0000
0.1828 0.6531 0.0000
0.2552 0.6509 0.0000
0.3275 0.6488 0.0000
0.3999 0.6466 0.0000
0.4722 0.6444 0.0000
0.5446 0.6422 0.0000
0.6170 0.6400 0.0000
0.6893 0.6378 0.0000
0.7617 0.6356 0.0000
0.8340 0.6335 0.0000
0.9064 0.6313 0.0000
0.9788 0.6291 0.0000
1.0000 0.6269 0.0000
0.0000 0.7311 0.0000
0.0000 0.7290 0.0000
0.0305 0.7268 0.0000
0.1029 0.7246 0.0000
0.1752 0.7224 0.0000
0.2476 0.7202 0.0000
0.3199 0.7180 0.0000
0.3923 0.7158 0.0000
0.4647 0.7137 0.0000
0.5370 0.7115 0.0000
0.6094 0.7093 0.0000
0.6817 0.7071 0.0000
0.7541 0.7049 0.0000
0.8265 0.7027 0.0000
0.8988 0.7005 0.0000
0.9712 0.6984 0.0000
1.0000 0.6962 0.0000
0.0000 0.8004 0.0000
0.0000 0.7982 0.0000
0.0229 0.7960 0.0000
0.0953 0.7939 0.0000
0.1676 0.7917 0.0000
0.2400 0.7895 0.0000
0.3124 0.7873 0.0000
0.3847 0.7851 0.0000
0.4571 0.7829 0.0000
0.5294 0.7807 0.0000
0.6018 0.7786 0.0000
0.6742 0.7764 0.0000
0.7465 0.7742 0.0000
0.8189 0.7720 0.0000
0.8912 0.7698 0.0000
0.9636 0.7676 0.0000
1.0000 0.7654 0.0000
0.0000 0.8697 0.0000
0.0000 0.8675 0.0000
0.0154 0.8653 0.0000
0.0877 0.8631 0.0000
0.1601 0.8609 0.0000
0.2324 0.8588 0.0000
0.3048 0.8566 0.0000
0.3771 0.8544 0.0000
0.4495 0.8522 0.0000
0.5219 0.8500 0.0000
0.5942 0.8478 0.0000
0.6666 0.8456 0.0000
0.7389 0.8435 0.0000
0.8113 0.8413 0.0000
0.8837 0.8391 0.0000
0.9560 0.8369 0.0000
1.0000 0.8347 0.0000
0.0000 0.9390 0.0000
0.0000 0.9368 0.0000
0.0078 0.9346 0.0000
0.0801 0.9324 0.0000
0.1525 0.9302 0.0000
0.2248 0.9280 0.0000
0.2972 0.9258 0.0000
0.3696 0.9237 0.0000
0.4419 0.9215 0.0000
0.5143 0.9193 0.0000
0.5866 0.9171 0.0000
0.6590 0.9149 0.0000
0.7314 0.9127 0.0000
0.8037 0.9105 0.0000
0.8761 0.9083 0.0000
0.9484 0.9062 0.0000
1.0000 0.9040 0.0000
0.0000 1.0000 0.0000
0.0000 1.0000 0.0000
0.0002 1.0000 0.0000
0.0725 1.0000 0.0000
0.1449 0.9995 0.0000
0.2173 0.9973 0.0000
0.2896 0.9951 0.0000
0.3620 0.9929 0.0000
0.4343 0.9907 0.0000
0.5067 0.9885 0.0000
0.5791 0.9864 0.0000
0.6514 0.9842 0.0000
0.7238 0.9820 0.0000
0.7961 0.9798 0.0000
0.8685 0.9776 0.0000
0.9409 0.9754 0.0000
1.0000 0.9732 0.0000
0.0000 1.0000 0.0000
0.0000 1.0000 0.0000
0.0000 1.0000 0.0000
0.0650 1.0000 0.0000
0.1373 1.0000 0.0000
0.2097 1.0000 0.0000
0.2820 1.0000 0.0000
0.3544 1.0000 0.0000
0.4268 1.0000 0.0000
0.4991 1.0000 0.0000
0.5715 1.0000 0.0000
0.6438 1.0000 0.0000
0.7162 1.0000 0.0000
0.7886 1.0000 0.0000
0.8609 1.0000 0.0000
0.9333 1.0000 0.0000
1.0000 1.0000 0.0000
0.0000 0.0000 0.1313
0.0407 0.0000 0.1291
0.1131 0.0000 0.1269
0.1855 0.0000 0.1247
0.2578 0.0000 0.1226
0.3302 0.0000 0.1204
0.4025 0.0000 0.1182
0.4749 0.0000 0.1160
0.5472 0.0000 0.1138
0.6196 0.0000 0.1116
0.6920 0.0000 0.1094
0.7643 0.0000 0.1073
0.8367 0.0000 0.1051
0.9090 0.0000 0.1029
0.9814 0.0000 0.1007
1.0000 0.0000 0.0985
1.0000 0.0000 0.0963
0.0000 0.0376 0.1237
0.0332 0.0355 0.1215
0.1055 0.0333 0.1193
0.1779 0.0311 0.1172
0.2502 0.0289 0.1150
0.3226 0.0267 0.1128
0.3949 0.0245 0.1106
0.4673 0.0223 0.1084
0.5397 0.0202 0.1062
0.6120 0.0180 0.1040
0.6844 0.0158 0.1019
0.7567 0.0136 0.0997
0.8291 0.0114 0.0975
0.9015 0.0092 0.0953
0.9738 0.0070 0.0931
1.0000 0.0049 0.0909
1.0000 0.0027 0.0887
0.0000 0.1069 0.1161
0.0256 0.1047 0.1140
0.0979 0.1025 0.1118
0.1703 0.1004 0.1096
0.2426 0.0982 0.1074
0.3150 0.0960 0.1052
0.3874 0.0938 0.1030
0.4597 0.0916 0.1008
0.5321 0.0894 0.0986
0.6044 0.0872 0.0965
0.6768 0.0851 0.0943
0.7492 0.0829 0.0921
0.8215 0.0807 0.0899
0.8939 0.0785 0.0877
0.9662 0.0763 0.0855
1.0000 0.0741 0.0833
1.0000 0.0719 0.0812
0.0000 0.1762 0.1086
0.0180 0.1740 0.1064
0.0904 0.1718 0.1042
0.1627 0.1696 0.1020
0.2351 0.1674 0.0998
0.3074 0.1653 0.0976
0.3798 0.1631 0.0954
0.4521 0.1609 0.0933
0.5245 0.1587 0.0911
0.5969 0.1565 0.0889
0.6692 0.1543 0.0867
0.7416 0.1521 0.0845
0.8139 0.1500 0.0823
0.8863 0.1478 0.0801
0.9587 0.1456 0.0780
1.0000 0.1434 0.0758
1.0000 0.1412 0.0736
0.0000 0.2455 0.1010
0.0104 0.2433 0.0988
0.0828 0.2411 0.0966
0.1551 0.2389 0.0944
0.2275 0.2367 0.0922
0.2998 0.2345 0.0900
0.3722 0.2323 0.0879
0.4446 0.2302 0.0857
0.5169 0.2280 0.0835
0.5893 0.2258 0.0813
0.6616 0.2236 0.0791
0.7340 0.2214 0.0769
0.8064 0.2192 0.0747
0.8787 0.2170 0.0726
0.9511 0.2148 0.0704
1.0000 0.2127 0.0682
1.0000 0.2105 0.0660
0.0000 0.3147 0.0934
0.0028 0.3125 0.0912
0.0752 0.3104 0.0890
0.1475 0.3082 0.0868
0.2199 0.3060 0.0847
0.2923 0.3038 0.0825
0.3646 0.3016 0.0803
0.4370 0.2994 0.0781
0.5093 0.2972 0.0759
0.5817 0.2950 0.0737
0.6541 0.2929 0.0715
0.7264 0.2907 0.0693
0.7988 0.2885 0.0672
0.8711 0.2863 0.0650
0.9435 0.2841 0.0628
1.0000 0.2819 0.0606
1.0000 0.2797 0.0584
0.0000 0.3840 0.0858
0.0000 0.3818 0.0836
0.0676 0.3796 0.0814
0.1400 0.3774 0.0793
0.2123 0.3752 0.0771
0.2847 0.3731 0.0749
0.3570 0.3709 0.0727
0.4294 0.3687 0.0705
0.5018 0.3665 0.0683
0.5741 0.3643 0.0661
0.6465 0.3621 0.0640
0.7188 0.3599 0.0618
0.7912 0.3578 0.0596
0.8636 0.3556 0.0574
0.9359 0.3534 0.0552
1.0000 0.3512 0.0530
1.0000 0.3490 0.0508
0.0000 0.4533 0.0782
0.0000 0.4511 0.0760
0.0600 0.4489 0.0739
0.1324 0.4467 0.0717
0.2047 0.4445 0.0695
0.2771 0.4423 0.0673
0.3495 0.4401 0.0651
0.4218 0.4380 0.0629
0.4942 0.4358 0.0607
0.5665 0.4336 0.0586
0.6389 0.4314 0.0564
0.7113 0.4292 0.0542
0.7836 0.4270 0.0520
0.8560 0.4248 0.0498
0.9283 0.4227 0.0476
1.0000 0.4205 0.0454
1.0000 0.4183 0.0433
0.0000 0.5225 0.0707
0.0000 0.5203 0.0685
0.0524 0.5182 0.0663
0.1248 0.5160 0.0641
0.1972 0.5138 0.0619
0.2695 0.5116 0.0597
0.3419 0.5094 0.0575
0.4142 0.5072 0.0553
0.4866 0.5050 0.0532
0.5590 0.5029 0.0510
0.6313 0.5007 0.0488
0.7037 0.4985 0.0466
0.7760 0.4963 0.0444
0.8484 0.4941 0.0422
0.9207 0.4919 0.0400
0.9931 0.4897 0.0379
1.0000 0.4876 0.0357
0.0000 0.5918 0.0631
0.0000 0.5896 0.0609
0.0449 0.5874 0.0587
0.1172 0.5852 0.0565
0.1896 0.5831 0.0543
0.2619 0.5809 0.0521
0.3343 0.5787 0.0500
0.4067 0.5765 0.0478
0.4790 0.5743 0.0456
0.5514 0.5721 0.0434
0.6237 0.5699 0.0412
0.6961 0.5678 0.0390
0.7685 0.5656 0.0368
0.8408 0.5634 0.0347
0.9132 0.5612 0.0325
0.9855 0.5590 0.0303
1.0000 0.5568 0.0281
0.0000 0.6611 0.0555
0.0000 0.6589 0.0533
0.0373 0.6567 0.0511
0.1096 0.6545 0.0489
0.1820 0.6523 0.0467
0.2544 0.6501 0.0446
0.3267 0.6480 0.0424
0.3991 0.6458 0.0402
0.4714 0.6436 0.0380
0.5438 0.6414 0.0358
0.6162 0.6392 0.0336
0.6885 0.6370 0.0314
0.7609 0.6348 0.0293
0.8332 0.6326 0.0271
0.9056 0.6305 0.0249
0.9779 0.6283 0.0227
1.0000 0.6261 0.0205
0.0000 0.7303 0.0479
0.0000 0.7281 0.0457
0.0297 0.7260 0.0435
0.1021 0.7238 0.0413
0.1744 0.7216 0.0392
0.2468 0.7194 0.0370
0.3191 0.7172 0.0348
0.3915 0.7150 0.0326
0.4639 0.7128 0.0304
0.5362 0.7107 0.0282
0.6086 0.7085 0.0260
0.6809 0.7063 0.0239
0.7533 0.7041 0.0217
0.8256 0.7019 0.0195
0.8980 0.6997 0.0173
0.9704 0.6975 0.0151
1.0000 0.6954 0.0129
0.0000 0.7996 0.0403
0.0000 0.7974 0.0381
0.0221 0.7952 0.0360
0.0945 0.7930 0.0338
0.1668 0.7909 0.0316
0.2392 0.7887 0.0294
0.3116 0.7865 0.0272
0.3839 0.7843 0.0250
0.4563 0.7821 0.0228
0.5286 0.7799 0.0207
0.6010 0.7777 0.0185
0.6733 0.7756 0.0163
0.7457 0.7734 0.0141
0.8181 0.7712 0.0119
0.8904 0.7690 0.0097
0.9628 0.7668 0.0075
1.0000 0.7646 0.0054
0.0000 0.8689 0.0327
0.0000 0.8667 0.0306
0.0145 0.8645 0.0284
0.0869 0.8623 0.0262
0.1593 0.8601 0.0240
0.2316 0.8579 0.0218
0.3040 0.8558 0.0196
0.3763 0.8536 0.0174
0.4487 0.8514 0.0153
0.5210 0.8492 0.0131
0.5934 0.8470 0.0109
0.6658 0.8448 0.0087
0.7381 0.8426 0.0065
0.8105 0.8405 0.0043
0.8828 0.8383 0.0021
0.9552 0.8361 0.0000
1.0000 0.8339 0.0000
0.0000 0.9381 0.0252
0.0000 0.9360 0.0230
0.0070 0.9338 0.0208
0.0793 0.9316 0.0186
0.1517 0.9294 0.0164
0.2240 0.9272 0.0142
0.2964 0.9250 0.0120
0.3688 0.9228 0.0099
0.4411 0.9207 0.0077
0.5135 0.9185 0.0055
0.5858 0.9163 0.0033
0.6582 0.9141 0.0011
0.7305 0.9119 0.0000
0.8029 0.9097 0.0000
0.8753 0.9075 0.0000
0.9476 0.9054 0.0000
1.0000 0.9032 0.0000
0.0000 1.0000 0.0176
0.0000 1.0000 0.0154
0.0000 1.0000 0.0132
0.0717 1.0000 0.0110
0.1441 0.9987 0.0088
0.2165 0.9965 0.0067
0.2888 0.9943 0.0045
0.3612 0.9921 0.0023
0.4335 0.9899 0.0001
0.5059 0.9877 0.0000
0.5782 0.9856 0.0000
0.6506 0.9834 0.0000
0.7230 0.9812 0.0000
0.7953 0.9790 0.0000
0.8677 0.9768 0.0000
0.9400 0.9746 0.0000
1.0000 0.9724 0.0000
0.0000 1.0000 0.0100
0.0000 1.0000 0.0078
0.0000 1.0000 0.0056
0.0642 1.0000 0.0034
0.1365 1.0000 0.0013
0.2089 1.0000 0.0000
0.2812 1.0000 0.0000
0.3536 1.0000 0.0000
0.4259 1.0000 0.0000
0.4983 1.0000 0.0000
0.5707 1.0000 0.0000
0.6430 1.0000 0.0000
0.7154 1.0000 0.0000
0.7877 1.0000 0.0000
0.8601 1.0000 0.0000
0.9325 1.0000 0.0000
1.0000 1.0000 0.0000
0.0000 0.0000 0.2119
0.0399 0.0000 0.2098
0.1123 0.0000 0.2076
0.1846 0.0000 0.2054
0.2570 0.0000 0.2032
0.3294 0.0000 0.2010
0.4017 0.0000 0.1988
0.4741 0.0000 0.1966
0.5464 0.0000 0.1945
0.6188 0.0000 0.1923
0.6912 0.0000 0.1901
0.7635 0.0000 0.1879
0.8359 0.0000 0.1857
0.9082 0.0000 0.1835
0.9806 0.0000 0.1813
1.0000 0.0000 0.1792
1.0000 0.0000 0.1770
0.0000 0.0368 0.2044
0.0323 0.0346 0.2022
0.1047 0.0325 0.2000
0.1771 0.0303 0.1978
0.2494 0.0281 0.1956
0.3218 0.0259 0.1934
0.3941 0.0237 0.1913
0.4665 0.0215 0.1891
0.5389 0.0193 0.1869
0.6112 0.0172 0.1847
0.6836 0.0150 0.1825
0.7559 0.0128 0.1803
0.8283 0.0106 0.1781
0.9006 0.0084 0.1760
0.9730 0.0062 0.1738
1.0000 0.0040 0.1716
