public/luts/azure.cube
# edite look: Azure (CC0)
TITLE "Azure"
LUT_3D_SIZE 9
DOMAIN_MIN 0.0 0.0 0.0
DOMAIN_MAX 1.0 1.0 1.0
0.0000 0.0000 0.0000
0.1147 0.0000 0.0000
0.2594 0.0000 0.0000
0.4042 0.0000 0.0000
0.5489 0.0000 0.0000
0.6936 0.0000 0.0000
0.8383 0.0000 0.0000
0.9830 0.0000 0.0000
1.0000 0.0000 0.0000
0.0000 0.1085 0.0000
0.0996 0.1042 0.0000
0.2443 0.0998 0.0000
0.3890 0.0954 0.0000
0.5337 0.0911 0.0000
0.6784 0.0867 0.0000
0.8231 0.0823 0.0000
0.9679 0.0779 0.0000
1.0000 0.0736 0.0000
0.0000 0.2471 0.0000
0.0844 0.2427 0.0000
0.2291 0.2383 0.0000
0.3738 0.2340 0.0000
0.5185 0.2296 0.0000
0.6633 0.2252 0.0000
0.8080 0.2208 0.0000
0.9527 0.2165 0.0000
1.0000 0.2121 0.0000
0.0000 0.3856 0.0000
0.0692 0.3812 0.0000
0.2139 0.3769 0.0000
0.3587 0.3725 0.0000
0.5034 0.3681 0.0000
0.6481 0.3638 0.0000
0.7928 0.3594 0.0000
0.9375 0.3550 0.0000
1.0000 0.3506 0.0000
0.0000 0.5242 0.0000
0.0541 0.5198 0.0000
0.1988 0.5154 0.0000
0.3435 0.5110 0.0000
0.4882 0.5067 0.0000
0.6329 0.5023 0.0000
0.7777 0.4979 0.0000
0.9224 0.4935 0.0000
1.0000 0.4892 0.0000
0.0000 0.6627 0.0000
0.0389 0.6583 0.0000
0.1836 0.6539 0.0000
0.3283 0.6496 0.0000
0.4731 0.6452 0.0000
0.6178 0.6408 0.0000
0.7625 0.6365 0.0000
0.9072 0.6321 0.0000
1.0000 0.6277 0.0000
0.0000 0.8012 0.0000
0.0237 0.7969 0.0000
0.1685 0.7925 0.0000
0.3132 0.7881 0.0000
0.4579 0.7837 0.0000
0.6026 0.7794 0.0000
0.7473 0.7750 0.0000
0.8920 0.7706 0.0000
1.0000 0.7663 0.0000
0.0000 0.9398 0.0000
0.0086 0.9354 0.0000
0.1533 0.9310 0.0000
0.2980 0.9266 0.0000
0.4427 0.9223 0.0000
0.5874 0.9179 0.0000
0.7322 0.9135 0.0000
0.8769 0.9092 0.0000
1.0000 0.9048 0.0000
0.0000 1.0000 0.0000
0.0000 1.0000 0.0000
0.1381 1.0000 0.0000
0.2829 1.0000 0.0000
0.4276 1.0000 0.0000
0.5723 1.0000 0.0000
0.7170 1.0000 0.0000
0.8617 1.0000 0.0000
1.0000 1.0000 0.0000
0.0000 0.0000 0.1313
0.1131 0.0000 0.1269
0.2578 0.0000 0.1226
0.4025 0.0000 0.1182
0.5472 0.0000 0.1138
0.6920 0.0000 0.1094
0.8367 0.0000 0.1051
0.9814 0.0000 0.1007
1.0000 0.0000 0.0963
0.0000 0.1069 0.1161
0.0979 0.1025 0.1118
0.2426 0.0982 0.1074
0.3874 0.0938 0.1030
0.5321 0.0894 0.0986
0.6768 0.0851 0.0943
0.8215 0.0807 0.0899
0.9662 0.0763 0.0855
1.0000 0.0719 0.0812
0.0000 0.2455 0.1010
0.0828 0.2411 0.0966
0.2275 0.2367 0.0922
0.3722 0.2323 0.0879
0.5169 0.2280 0.0835
0.6616 0.2236 0.0791
0.8064 0.2192 0.0747
0.9511 0.2148 0.0704
1.0000 0.2105 0.0660
0.0000 0.3840 0.0858
0.0676 0.3796 0.0814
0.2123 0.3752 0.0771
0.3570 0.3709 0.0727
0.5018 0.3665 0.0683
0.6465 0.3621 0.0640
0.7912 0.3578 0.0596
0.9359 0.3534 0.0552
1.0000 0.3490 0.0508
0.0000 0.5225 0.0707
0.0524 0.5182 0.0663
0.1972 0.5138 0.0619
0.3419 0.5094 0.0575
0.4866 0.5050 0.0532
0.6313 0.5007 0.0488
0.7760 0.4963 0.0444
0.9207 0.4919 0.0400
1.0000 0.4876 0.0357
0.0000 0.6611 0.0555
0.0373 0.6567 0.0511
0.1820 0.6523 0.0467
0.3267 0.6480 0.0424
0.4714 0.6436 0.0380
0.6162 0.6392 0.0336
0.7609 0.6348 0.0293
0.9056 0.6305 0.0249
1.0000 0.6261 0.0205
0.0000 0.7996 0.0403
0.0221 0.7952 0.0360
0.1668 0.7909 0.0316
0.3116 0.7865 0.0272
0.4563 0.7821 0.0228
0.6010 0.7777 0.0185
0.7457 0.7734 0.0141
0.8904 0.7690 0.0097
1.0000 0.7646 0.0054
0.0000 0.9381 0.0252
0.0070 0.9338 0.0208
0.1517 0.9294 0.0164
0.2964 0.9250 0.0120
0.4411 0.9207 0.0077
0.5858 0.9163 0.0033
0.7305 0.9119 0.0000
0.8753 0.9075 0.0000
1.0000 0.9032 0.0000
0.0000 1.0000 0.0100
0.0000 1.0000 0.0056
0.1365 1.0000 0.0013
0.2812 1.0000 0.0000
0.4259 1.0000 0.0000
0.5707 1.0000 0.0000
0.7154 1.0000 0.0000
0.8601 1.0000 0.0000
1.0000 1.0000 0.0000
0.0000 0.0000 0.2926
0.1115 0.0000 0.2882
0.2562 0.0000 0.2839
0.4009 0.0000 0.2795
0.5456 0.0000 0.2751
0.6903 0.0000 0.2707
0.8351 0.0000 0.2664
0.9798 0.0000 0.2620
1.0000 0.0000 0.2576
0.0000 0.1053 0.2774
0.0963 0.1009 0.2731
0.2410 0.0965 0.2687
0.3857 0.0922 0.2643
0.5305 0.0878 0.2599
0.6752 0.0834 0.2556
0.8199 0.0791 0.2512
0.9646 0.0747 0.2468
1.0000 0.0703 0.2425
0.0000 0.2438 0.2623
0.0811 0.2395 0.2579
0.2259 0.2351 0.2535
0.3706 0.2307 0.2492
0.5153 0.2263 0.2448
0.6600 0.2220 0.2404
0.8047 0.2176 0.2360
0.9495 0.2132 0.2317
1.0000 0.2089 0.2273
0.0000 0.3824 0.2471
0.0660 0.3780 0.2427
0.2107 0.3736 0.2384
0.3554 0.3693 0.2340
0.5001 0.3649 0.2296
0.6449 0.3605 0.2253
0.7896 0.3561 0.2209
0.9343 0.3518 0.2165
1.0000 0.3474 0.2121
0.0000 0.5209 0.2320
0.0508 0.5165 0.2276
0.1955 0.5122 0.2232
0.3403 0.5078 0.2188
0.4850 0.5034 0.2145
0.6297 0.4990 0.2101
0.7744 0.4947 0.2057
0.9191 0.4903 0.2013
1.0000 0.4859 0.1970
0.0000 0.6594 0.2168
0.0357 0.6551 0.2124
0.1804 0.6507 0.2080
0.3251 0.6463 0.2037
0.4698 0.6420 0.1993
0.6145 0.6376 0.1949
0.7592 0.6332 0.1906
0.9040 0.6288 0.1862
1.0000 0.6245 0.1818
0.0000 0.7980 0.2016
0.0205 0.7936 0.1973
0.1652 0.7892 0.1929
0.3099 0.7849 0.1885
0.4546 0.7805 0.1841
0.5994 0.7761 0.1798
0.7441 0.7718 0.1754
0.8888 0.7674 0.1710
1.0000 0.7630 0.1667
0.0000 0.9365 0.1865
0.0053 0.9321 0.1821
0.1501 0.9278 0.1777
0.2948 0.9234 0.1733
0.4395 0.9190 0.1690
0.5842 0.9147 0.1646
0.7289 0.9103 0.1602
0.8736 0.9059 0.1559
1.0000 0.9015 0.1515
0.0000 1.0000 0.1713
0.0000 1.0000 0.1669
0.1349 1.0000 0.1626
0.2796 1.0000 0.1582
0.4243 1.0000 0.1538
0.5690 1.0000 0.1494
0.7138 1.0000 0.1451
0.8585 1.0000 0.1407
1.0000 1.0000 0.1363
0.0000 0.0000 0.4539
0.1098 0.0000 0.4495
0.2546 0.0000 0.4452
0.3993 0.0000 0.4408
0.5440 0.0000 0.4364
0.6887 0.0000 0.4320
0.8334 0.0000 0.4277
0.9782 0.0000 0.4233
1.0000 0.0000 0.4189
0.0000 0.1037 0.4387
0.0947 0.0993 0.4344
0.2394 0.0949 0.4300
0.3841 0.0906 0.4256
0.5288 0.0862 0.4212
0.6736 0.0818 0.4169
0.8183 0.0774 0.4125
0.9630 0.0731 0.4081
1.0000 0.0687 0.4038
0.0000 0.2422 0.4236
0.0795 0.2378 0.4192
0.2242 0.2335 0.4148
0.3690 0.2291 0.4105
0.5137 0.2247 0.4061
0.6584 0.2203 0.4017
0.8031 0.2160 0.3973
0.9478 0.2116 0.3930
1.0000 0.2072 0.3886
0.0000 0.3807 0.4084
0.0644 0.3764 0.4040
0.2091 0.3720 0.3997
0.3538 0.3676 0.3953
0.4985 0.3633 0.3909
0.6432 0.3589 0.3866
0.7879 0.3545 0.3822
0.9327 0.3501 0.3778
1.0000 0.3458 0.3734
0.0000 0.5193 0.3932
0.0492 0.5149 0.3889
0.1939 0.5105 0.3845
0.3386 0.5062 0.3801
0.4834 0.5018 0.3758
0.6281 0.4974 0.3714
0.7728 0.4931 0.3670
0.9175 0.4887 0.3626
1.0000 0.4843 0.3583
0.0000 0.6578 0.3781
0.0340 0.6534 0.3737
0.1788 0.6491 0.3693
0.3235 0.6447 0.3650
0.4682 0.6403 0.3606
0.6129 0.6360 0.3562
0.7576 0.6316 0.3519
0.9023 0.6272 0.3475
1.0000 0.6228 0.3431
0.0000 0.7964 0.3629
0.0189 0.7920 0.3586
0.1636 0.7876 0.3542
0.3083 0.7832 0.3498
0.4530 0.7789 0.3454
0.5977 0.7745 0.3411
0.7425 0.7701 0.3367
0.8872 0.7658 0.3323
1.0000 0.7614 0.3279
0.0000 0.9349 0.3478
0.0037 0.9305 0.3434
0.1484 0.9262 0.3390
0.2931 0.9218 0.3346
0.4379 0.9174 0.3303
0.5826 0.9130 0.3259
0.7273 0.9087 0.3215
0.8720 0.9043 0.3172
1.0000 0.8999 0.3128
0.0000 1.0000 0.3326
0.0000 1.0000 0.3282
0.1333 1.0000 0.3239
0.2780 1.0000 0.3195
0.4227 1.0000 0.3151
0.5674 1.0000 0.3107
0.7121 1.0000 0.3064
0.8569 1.0000 0.3020
1.0000 1.0000 0.2976
0.0000 0.0000 0.6152
0.1082 0.0000 0.6108
0.2529 0.0000 0.6065
0.3977 0.0000 0.6021
0.5424 0.0000 0.5977
0.6871 0.0000 0.5933
0.8318 0.0000 0.5890
0.9765 0.0000 0.5846
1.0000 0.0000 0.5802
0.0000 0.1020 0.6000
0.0931 0.0977 0.5957
0.2378 0.0933 0.5913
0.3825 0.0889 0.5869
0.5272 0.0846 0.5825
0.6719 0.0802 0.5782
0.8167 0.0758 0.5738
0.9614 0.0714 0.5694
1.0000 0.0671 0.5651
0.0000 0.2406 0.5849
0.0779 0.2362 0.5805
0.2226 0.2318 0.5761
0.3673 0.2275 0.5718
0.5121 0.2231 0.5674
0.6568 0.2187 0.5630
0.8015 0.2144 0.5586
0.9462 0.2100 0.5543
1.0000 0.2056 0.5499
0.0000 0.3791 0.5697
0.0627 0.3748 0.5653
0.2075 0.3704 0.5610
0.3522 0.3660 0.5566
0.4969 0.3616 0.5522
0.6416 0.3573 0.5479
0.7863 0.3529 0.5435
0.9310 0.3485 0.5391
1.0000 0.3441 0.5347
0.0000 0.5177 0.5545
0.0476 0.5133 0.5502
0.1923 0.5089 0.5458
0.3370 0.5045 0.5414
0.4817 0.5002 0.5371
0.6264 0.4958 0.5327
0.7712 0.4914 0.5283
0.9159 0.4871 0.5239
1.0000 0.4827 0.5196
0.0000 0.6562 0.5394
0.0324 0.6518 0.5350
0.1771 0.6475 0.5306
0.3219 0.6431 0.5263
0.4666 0.6387 0.5219
0.6113 0.6343 0.5175
0.7560 0.6300 0.5132
0.9007 0.6256 0.5088
1.0000 0.6212 0.5044
0.0000 0.7947 0.5242
0.0173 0.7904 0.5199
0.1620 0.7860 0.5155
0.3067 0.7816 0.5111
0.4514 0.7772 0.5067
0.5961 0.7729 0.5024
0.7408 0.7685 0.4980
0.8856 0.7641 0.4936
1.0000 0.7598 0.4892
0.0000 0.9333 0.5091
0.0021 0.9289 0.5047
0.1468 0.9245 0.5003
0.2915 0.9202 0.4959
0.4362 0.9158 0.4916
0.5810 0.9114 0.4872
0.7257 0.9070 0.4828
0.8704 0.9027 0.4785
1.0000 0.8983 0.4741
0.0000 1.0000 0.4939
0.0000 1.0000 0.4895
0.1316 1.0000 0.4852
0.2764 1.0000 0.4808
0.4211 1.0000 0.4764
0.5658 1.0000 0.4720
0.7105 1.0000 0.4677
0.8552 1.0000 0.4633
0.9999 1.0000 0.4589
0.0000 0.0000 0.7765
0.1066 0.0000 0.7721
0.2513 0.0000 0.7678
0.3960 0.0000 0.7634
0.5408 0.0000 0.7590
0.6855 0.0000 0.7546
0.8302 0.0000 0.7503
0.9749 0.0000 0.7459
1.0000 0.0000 0.7415
0.0000 0.1004 0.7613
0.0914 0.0961 0.7570
0.2362 0.0917 0.7526
0.3809 0.0873 0.7482
0.5256 0.0829 0.7438
0.6703 0.0786 0.7395
0.8150 0.0742 0.7351
0.9597 0.0698 0.7307
1.0000 0.0655 0.7264
0.0000 0.2390 0.7462
0.0763 0.2346 0.7418
0.2210 0.2302 0.7374
0.3657 0.2258 0.7331
0.5104 0.2215 0.7287
0.6551 0.2171 0.7243
0.7999 0.2127 0.7199
0.9446 0.2084 0.7156
1.0000 0.2040 0.7112
0.0000 0.3775 0.7310
0.0611 0.3731 0.7266
0.2058 0.3688 0.7223
0.3506 0.3644 0.7179
0.4953 0.3600 0.7135
0.6400 0.3556 0.7092
0.7847 0.3513 0.7048
0.9294 0.3469 0.7004
1.0000 0.3425 0.6960
0.0000 0.5160 0.7158
0.0460 0.5117 0.7115
0.1907 0.5073 0.7071
0.3354 0.5029 0.7027
0.4801 0.4986 0.6984
0.6248 0.4942 0.6940
0.7695 0.4898 0.6896
0.9143 0.4854 0.6852
1.0000 0.4811 0.6809
0.0000 0.6546 0.7007
0.0308 0.6502 0.6963
0.1755 0.6458 0.6919
0.3202 0.6415 0.6876
0.4649 0.6371 0.6832
0.6097 0.6327 0.6788
0.7544 0.6283 0.6745
0.8991 0.6240 0.6701
1.0000 0.6196 0.6657
0.0000 0.7931 0.6855
0.0156 0.7887 0.6812
0.1603 0.7844 0.6768
0.3051 0.7800 0.6724
0.4498 0.7756 0.6680
0.5945 0.7713 0.6637
0.7392 0.7669 0.6593
0.8839 0.7625 0.6549
1.0000 0.7581 0.6505
0.0000 0.9317 0.6704
0.0005 0.9273 0.6660
0.1452 0.9229 0.6616
0.2899 0.9185 0.6572
0.4346 0.9142 0.6529
0.5793 0.9098 0.6485
0.7241 0.9054 0.6441
0.8688 0.9010 0.6398
1.0000 0.8967 0.6354
0.0000 1.0000 0.6552
0.0000 1.0000 0.6508
0.1300 1.0000 0.6465
0.2747 1.0000 0.6421
0.4195 1.0000 0.6377
0.5642 1.0000 0.6333
0.7089 1.0000 0.6290
0.8536 1.0000 0.6246
0.9983 1.0000 0.6202
0.0000 0.0000 0.9378
0.1050 0.0000 0.9334
0.2497 0.0000 0.9291
0.3944 0.0000 0.9247
0.5391 0.0000 0.9203
0.6839 0.0000 0.9159
0.8286 0.0000 0.9116
0.9733 0.0000 0.9072
1.0000 0.0000 0.9028
0.0000 0.0988 0.9226
0.0898 0.0944 0.9183
0.2345 0.0901 0.9139
0.3793 0.0857 0.9095
0.5240 0.0813 0.9051
0.6687 0.0769 0.9008
0.8134 0.0726 0.8964
0.9581 0.0682 0.8920
1.0000 0.0638 0.8877
0.0000 0.2373 0.9075
0.0747 0.2330 0.9031
0.2194 0.2286 0.8987
0.3641 0.2242 0.8944
0.5088 0.2199 0.8900
0.6535 0.2155 0.8856
0.7982 0.2111 0.8812
0.9430 0.2067 0.8769
1.0000 0.2024 0.8725
0.0000 0.3759 0.8923
0.0595 0.3715 0.8879
0.2042 0.3671 0.8836
0.3489 0.3628 0.8792
0.4936 0.3584 0.8748
0.6384 0.3540 0.8705
0.7831 0.3496 0.8661
0.9278 0.3453 0.8617
1.0000 0.3409 0.8573
0.0000 0.5144 0.8771
0.0443 0.5100 0.8728
0.1891 0.5057 0.8684
0.3338 0.5013 0.8640
0.4785 0.4969 0.8597
0.6232 0.4926 0.8553
0.7679 0.4882 0.8509
0.9126 0.4838 0.8465
1.0000 0.4794 0.8422
0.0000 0.6530 0.8620
0.0292 0.6486 0.8576
0.1739 0.6442 0.8532
0.3186 0.6398 0.8489
0.4633 0.6355 0.8445
0.6080 0.6311 0.8401
0.7528 0.6267 0.8358
0.8975 0.6224 0.8314
1.0000 0.6180 0.8270
0.0000 0.7915 0.8468
0.0140 0.7871 0.8425
0.1587 0.7827 0.8381
0.3034 0.7784 0.8337
0.4482 0.7740 0.8293
0.5929 0.7696 0.8250
0.7376 0.7653 0.8206
0.8823 0.7609 0.8162
1.0000 0.7565 0.8118
0.0000 0.9300 0.8317
0.0000 0.9257 0.8273
0.1436 0.9213 0.8229
0.2883 0.9169 0.8185
0.4330 0.9125 0.8142
0.5777 0.9082 0.8098
0.7224 0.9038 0.8054
0.8671 0.8994 0.8011
1.0000 0.8951 0.7967
0.0000 1.0000 0.8165
0.0000 1.0000 0.8121
0.1284 1.0000 0.8078
0.2731 1.0000 0.8034
0.4178 1.0000 0.7990
0.5626 1.0000 0.7946
0.7073 1.0000 0.7903
0.8520 1.0000 0.7859
0.9967 1.0000 0.7815
0.0000 0.0000 1.0000
0.1034 0.0000 1.0000
0.2481 0.0000 1.0000
0.3928 0.0000 1.0000
0.5375 0.0000 1.0000
0.6822 0.0000 1.0000
0.8269 0.0000 1.0000
0.9717 0.0000 1.0000
1.0000 0.0000 1.0000
0.0000 0.0972 1.0000
0.0882 0.0928 1.0000
0.2329 0.0884 1.0000
0.3776 0.0841 1.0000
0.5223 0.0797 1.0000
0.6671 0.0753 1.0000
0.8118 0.0709 1.0000
0.9565 0.0666 1.0000
1.0000 0.0622 1.0000
0.0000 0.2357 1.0000
0.0730 0.2313 1.0000
0.2178 0.2270 1.0000
0.3625 0.2226 1.0000
0.5072 0.2182 1.0000
0.6519 0.2139 1.0000
0.7966 0.2095 1.0000
0.9413 0.2051 1.0000
1.0000 0.2007 1.0000
0.0000 0.3743 1.0000
0.0579 0.3699 1.0000
0.2026 0.3655 1.0000
0.3473 0.3611 1.0000
0.4920 0.3568 1.0000
0.6367 0.3524 1.0000
0.7815 0.3480 1.0000
0.9262 0.3437 1.0000
1.0000 0.3393 1.0000
0.0000 0.5128 1.0000
0.0427 0.5084 1.0000
0.1874 0.5040 1.0000
0.3321 0.4997 1.0000
0.4769 0.4953 1.0000
0.6216 0.4909 1.0000
0.7663 0.4866 1.0000
0.9110 0.4822 1.0000
1.0000 0.4778 1.0000
0.0000 0.6513 1.0000
0.0275 0.6470 1.0000
0.1723 0.6426 1.0000
0.3170 0.6382 1.0000
0.4617 0.6338 1.0000
0.6064 0.6295 1.0000
0.7511 0.6251 0.9971
0.8959 0.6207 0.9927
1.0000 0.6164 0.9883
0.0000 0.7899 1.0000
0.0124 0.7855 1.0000
0.1571 0.7811 0.9994
0.3018 0.7768 0.9950
0.4465 0.7724 0.9906
0.5913 0.7680 0.9863
0.7360 0.7636 0.9819
0.8807 0.7593 0.9775
1.0000 0.7549 0.9731
0.0000 0.9284 0.9930
0.0000 0.9240 0.9886
0.1419 0.9197 0.9842
0.2867 0.9153 0.9798
0.4314 0.9109 0.9755
0.5761 0.9065 0.9711
0.7208 0.9022 0.9667
0.8655 0.8978 0.9624
1.0000 0.8934 0.9580
0.0000 1.0000 0.9778
0.0000 1.0000 0.9734
0.1268 1.0000 0.9691
0.2715 1.0000 0.9647
0.4162 1.0000 0.9603
0.5609 1.0000 0.9559
0.7056 1.0000 0.9516
0.8504 1.0000 0.9472
0.9951 1.0000 0.9428
0.0000 0.0000 1.0000
0.1017 0.0000 1.0000
0.2465 0.0000 1.0000
0.3912 0.0000 1.0000
0.5359 0.0000 1.0000
0.6806 0.0000 1.0000
0.8253 0.0000 1.0000
0.9700 0.0000 1.0000
1.0000 0.0000 1.0000
0.0000 0.0956 1.0000
0.0866 0.0912 1.0000
0.2313 0.0868 1.0000
0.3760 0.0824 1.0000
0.5207 0.0781 1.0000
0.6654 0.0737 1.0000
0.8102 0.0693 1.0000
0.9549 0.0650 1.0000
1.0000 0.0606 1.0000
0.0000 0.2341 1.0000
0.0714 0.2297 1.0000
0.2161 0.2254 1.0000
0.3608 0.2210 1.0000
0.5056 0.2166 1.0000
0.6503 0.2122 1.0000
0.7950 0.2079 1.0000
0.9397 0.2035 1.0000
1.0000 0.1991 1.0000
0.0000 0.3726 1.0000
0.0563 0.3683 1.0000
0.2010 0.3639 1.0000
0.3457 0.3595 1.0000
0.4904 0.3551 1.0000
0.6351 0.3508 1.0000
0.7798 0.3464 1.0000
0.9246 0.3420 1.0000
1.0000 0.3377 1.0000
0.0000 0.5112 1.0000
0.0411 0.5068 1.0000
0.1858 0.5024 1.0000
0.3305 0.4981 1.0000
0.4752 0.4937 1.0000
0.6200 0.4893 1.0000
0.7647 0.4849 1.0000
0.9094 0.4806 1.0000
1.0000 0.4762 1.0000
0.0000 0.6497 1.0000
0.0259 0.6453 1.0000
0.1706 0.6410 1.0000
0.3154 0.6366 1.0000
0.4601 0.6322 1.0000
0.6048 0.6278 1.0000
0.7495 0.6235 1.0000
0.8942 0.6191 1.0000
1.0000 0.6147 1.0000
0.0000 0.7882 1.0000
0.0108 0.7839 1.0000
0.1555 0.7795 1.0000
0.3002 0.7751 1.0000
0.4449 0.7708 1.0000
0.5896 0.7664 1.0000
0.7343 0.7620 1.0000
0.8791 0.7576 1.0000
1.0000 0.7533 1.0000
0.0000 0.9268 1.0000
0.0000 0.9224 1.0000
0.1403 0.9180 1.0000
0.2850 0.9137 1.0000
0.4298 0.9093 1.0000
0.5745 0.9049 1.0000
0.7192 0.9006 1.0000
0.8639 0.8962 1.0000
1.0000 0.8918 1.0000
0.0000 1.0000 1.0000
0.0000 1.0000 1.0000
0.1252 1.0000 1.0000
0.2699 1.0000 1.0000
0.4146 1.0000 1.0000
0.5593 1.0000 1.0000
0.7040 1.0000 1.0000
0.8487 1.0000 1.0000
0.9935 1.0000 1.0000
