public/luts/azure.cube
# edite look: Azure (CC0)
TITLE "Azure"
LUT_3D_SIZE 5
DOMAIN_MIN 0.0 0.0 0.0
DOMAIN_MAX 1.0 1.0 1.0
0.0000 0.0000 0.0000
0.2594 0.0000 0.0000
0.5489 0.0000 0.0000
0.8383 0.0000 0.0000
1.0000 0.0000 0.0000
0.0000 0.2471 0.0000
0.2291 0.2383 0.0000
0.5185 0.2296 0.0000
0.8080 0.2208 0.0000
1.0000 0.2121 0.0000
0.0000 0.5242 0.0000
0.1988 0.5154 0.0000
0.4882 0.5067 0.0000
0.7777 0.4979 0.0000
1.0000 0.4892 0.0000
0.0000 0.8012 0.0000
0.1685 0.7925 0.0000
0.4579 0.7837 0.0000
0.7473 0.7750 0.0000
1.0000 0.7663 0.0000
0.0000 1.0000 0.0000
0.1381 1.0000 0.0000
0.4276 1.0000 0.0000
0.7170 1.0000 0.0000
1.0000 1.0000 0.0000
0.0000 0.0000 0.2926
0.2562 0.0000 0.2839
0.5456 0.0000 0.2751
0.8351 0.0000 0.2664
1.0000 0.0000 0.2576
0.0000 0.2438 0.2623
0.2259 0.2351 0.2535
0.5153 0.2263 0.2448
0.8047 0.2176 0.2360
1.0000 0.2089 0.2273
0.0000 0.5209 0.2320
0.1955 0.5122 0.2232
0.4850 0.5034 0.2145
0.7744 0.4947 0.2057
1.0000 0.4859 0.1970
0.0000 0.7980 0.2016
0.1652 0.7892 0.1929
0.4546 0.7805 0.1841
0.7441 0.7718 0.1754
1.0000 0.7630 0.1667
0.0000 1.0000 0.1713
0.1349 1.0000 0.1626
0.4243 1.0000 0.1538
0.7138 1.0000 0.1451
1.0000 1.0000 0.1363
0.0000 0.0000 0.6152
0.2529 0.0000 0.6065
0.5424 0.0000 0.5977
0.8318 0.0000 0.5890
1.0000 0.0000 0.5802
0.0000 0.2406 0.5849
0.2226 0.2318 0.5761
0.5121 0.2231 0.5674
0.8015 0.2144 0.5586
1.0000 0.2056 0.5499
0.0000 0.5177 0.5545
0.1923 0.5089 0.5458
0.4817 0.5002 0.5371
0.7712 0.4914 0.5283
1.0000 0.4827 0.5196
0.0000 0.7947 0.5242
0.1620 0.7860 0.5155
0.4514 0.7772 0.5067
0.7408 0.7685 0.4980
1.0000 0.7598 0.4892
0.0000 1.0000 0.4939
0.1316 1.0000 0.4852
0.4211 1.0000 0.4764
0.7105 1.0000 0.4677
0.9999 1.0000 0.4589
0.0000 0.0000 0.9378
0.2497 0.0000 0.9291
0.5391 0.0000 0.9203
0.8286 0.0000 0.9116
1.0000 0.0000 0.9028
0.0000 0.2373 0.9075
0.2194 0.2286 0.8987
0.5088 0.2199 0.8900
0.7982 0.2111 0.8812
1.0000 0.2024 0.8725
0.0000 0.5144 0.8771
0.1891 0.5057 0.8684
0.4785 0.4969 0.8597
0.7679 0.4882 0.8509
1.0000 0.4794 0.8422
0.0000 0.7915 0.8468
0.1587 0.7827 0.8381
0.4482 0.7740 0.8293
0.7376 0.7653 0.8206
1.0000 0.7565 0.8118
0.0000 1.0000 0.8165
0.1284 1.0000 0.8078
0.4178 1.0000 0.7990
0.7073 1.0000 0.7903
0.9967 1.0000 0.7815
0.0000 0.0000 1.0000
0.2465 0.0000 1.0000
0.5359 0.0000 1.0000
0.8253 0.0000 1.0000
1.0000 0.0000 1.0000
0.0000 0.2341 1.0000
0.2161 0.2254 1.0000
0.5056 0.2166 1.0000
0.7950 0.2079 1.0000
1.0000 0.1991 1.0000
0.0000 0.5112 1.0000
0.1858 0.5024 1.0000
0.4752 0.4937 1.0000
0.7647 0.4849 1.0000
1.0000 0.4762 1.0000
0.0000 0.7882 1.0000
0.1555 0.7795 1.0000
0.4449 0.7708 1.0000
0.7343 0.7620 1.0000
1.0000 0.7533 1.0000
0.0000 1.0000 1.0000
0.1252 1.0000 1.0000
0.4146 1.0000 1.0000
0.7040 1.0000 1.0000
0.9935 1.0000 1.0000
