public/luts/cinematic.cube
# edite look: Cinematic (CC0)
TITLE "Cinematic"
LUT_3D_SIZE 17
DOMAIN_MIN 0.0 0.0 0.0
DOMAIN_MAX 1.0 1.0 1.0
0.0000 0.0000 0.0129
0.0000 0.0000 0.0106
0.0549 0.0000 0.0083
0.1285 0.0000 0.0060
0.2022 0.0000 0.0036
0.2758 0.0000 0.0013
0.3495 0.0000 0.0000
0.4233 0.0000 0.0000
0.4970 0.0000 0.0000
0.5708 0.0000 0.0000
0.6446 0.0000 0.0000
0.7184 0.0000 0.0000
0.7922 0.0000 0.0000
0.8661 0.0000 0.0000
0.9399 0.0000 0.0000
1.0000 0.0000 0.0000
1.0000 0.0000 0.0000
0.0000 0.0302 0.0051
0.0000 0.0291 0.0028
0.0554 0.0281 0.0004
0.1291 0.0271 0.0000
0.2029 0.0261 0.0000
0.2766 0.0251 0.0000
0.3504 0.0241 0.0000
0.4242 0.0231 0.0000
0.4980 0.0221 0.0000
0.5719 0.0212 0.0000
0.6457 0.0202 0.0000
0.7196 0.0193 0.0000
0.7934 0.0183 0.0000
0.8673 0.0174 0.0000
0.9412 0.0165 0.0000
1.0000 0.0156 0.0000
1.0000 0.0147 0.0000
0.0000 0.1002 0.0000
0.0000 0.0992 0.0000
0.0562 0.0982 0.0000
0.1300 0.0972 0.0000
0.2038 0.0962 0.0000
0.2776 0.0953 0.0000
0.3515 0.0943 0.0000
0.4253 0.0934 0.0000
0.4992 0.0924 0.0000
0.5731 0.0915 0.0000
0.6470 0.0906 0.0000
0.7209 0.0897 0.0000
0.7948 0.0888 0.0000
0.8687 0.0879 0.0000
0.9427 0.0870 0.0000
1.0000 0.0861 0.0000
1.0000 0.0852 0.0000
0.0000 0.1704 0.0000
0.0000 0.1694 0.0000
0.0573 0.1684 0.0000
0.1311 0.1675 0.0000
0.2050 0.1665 0.0000
0.2788 0.1656 0.0000
0.3527 0.1647 0.0000
0.4266 0.1638 0.0000
0.5005 0.1628 0.0000
0.5745 0.1619 0.0000
0.6484 0.1611 0.0000
0.7223 0.1602 0.0000
0.7963 0.1593 0.0000
0.8703 0.1584 0.0000
0.9442 0.1576 0.0000
1.0000 0.1567 0.0000
1.0000 0.1559 0.0000
0.0000 0.2406 0.0000
0.0000 0.2397 0.0000
0.0585 0.2388 0.0000
0.1324 0.2378 0.0000
0.2063 0.2369 0.0000
0.2802 0.2360 0.0000
0.3541 0.2351 0.0000
0.4281 0.2342 0.0000
0.5020 0.2333 0.0000
0.5760 0.2325 0.0000
0.6499 0.2316 0.0000
0.7239 0.2308 0.0000
0.7979 0.2299 0.0000
0.8719 0.2291 0.0000
0.9459 0.2282 0.0000
1.0000 0.2274 0.0000
1.0000 0.2266 0.0000
0.0000 0.3110 0.0000
0.0000 0.3101 0.0000
0.0598 0.3092 0.0000
0.1338 0.3083 0.0000
0.2077 0.3074 0.0000
0.2817 0.3065 0.0000
0.3556 0.3057 0.0000
0.4296 0.3048 0.0000
0.5036 0.3039 0.0000
0.5776 0.3031 0.0000
0.6516 0.3023 0.0000
0.7256 0.3014 0.0000
0.7996 0.3006 0.0000
0.8736 0.2998 0.0000
0.9477 0.2990 0.0000
1.0000 0.2982 0.0000
1.0000 0.2974 0.0000
0.0000 0.3815 0.0000
0.0000 0.3806 0.0000
0.0613 0.3797 0.0000
0.1353 0.3788 0.0000
0.2093 0.3780 0.0000
0.2833 0.3771 0.0000
0.3573 0.3763 0.0000
0.4313 0.3755 0.0000
0.5053 0.3746 0.0000
0.5793 0.3738 0.0000
0.6533 0.3730 0.0000
0.7274 0.3722 0.0000
0.8014 0.3714 0.0000
0.8755 0.3706 0.0000
0.9495 0.3698 0.0000
1.0000 0.3691 0.0000
1.0000 0.3683 0.0000
0.0000 0.4520 0.0000
0.0000 0.4512 0.0000
0.0630 0.4503 0.0000
0.1370 0.4495 0.0000
0.2110 0.4487 0.0000
0.2850 0.4478 0.0000
0.3590 0.4470 0.0000
0.4330 0.4462 0.0000
0.5071 0.4454 0.0000
0.5811 0.4446 0.0000
0.6552 0.4438 0.0000
0.7292 0.4430 0.0000
0.8033 0.4423 0.0000
0.8774 0.4415 0.0000
0.9514 0.4408 0.0000
1.0000 0.4400 0.0000
1.0000 0.4393 0.0000
0.0000 0.5227 0.0000
0.0000 0.5219 0.0000
0.0647 0.5210 0.0000
0.1387 0.5202 0.0000
0.2127 0.5194 0.0000
0.2868 0.5186 0.0000
0.3608 0.5178 0.0000
0.4349 0.5170 0.0000
0.5089 0.5163 0.0000
0.5830 0.5155 0.0000
0.6571 0.5147 0.0000
0.7311 0.5140 0.0000
0.8052 0.5132 0.0000
0.8793 0.5125 0.0000
0.9534 0.5118 0.0000
1.0000 0.5110 0.0000
1.0000 0.5103 0.0000
0.0000 0.5934 0.0000
0.0000 0.5926 0.0000
0.0665 0.5918 0.0000
0.1405 0.5910 0.0000
0.2146 0.5903 0.0000
0.2886 0.5895 0.0000
0.3627 0.5887 0.0000
0.4368 0.5880 0.0000
0.5109 0.5872 0.0000
0.5849 0.5865 0.0000
0.6590 0.5857 0.0000
0.7331 0.5850 0.0000
0.8072 0.5843 0.0000
0.8813 0.5836 0.0000
0.9554 0.5829 0.0000
1.0000 0.5822 0.0000
1.0000 0.5815 0.0000
0.0000 0.6643 0.0000
0.0000 0.6635 0.0000
0.0683 0.6627 0.0000
0.1424 0.6619 0.0000
0.2165 0.6612 0.0000
0.2906 0.6604 0.0000
0.3647 0.6597 0.0000
0.4388 0.6590 0.0000
0.5128 0.6582 0.0000
0.5870 0.6575 0.0000
0.6611 0.6568 0.0000
0.7352 0.6561 0.0000
0.8093 0.6554 0.0000
0.8834 0.6547 0.0000
0.9575 0.6540 0.0000
1.0000 0.6534 0.0000
1.0000 0.6527 0.0000
0.0000 0.7352 0.0000
0.0000 0.7344 0.0000
0.0703 0.7337 0.0000
0.1444 0.7329 0.0000
0.2185 0.7322 0.0000
0.2926 0.7315 0.0000
0.3667 0.7308 0.0000
0.4408 0.7301 0.0000
0.5149 0.7294 0.0000
0.5890 0.7287 0.0000
0.6631 0.7280 0.0000
0.7373 0.7273 0.0000
0.8114 0.7266 0.0000
0.8855 0.7260 0.0000
0.9596 0.7253 0.0000
1.0000 0.7247 0.0000
1.0000 0.7240 0.0000
0.0000 0.8062 0.0000
0.0000 0.8054 0.0000
0.0723 0.8047 0.0000
0.1464 0.8040 0.0000
0.2205 0.8033 0.0000
0.2946 0.8026 0.0000
0.3687 0.8019 0.0000
0.4429 0.8012 0.0000
0.5170 0.8006 0.0000
0.5911 0.7999 0.0000
0.6652 0.7992 0.0000
0.7394 0.7986 0.0000
0.8135 0.7979 0.0000
0.8876 0.7973 0.0000
0.9618 0.7967 0.0000
1.0000 0.7961 0.0000
1.0000 0.7954 0.0000
0.0000 0.8772 0.0000
0.0002 0.8765 0.0000
0.0743 0.8758 0.0000
0.1485 0.8752 0.0000
0.2226 0.8745 0.0000
0.2967 0.8738 0.0000
0.3708 0.8731 0.0000
0.4450 0.8725 0.0000
0.5191 0.8718 0.0000
0.5932 0.8712 0.0000
0.6674 0.8706 0.0000
0.7415 0.8699 0.0000
0.8157 0.8693 0.0000
0.8898 0.8687 0.0000
0.9639 0.8681 0.0000
1.0000 0.8675 0.0000
1.0000 0.8670 0.0000
0.0000 0.9484 0.0000
0.0023 0.9477 0.0000
0.0764 0.9471 0.0000
0.1506 0.9464 0.0000
0.2247 0.9458 0.0000
0.2988 0.9451 0.0000
0.3730 0.9445 0.0000
0.4471 0.9438 0.0000
0.5213 0.9432 0.0000
0.5954 0.9426 0.0000
0.6695 0.9420 0.0000
0.7437 0.9414 0.0000
0.8178 0.9408 0.0000
0.8920 0.9402 0.0000
0.9661 0.9397 0.0000
1.0000 0.9391 0.0000
1.0000 0.9386 0.0000
0.0000 1.0000 0.0000
0.0044 1.0000 0.0000
0.0786 1.0000 0.0000
0.1527 1.0000 0.0000
0.2268 1.0000 0.0000
0.3010 1.0000 0.0000
0.3751 1.0000 0.0000
0.4493 1.0000 0.0000
0.5234 1.0000 0.0000
0.5976 1.0000 0.0000
0.6717 1.0000 0.0000
0.7458 1.0000 0.0000
0.8200 1.0000 0.0000
0.8941 1.0000 0.0000
0.9683 1.0000 0.0000
1.0000 1.0000 0.0000
1.0000 1.0000 0.0000
0.0000 1.0000 0.0000
0.0066 1.0000 0.0000
0.0807 1.0000 0.0000
0.1549 1.0000 0.0000
0.2290 1.0000 0.0000
0.3031 1.0000 0.0000
0.3773 1.0000 0.0000
0.4514 1.0000 0.0000
0.5256 1.0000 0.0000
0.5997 1.0000 0.0000
0.6739 1.0000 0.0000
0.7480 1.0000 0.0000
0.8221 1.0000 0.0000
0.8963 1.0000 0.0000
0.9704 1.0000 0.0000
1.0000 1.0000 0.0000
1.0000 1.0000 0.0000
0.0000 0.0000 0.0856
0.0000 0.0000 0.0833
0.0549 0.0000 0.0810
0.1286 0.0000 0.0787
0.2022 0.0000 0.0763
0.2759 0.0000 0.0739
0.3496 0.0000 0.0716
0.4234 0.0000 0.0692
0.4971 0.0000 0.0668
0.5709 0.0000 0.0644
0.6447 0.0000 0.0620
0.7185 0.0000 0.0596
0.7923 0.0000 0.0571
0.8662 0.0000 0.0547
0.9401 0.0000 0.0523
1.0000 0.0000 0.0499
1.0000 0.0000 0.0474
0.0000 0.0298 0.0778
0.0000 0.0288 0.0755
0.0555 0.0278 0.0731
0.1292 0.0267 0.0707
0.2030 0.0257 0.0683
0.2767 0.0247 0.0659
0.3505 0.0237 0.0635
0.4243 0.0228 0.0611
0.4981 0.0218 0.0587
0.5720 0.0208 0.0563
0.6458 0.0199 0.0538
0.7197 0.0190 0.0514
0.7936 0.0180 0.0490
0.8675 0.0171 0.0466
0.9414 0.0162 0.0441
1.0000 0.0153 0.0417
1.0000 0.0144 0.0393
0.0000 0.0999 0.0698
0.0000 0.0989 0.0674
0.0563 0.0979 0.0650
0.1301 0.0969 0.0626
0.2039 0.0959 0.0602
0.2778 0.0949 0.0578
0.3516 0.0940 0.0554
0.4255 0.0931 0.0530
0.4993 0.0921 0.0505
0.5732 0.0912 0.0481
0.6471 0.0903 0.0457
0.7210 0.0894 0.0432
0.7950 0.0885 0.0408
0.8689 0.0876 0.0384
0.9428 0.0867 0.0359
1.0000 0.0858 0.0335
1.0000 0.0849 0.0311
0.0000 0.1700 0.0617
0.0000 0.1691 0.0593
0.0574 0.1681 0.0569
0.1312 0.1672 0.0545
0.2051 0.1662 0.0521
0.2790 0.1653 0.0496
0.3529 0.1644 0.0472
0.4268 0.1634 0.0448
0.5007 0.1625 0.0423
0.5746 0.1616 0.0399
0.6485 0.1608 0.0375
0.7225 0.1599 0.0351
0.7965 0.1590 0.0326
0.8704 0.1581 0.0302
0.9444 0.1573 0.0278
1.0000 0.1564 0.0253
1.0000 0.1556 0.0229
0.0000 0.2403 0.0536
0.0000 0.2394 0.0512
0.0586 0.2384 0.0488
0.1325 0.2375 0.0463
0.2064 0.2366 0.0439
0.2803 0.2357 0.0415
0.3543 0.2348 0.0390
0.4282 0.2339 0.0366
0.5022 0.2331 0.0342
0.5761 0.2322 0.0317
0.6501 0.2313 0.0293
0.7241 0.2305 0.0269
0.7981 0.2296 0.0245
0.8721 0.2288 0.0220
0.9461 0.2280 0.0196
1.0000 0.2271 0.0172
1.0000 0.2263 0.0148
0.0000 0.3107 0.0454
0.0000 0.3098 0.0430
0.0600 0.3089 0.0406
0.1339 0.3080 0.0381
0.2079 0.3071 0.0357
0.2818 0.3062 0.0333
0.3558 0.3054 0.0309
0.4298 0.3045 0.0284
0.5038 0.3037 0.0260
0.5778 0.3028 0.0236
0.6518 0.3020 0.0211
0.7258 0.3012 0.0187
0.7998 0.3003 0.0163
0.8738 0.2995 0.0139
0.9479 0.2987 0.0115
1.0000 0.2979 0.0091
1.0000 0.2971 0.0067
0.0000 0.3812 0.0373
0.0000 0.3803 0.0348
0.0615 0.3794 0.0324
0.1355 0.3786 0.0300
0.2095 0.3777 0.0275
0.2834 0.3768 0.0251
0.3574 0.3760 0.0227
0.4314 0.3752 0.0203
0.5055 0.3744 0.0178
0.5795 0.3735 0.0154
0.6535 0.3727 0.0130
0.7276 0.3719 0.0106
0.8016 0.3711 0.0082
0.8756 0.3703 0.0058
0.9497 0.3696 0.0034
1.0000 0.3688 0.0010
1.0000 0.3680 0.0000
0.0000 0.4517 0.0291
0.0000 0.4509 0.0267
0.0631 0.4500 0.0242
0.1371 0.4492 0.0218
0.2111 0.4484 0.0194
0.2852 0.4476 0.0170
0.3592 0.4467 0.0145
0.4332 0.4459 0.0121
0.5073 0.4451 0.0097
0.5813 0.4443 0.0073
0.6554 0.4436 0.0049
0.7294 0.4428 0.0025
0.8035 0.4420 0.0001
0.8776 0.4413 0.0000
0.9516 0.4405 0.0000
1.0000 0.4398 0.0000
1.0000 0.4390 0.0000
0.0000 0.5224 0.0209
0.0000 0.5216 0.0185
0.0648 0.5208 0.0161
0.1389 0.5199 0.0137
0.2129 0.5191 0.0113
0.2869 0.5183 0.0088
0.3610 0.5176 0.0064
0.4351 0.5168 0.0040
0.5091 0.5160 0.0017
0.5832 0.5152 0.0000
0.6573 0.5145 0.0000
0.7313 0.5137 0.0000
0.8054 0.5130 0.0000
0.8795 0.5122 0.0000
0.9536 0.5115 0.0000
1.0000 0.5108 0.0000
1.0000 0.5101 0.0000
0.0000 0.5932 0.0128
0.0000 0.5924 0.0104
0.0666 0.5916 0.0080
0.1407 0.5908 0.0056
0.2148 0.5900 0.0032
0.2888 0.5892 0.0008
0.3629 0.5885 0.0000
0.4370 0.5877 0.0000
0.5111 0.5870 0.0000
0.5851 0.5862 0.0000
0.6592 0.5855 0.0000
0.7333 0.5848 0.0000
0.8074 0.5840 0.0000
0.8815 0.5833 0.0000
0.9557 0.5826 0.0000
1.0000 0.5819 0.0000
1.0000 0.5812 0.0000
0.0000 0.6640 0.0047
0.0000 0.6632 0.0023
0.0685 0.6624 0.0000
0.1426 0.6617 0.0000
0.2167 0.6609 0.0000
0.2908 0.6602 0.0000
0.3649 0.6594 0.0000
0.4390 0.6587 0.0000
0.5131 0.6580 0.0000
0.5872 0.6573 0.0000
0.6613 0.6566 0.0000
0.7354 0.6559 0.0000
0.8095 0.6552 0.0000
0.8836 0.6545 0.0000
0.9577 0.6538 0.0000
1.0000 0.6531 0.0000
1.0000 0.6525 0.0000
0.0000 0.7349 0.0000
0.0000 0.7342 0.0000
0.0705 0.7334 0.0000
0.1446 0.7327 0.0000
0.2187 0.7320 0.0000
0.2928 0.7312 0.0000
0.3669 0.7305 0.0000
0.4410 0.7298 0.0000
0.5151 0.7291 0.0000
0.5892 0.7284 0.0000
0.6633 0.7277 0.0000
0.7375 0.7271 0.0000
0.8116 0.7264 0.0000
0.8857 0.7257 0.0000
0.9599 0.7251 0.0000
1.0000 0.7244 0.0000
1.0000 0.7238 0.0000
0.0000 0.8059 0.0000
0.0000 0.8052 0.0000
0.0725 0.8045 0.0000
0.1466 0.8038 0.0000
0.2207 0.8031 0.0000
0.2948 0.8024 0.0000
0.3689 0.8017 0.0000
0.4431 0.8010 0.0000
0.5172 0.8003 0.0000
0.5913 0.7997 0.0000
0.6655 0.7990 0.0000
0.7396 0.7984 0.0000
0.8137 0.7977 0.0000
0.8879 0.7971 0.0000
0.9620 0.7965 0.0000
1.0000 0.7958 0.0000
1.0000 0.7952 0.0000
0.0000 0.8770 0.0000
0.0004 0.8763 0.0000
0.0746 0.8756 0.0000
0.1487 0.8749 0.0000
0.2228 0.8743 0.0000
0.2969 0.8736 0.0000
0.3711 0.8729 0.0000
0.4452 0.8723 0.0000
0.5193 0.8716 0.0000
0.5935 0.8710 0.0000
0.6676 0.8704 0.0000
0.7417 0.8697 0.0000
0.8159 0.8691 0.0000
0.8900 0.8685 0.0000
0.9642 0.8679 0.0000
1.0000 0.8673 0.0000
1.0000 0.8668 0.0000
0.0000 0.9482 0.0000
0.0025 0.9475 0.0000
0.0767 0.9468 0.0000
0.1508 0.9462 0.0000
0.2249 0.9455 0.0000
0.2991 0.9449 0.0000
0.3732 0.9443 0.0000
0.4473 0.9436 0.0000
0.5215 0.9430 0.0000
0.5956 0.9424 0.0000
0.6698 0.9418 0.0000
0.7439 0.9412 0.0000
0.8180 0.9406 0.0000
0.8922 0.9401 0.0000
0.9663 0.9395 0.0000
1.0000 0.9389 0.0000
1.0000 0.9384 0.0000
0.0000 1.0000 0.0000
0.0046 1.0000 0.0000
0.0788 1.0000 0.0000
0.1529 1.0000 0.0000
0.2271 1.0000 0.0000
0.3012 1.0000 0.0000
0.3753 1.0000 0.0000
0.4495 1.0000 0.0000
0.5236 1.0000 0.0000
0.5978 1.0000 0.0000
0.6719 1.0000 0.0000
0.7461 1.0000 0.0000
0.8202 1.0000 0.0000
0.8943 1.0000 0.0000
0.9685 1.0000 0.0000
1.0000 1.0000 0.0000
1.0000 1.0000 0.0000
0.0000 1.0000 0.0000
0.0068 1.0000 0.0000
0.0809 1.0000 0.0000
0.1551 1.0000 0.0000
0.2292 1.0000 0.0000
0.3034 1.0000 0.0000
0.3775 1.0000 0.0000
0.4517 1.0000 0.0000
0.5258 1.0000 0.0000
0.5999 1.0000 0.0000
0.6741 1.0000 0.0000
0.7482 1.0000 0.0000
0.8224 1.0000 0.0000
0.8965 1.0000 0.0000
0.9706 1.0000 0.0000
1.0000 1.0000 0.0000
1.0000 1.0000 0.0000
0.0000 0.0000 0.1583
0.0000 0.0000 0.1560
0.0550 0.0000 0.1537
0.1286 0.0000 0.1514
0.2023 0.0000 0.1490
0.2760 0.0000 0.1466
0.3497 0.0000 0.1443
0.4234 0.0000 0.1419
0.4972 0.0000 0.1395
0.5710 0.0000 0.1371
0.6448 0.0000 0.1347
0.7186 0.0000 0.1322
0.7925 0.0000 0.1298
0.8663 0.0000 0.1274
0.9402 0.0000 0.1250
1.0000 0.0000 0.1225
1.0000 0.0000 0.1201
0.0000 0.0295 0.1505
0.0000 0.0284 0.1481
0.0556 0.0274 0.1458
0.1293 0.0264 0.1434
0.2030 0.0254 0.1410
0.2768 0.0244 0.1386
0.3506 0.0234 0.1362
0.4244 0.0224 0.1338
0.4982 0.0215 0.1314
0.5721 0.0205 0.1289
0.6459 0.0196 0.1265
0.7198 0.0186 0.1241
0.7937 0.0177 0.1217
0.8676 0.0168 0.1192
0.9415 0.0159 0.1168
1.0000 0.0150 0.1144
1.0000 0.0141 0.1119
0.0000 0.0995 0.1425
0.0000 0.0985 0.1401
0.0564 0.0975 0.1377
0.1302 0.0966 0.1353
0.2040 0.0956 0.1329
0.2779 0.0946 0.1305
0.3517 0.0937 0.1281
0.4256 0.0927 0.1256
0.4995 0.0918 0.1232
0.5733 0.0909 0.1208
0.6473 0.0900 0.1183
0.7212 0.0891 0.1159
0.7951 0.0882 0.1135
0.8690 0.0873 0.1110
0.9430 0.0864 0.1086
1.0000 0.0855 0.1062
1.0000 0.0847 0.1037
0.0000 0.1697 0.1344
0.0000 0.1687 0.1320
0.0575 0.1678 0.1296
0.1313 0.1668 0.1272
0.2052 0.1659 0.1247
0.2791 0.1650 0.1223
0.3530 0.1640 0.1199
0.4269 0.1631 0.1175
0.5008 0.1622 0.1150
0.5748 0.1613 0.1126
0.6487 0.1605 0.1102
0.7227 0.1596 0.1077
0.7966 0.1587 0.1053
0.8706 0.1578 0.1029
0.9446 0.1570 0.1004
1.0000 0.1561 0.0980
1.0000 0.1553 0.0956
0.0000 0.2400 0.1263
0.0000 0.2391 0.1239
0.0587 0.2381 0.1214
0.1326 0.2372 0.1190
0.2066 0.2363 0.1166
0.2805 0.2354 0.1141
0.3544 0.2345 0.1117
0.4284 0.2336 0.1093
0.5023 0.2328 0.1068
0.5763 0.2319 0.1044
0.6503 0.2310 0.1020
0.7242 0.2302 0.0996
0.7982 0.2293 0.0971
0.8722 0.2285 0.0947
0.9463 0.2277 0.0923
1.0000 0.2269 0.0899
1.0000 0.2260 0.0874
0.0000 0.3104 0.1181
0.0000 0.3095 0.1157
0.0601 0.3086 0.1133
0.1341 0.3077 0.1108
0.2080 0.3068 0.1084
0.2820 0.3059 0.1060
0.3560 0.3051 0.1035
0.4299 0.3042 0.1011
0.5039 0.3034 0.0987
0.5779 0.3025 0.0962
0.6519 0.3017 0.0938
0.7259 0.3009 0.0914
0.8000 0.3001 0.0890
0.8740 0.2992 0.0866
0.9480 0.2984 0.0842
1.0000 0.2976 0.0818
1.0000 0.2969 0.0794
0.0000 0.3809 0.1099
0.0000 0.3800 0.1075
0.0617 0.3791 0.1051
0.1356 0.3783 0.1026
0.2096 0.3774 0.1002
0.2836 0.3766 0.0978
0.3576 0.3757 0.0954
0.4316 0.3749 0.0929
0.5056 0.3741 0.0905
0.5797 0.3733 0.0881
0.6537 0.3725 0.0857
0.7277 0.3717 0.0833
0.8018 0.3709 0.0809
0.8758 0.3701 0.0785
0.9499 0.3693 0.0761
1.0000 0.3685 0.0737
1.0000 0.3678 0.0713
0.0000 0.4515 0.1018
0.0000 0.4506 0.0993
0.0633 0.4498 0.0969
0.1373 0.4489 0.0945
0.2113 0.4481 0.0921
0.2853 0.4473 0.0896
0.3594 0.4465 0.0872
0.4334 0.4457 0.0848
0.5074 0.4449 0.0824
0.5815 0.4441 0.0800
0.6555 0.4433 0.0776
0.7296 0.4425 0.0752
0.8037 0.4418 0.0728
0.8777 0.4410 0.0704
0.9518 0.4402 0.0681
1.0000 0.4395 0.0657
1.0000 0.4388 0.0633
0.0000 0.5221 0.0936
0.0000 0.5213 0.0912
0.0650 0.5205 0.0888
0.1391 0.5197 0.0863
0.2131 0.5189 0.0839
0.2871 0.5181 0.0815
0.3612 0.5173 0.0791
0.4352 0.5165 0.0767
0.5093 0.5157 0.0743
0.5834 0.5150 0.0720
0.6575 0.5142 0.0696
0.7315 0.5135 0.0672
0.8056 0.5127 0.0648
0.8797 0.5120 0.0625
0.9538 0.5113 0.0601
1.0000 0.5106 0.0577
1.0000 0.5098 0.0554
0.0000 0.5929 0.0855
0.0000 0.5921 0.0831
0.0668 0.5913 0.0807
0.1409 0.5905 0.0783
0.2150 0.5897 0.0759
0.2890 0.5890 0.0735
0.3631 0.5882 0.0711
0.4372 0.5874 0.0687
0.5113 0.5867 0.0663
0.5853 0.5860 0.0640
0.6594 0.5852 0.0616
0.7335 0.5845 0.0592
0.8076 0.5838 0.0569
0.8817 0.5831 0.0545
0.9559 0.5824 0.0522
1.0000 0.5817 0.0499
1.0000 0.5810 0.0476
0.0000 0.6637 0.0774
0.0000 0.6629 0.0750
0.0687 0.6622 0.0726
0.1428 0.6614 0.0702
0.2169 0.6607 0.0678
0.2910 0.6599 0.0655
0.3651 0.6592 0.0631
0.4392 0.6585 0.0607
0.5133 0.6577 0.0584
0.5874 0.6570 0.0560
0.6615 0.6563 0.0537
0.7356 0.6556 0.0514
0.8097 0.6549 0.0490
0.8838 0.6543 0.0467
0.9579 0.6536 0.0444
1.0000 0.6529 0.0421
1.0000 0.6523 0.0398
0.0000 0.7347 0.0694
0.0000 0.7339 0.0670
0.0707 0.7332 0.0646
0.1448 0.7324 0.0622
0.2189 0.7317 0.0599
0.2930 0.7310 0.0575
0.3671 0.7303 0.0552
0.4412 0.7296 0.0528
0.5153 0.7289 0.0505
0.5894 0.7282 0.0482
0.6636 0.7275 0.0459
0.7377 0.7268 0.0436
0.8118 0.7262 0.0413
0.8859 0.7255 0.0390
0.9601 0.7249 0.0367
1.0000 0.7242 0.0345
1.0000 0.7236 0.0322
0.0000 0.8057 0.0614
0.0000 0.8049 0.0590
0.0727 0.8042 0.0567
0.1468 0.8035 0.0543
0.2209 0.8028 0.0520
0.2950 0.8021 0.0497
0.3692 0.8014 0.0474
0.4433 0.8008 0.0450
0.5174 0.8001 0.0427
0.5915 0.7994 0.0405
0.6657 0.7988 0.0382
0.7398 0.7981 0.0359
0.8139 0.7975 0.0336
0.8881 0.7969 0.0314
0.9622 0.7963 0.0291
1.0000 0.7956 0.0269
1.0000 0.7950 0.0247
0.0000 0.8768 0.0535
0.0006 0.8761 0.0512
0.0748 0.8754 0.0488
0.1489 0.8747 0.0465
0.2230 0.8740 0.0442
0.2971 0.8734 0.0419
0.3713 0.8727 0.0396
0.4454 0.8720 0.0373
0.5195 0.8714 0.0351
0.5937 0.8708 0.0328
0.6678 0.8701 0.0306
0.7420 0.8695 0.0283
0.8161 0.8689 0.0261
0.8902 0.8683 0.0239
0.9644 0.8677 0.0217
1.0000 0.8671 0.0195
1.0000 0.8666 0.0174
0.0000 0.9480 0.0457
0.0027 0.9473 0.0434
0.0769 0.9466 0.0411
0.1510 0.9460 0.0388
0.2251 0.9453 0.0365
0.2993 0.9447 0.0343
0.3734 0.9440 0.0320
0.4475 0.9434 0.0298
0.5217 0.9428 0.0275
0.5958 0.9422 0.0253
0.6700 0.9416 0.0231
0.7441 0.9410 0.0209
0.8183 0.9404 0.0187
0.8924 0.9399 0.0166
0.9665 0.9393 0.0144
1.0000 0.9387 0.0123
1.0000 0.9382 0.0102
0.0000 1.0000 0.0380
0.0049 1.0000 0.0357
0.0790 1.0000 0.0334
0.1531 1.0000 0.0312
0.2273 1.0000 0.0289
0.3014 1.0000 0.0267
0.3756 1.0000 0.0245
0.4497 1.0000 0.0223
0.5239 1.0000 0.0201
0.5980 1.0000 0.0179
0.6721 1.0000 0.0158
0.7463 1.0000 0.0136
0.8204 1.0000 0.0115
0.8946 1.0000 0.0094
0.9687 1.0000 0.0073
1.0000 1.0000 0.0053
1.0000 1.0000 0.0032
0.0000 1.0000 0.0304
0.0070 1.0000 0.0281
0.0812 1.0000 0.0259
0.1553 1.0000 0.0237
0.2294 1.0000 0.0215
0.3036 1.0000 0.0193
0.3777 1.0000 0.0172
0.4519 1.0000 0.0150
0.5260 1.0000 0.0129
0.6002 1.0000 0.0108
0.6743 1.0000 0.0087
0.7484 1.0000 0.0066
0.8226 1.0000 0.0045
0.8967 1.0000 0.0025
0.9708 1.0000 0.0005
1.0000 1.0000 0.0000
1.0000 1.0000 0.0000
0.0000 0.0000 0.2311
0.0000 0.0000 0.2287
0.0550 0.0000 0.2264
0.1287 0.0000 0.2241
0.2023 0.0000 0.2217
0.2760 0.0000 0.2193
0.3498 0.0000 0.2169
0.4235 0.0000 0.2146
0.4973 0.0000 0.2122
0.5711 0.0000 0.2097
0.6449 0.0000 0.2073
0.7187 0.0000 0.2049
0.7926 0.0000 0.2025
0.8664 0.0000 0.2001
0.9403 0.0000 0.1976
1.0000 0.0000 0.1952
1.0000 0.0000 0.1928
0.0000 0.0291 0.2232
0.0000 0.0281 0.2208
0.0556 0.0271 0.2185
0.1294 0.0260 0.2161
0.2031 0.0250 0.2137
0.2769 0.0241 0.2113
0.3507 0.0231 0.2089
0.4245 0.0221 0.2065
0.4984 0.0211 0.2040
0.5722 0.0202 0.2016
0.6461 0.0193 0.1992
0.7199 0.0183 0.1968
0.7938 0.0174 0.1943
0.8677 0.0165 0.1919
0.9417 0.0156 0.1895
1.0000 0.0147 0.1870
