public/luts/cinematic.cube
# edite look: Cinematic (CC0)
TITLE "Cinematic"
LUT_3D_SIZE 9
DOMAIN_MIN 0.0 0.0 0.0
DOMAIN_MAX 1.0 1.0 1.0
0.0000 0.0000 0.0129
0.0549 0.0000 0.0083
0.2022 0.0000 0.0036
0.3495 0.0000 0.0000
0.4970 0.0000 0.0000
0.6446 0.0000 0.0000
0.7922 0.0000 0.0000
0.9399 0.0000 0.0000
1.0000 0.0000 0.0000
0.0000 0.1002 0.0000
0.0562 0.0982 0.0000
0.2038 0.0962 0.0000
0.3515 0.0943 0.0000
0.4992 0.0924 0.0000
0.6470 0.0906 0.0000
0.7948 0.0888 0.0000
0.9427 0.0870 0.0000
1.0000 0.0852 0.0000
0.0000 0.2406 0.0000
0.0585 0.2388 0.0000
0.2063 0.2369 0.0000
0.3541 0.2351 0.0000
0.5020 0.2333 0.0000
0.6499 0.2316 0.0000
0.7979 0.2299 0.0000
0.9459 0.2282 0.0000
1.0000 0.2266 0.0000
0.0000 0.3815 0.0000
0.0613 0.3797 0.0000
0.2093 0.3780 0.0000
0.3573 0.3763 0.0000
0.5053 0.3746 0.0000
0.6533 0.3730 0.0000
0.8014 0.3714 0.0000
0.9495 0.3698 0.0000
1.0000 0.3683 0.0000
0.0000 0.5227 0.0000
0.0647 0.5210 0.0000
0.2127 0.5194 0.0000
0.3608 0.5178 0.0000
0.5089 0.5163 0.0000
0.6571 0.5147 0.0000
0.8052 0.5132 0.0000
0.9534 0.5118 0.0000
1.0000 0.5103 0.0000
0.0000 0.6643 0.0000
0.0683 0.6627 0.0000
0.2165 0.6612 0.0000
0.3647 0.6597 0.0000
0.5128 0.6582 0.0000
0.6611 0.6568 0.0000
0.8093 0.6554 0.0000
0.9575 0.6540 0.0000
1.0000 0.6527 0.0000
0.0000 0.8062 0.0000
0.0723 0.8047 0.0000
0.2205 0.8033 0.0000
0.3687 0.8019 0.0000
0.5170 0.8006 0.0000
0.6652 0.7992 0.0000
0.8135 0.7979 0.0000
0.9618 0.7967 0.0000
1.0000 0.7954 0.0000
0.0000 0.9484 0.0000
0.0764 0.9471 0.0000
0.2247 0.9458 0.0000
0.3730 0.9445 0.0000
0.5213 0.9432 0.0000
0.6695 0.9420 0.0000
0.8178 0.9408 0.0000
0.9661 0.9397 0.0000
1.0000 0.9386 0.0000
0.0000 1.0000 0.0000
0.0807 1.0000 0.0000
0.2290 1.0000 0.0000
0.3773 1.0000 0.0000
0.5256 1.0000 0.0000
0.6739 1.0000 0.0000
0.8221 1.0000 0.0000
0.9704 1.0000 0.0000
1.0000 1.0000 0.0000
0.0000 0.0000 0.1583
0.0550 0.0000 0.1537
0.2023 0.0000 0.1490
0.3497 0.0000 0.1443
0.4972 0.0000 0.1395
0.6448 0.0000 0.1347
0.7925 0.0000 0.1298
0.9402 0.0000 0.1250
1.0000 0.0000 0.1201
0.0000 0.0995 0.1425
0.0564 0.0975 0.1377
0.2040 0.0956 0.1329
0.3517 0.0937 0.1281
0.4995 0.0918 0.1232
0.6473 0.0900 0.1183
0.7951 0.0882 0.1135
0.9430 0.0864 0.1086
1.0000 0.0847 0.1037
0.0000 0.2400 0.1263
0.0587 0.2381 0.1214
0.2066 0.2363 0.1166
0.3544 0.2345 0.1117
0.5023 0.2328 0.1068
0.6503 0.2310 0.1020
0.7982 0.2293 0.0971
0.9463 0.2277 0.0923
1.0000 0.2260 0.0874
0.0000 0.3809 0.1099
0.0617 0.3791 0.1051
0.2096 0.3774 0.1002
0.3576 0.3757 0.0954
0.5056 0.3741 0.0905
0.6537 0.3725 0.0857
0.8018 0.3709 0.0809
0.9499 0.3693 0.0761
1.0000 0.3678 0.0713
0.0000 0.5221 0.0936
0.0650 0.5205 0.0888
0.2131 0.5189 0.0839
0.3612 0.5173 0.0791
0.5093 0.5157 0.0743
0.6575 0.5142 0.0696
0.8056 0.5127 0.0648
0.9538 0.5113 0.0601
1.0000 0.5098 0.0554
0.0000 0.6637 0.0774
0.0687 0.6622 0.0726
0.2169 0.6607 0.0678
0.3651 0.6592 0.0631
0.5133 0.6577 0.0584
0.6615 0.6563 0.0537
0.8097 0.6549 0.0490
0.9579 0.6536 0.0444
1.0000 0.6523 0.0398
0.0000 0.8057 0.0614
0.0727 0.8042 0.0567
0.2209 0.8028 0.0520
0.3692 0.8014 0.0474
0.5174 0.8001 0.0427
0.6657 0.7988 0.0382
0.8139 0.7975 0.0336
0.9622 0.7963 0.0291
1.0000 0.7950 0.0247
0.0000 0.9480 0.0457
0.0769 0.9466 0.0411
0.2251 0.9453 0.0365
0.3734 0.9440 0.0320
0.5217 0.9428 0.0275
0.6700 0.9416 0.0231
0.8183 0.9404 0.0187
0.9665 0.9393 0.0144
1.0000 0.9382 0.0102
0.0000 1.0000 0.0304
0.0812 1.0000 0.0259
0.2294 1.0000 0.0215
0.3777 1.0000 0.0172
0.5260 1.0000 0.0129
0.6743 1.0000 0.0087
0.8226 1.0000 0.0045
0.9708 1.0000 0.0005
1.0000 1.0000 0.0000
0.0000 0.0000 0.3038
0.0551 0.0000 0.2991
0.2024 0.0000 0.2944
0.3499 0.0000 0.2896
0.4974 0.0000 0.2848
0.6450 0.0000 0.2800
0.7927 0.0000 0.2752
0.9404 0.0000 0.2703
1.0000 0.0000 0.2655
0.0000 0.0988 0.2879
0.0566 0.0969 0.2831
0.2043 0.0949 0.2783
0.3520 0.0930 0.2734
0.4997 0.0912 0.2685
0.6475 0.0893 0.2637
0.7954 0.0876 0.2588
0.9433 0.0858 0.2540
1.0000 0.0841 0.2491
0.0000 0.2394 0.2716
0.0590 0.2375 0.2668
0.2068 0.2357 0.2619
0.3547 0.2339 0.2571
0.5026 0.2322 0.2522
0.6506 0.2305 0.2473
0.7986 0.2288 0.2425
0.9466 0.2271 0.2376
1.0000 0.2255 0.2328
0.0000 0.3803 0.2553
0.0620 0.3785 0.2504
0.2100 0.3768 0.2456
0.3580 0.3752 0.2407
0.5060 0.3735 0.2359
0.6541 0.3719 0.2311
0.8022 0.3703 0.2262
0.9503 0.3688 0.2215
1.0000 0.3673 0.2167
0.0000 0.5216 0.2390
0.0654 0.5199 0.2341
0.2135 0.5183 0.2293
0.3616 0.5168 0.2245
0.5097 0.5152 0.2197
0.6579 0.5137 0.2150
0.8060 0.5122 0.2102
0.9542 0.5108 0.2055
1.0000 0.5094 0.2008
0.0000 0.6632 0.2228
0.0691 0.6617 0.2180
0.2173 0.6602 0.2132
0.3655 0.6587 0.2085
0.5137 0.6573 0.2038
0.6619 0.6559 0.1991
0.8101 0.6545 0.1945
0.9584 0.6531 0.1899
1.0000 0.6518 0.1853
0.0000 0.8052 0.2068
0.0731 0.8037 0.2021
0.2213 0.8024 0.1974
0.3696 0.8010 0.1928
0.5178 0.7996 0.1882
0.6661 0.7983 0.1836
0.8144 0.7971 0.1791
0.9627 0.7958 0.1746
1.0000 0.7946 0.1702
0.0000 0.9475 0.1911
0.0773 0.9462 0.1865
0.2256 0.9449 0.1820
0.3738 0.9436 0.1775
0.5221 0.9424 0.1730
0.6704 0.9412 0.1686
0.8187 0.9400 0.1643
0.9670 0.9389 0.1600
1.0000 0.9378 0.1558
0.0000 1.0000 0.1758
0.0816 1.0000 0.1714
0.2299 1.0000 0.1670
0.3782 1.0000 0.1627
0.5265 1.0000 0.1584
0.6747 1.0000 0.1542
0.8230 1.0000 0.1501
0.9712 1.0000 0.1461
1.0000 1.0000 0.1422
0.0000 0.0000 0.4492
0.0552 0.0000 0.4445
0.2026 0.0000 0.4398
0.3500 0.0000 0.4350
0.4976 0.0000 0.4302
0.6452 0.0000 0.4254
0.7929 0.0000 0.4205
0.9407 0.0000 0.4157
1.0000 0.0000 0.4108
0.0000 0.0982 0.4333
0.0568 0.0962 0.4284
0.2045 0.0943 0.4236
0.3522 0.0924 0.4188
0.5000 0.0906 0.4139
0.6478 0.0887 0.4090
0.7957 0.0870 0.4042
0.9436 0.0852 0.3993
1.0000 0.0835 0.3945
0.0000 0.2387 0.4170
0.0593 0.2369 0.4121
0.2071 0.2351 0.4073
0.3550 0.2333 0.4024
0.5030 0.2316 0.3975
0.6509 0.2299 0.3927
0.7989 0.2282 0.3878
0.9470 0.2266 0.3830
1.0000 0.2249 0.3782
0.0000 0.3797 0.4006
0.0623 0.3780 0.3958
0.2103 0.3763 0.3909
0.3583 0.3746 0.3861
0.5064 0.3730 0.3812
0.6544 0.3714 0.3764
0.8025 0.3698 0.3716
0.9507 0.3683 0.3668
1.0000 0.3667 0.3621
0.0000 0.5210 0.3843
0.0657 0.5194 0.3795
0.2138 0.5178 0.3747
0.3619 0.5162 0.3699
0.5101 0.5147 0.3651
0.6583 0.5132 0.3603
0.8064 0.5117 0.3556
0.9546 0.5103 0.3509
1.0000 0.5089 0.3462
0.0000 0.6627 0.3681
0.0695 0.6612 0.3634
0.2177 0.6597 0.3586
0.3659 0.6582 0.3539
0.5141 0.6568 0.3492
0.6623 0.6554 0.3445
0.8105 0.6540 0.3399
0.9588 0.6527 0.3353
1.0000 0.6514 0.3307
0.0000 0.8047 0.3522
0.0735 0.8033 0.3475
0.2218 0.8019 0.3428
0.3700 0.8005 0.3382
0.5183 0.7992 0.3336
0.6665 0.7979 0.3291
0.8148 0.7966 0.3246
0.9631 0.7954 0.3201
1.0000 0.7942 0.3157
0.0000 0.9470 0.3365
0.0777 0.9457 0.3320
0.2260 0.9444 0.3274
0.3743 0.9432 0.3230
0.5226 0.9420 0.3185
0.6708 0.9408 0.3141
0.8191 0.9397 0.3098
0.9674 0.9385 0.3055
1.0000 0.9375 0.3013
0.0000 1.0000 0.3213
0.0820 1.0000 0.3169
0.2303 1.0000 0.3125
0.3786 1.0000 0.3082
0.5269 1.0000 0.3040
0.6752 1.0000 0.2998
0.8234 1.0000 0.2957
0.9717 1.0000 0.2918
1.0000 1.0000 0.2879
0.0000 0.0000 0.5946
0.0553 0.0000 0.5899
0.2027 0.0000 0.5852
0.3502 0.0000 0.5804
0.4978 0.0000 0.5756
0.6455 0.0000 0.5707
0.7932 0.0000 0.5659
0.9410 0.0000 0.5610
1.0000 0.0000 0.5562
0.0000 0.0975 0.5786
0.0570 0.0955 0.5738
0.2047 0.0936 0.5690
0.3525 0.0918 0.5641
0.5003 0.0899 0.5592
0.6481 0.0881 0.5544
0.7960 0.0864 0.5495
0.9439 0.0846 0.5447
1.0000 0.0829 0.5398
0.0000 0.2381 0.5623
0.0596 0.2363 0.5575
0.2074 0.2345 0.5526
0.3553 0.2327 0.5477
0.5033 0.2310 0.5429
0.6513 0.2293 0.5380
0.7993 0.2276 0.5332
0.9473 0.2260 0.5284
1.0000 0.2244 0.5235
0.0000 0.3791 0.5460
0.0626 0.3774 0.5411
0.2106 0.3757 0.5363
0.3587 0.3740 0.5314
0.5067 0.3724 0.5266
0.6548 0.3708 0.5218
0.8029 0.3693 0.5170
0.9511 0.3677 0.5122
1.0000 0.3662 0.5075
0.0000 0.5204 0.5297
0.0661 0.5188 0.5248
0.2142 0.5173 0.5200
0.3623 0.5157 0.5153
0.5105 0.5142 0.5105
0.6587 0.5127 0.5057
0.8068 0.5112 0.5010
0.9551 0.5098 0.4963
1.0000 0.5084 0.4916
0.0000 0.6622 0.5135
0.0699 0.6606 0.5087
0.2181 0.6592 0.5040
0.3663 0.6577 0.4993
0.5145 0.6563 0.4946
0.6627 0.6549 0.4900
0.8110 0.6536 0.4853
0.9592 0.6522 0.4807
1.0000 0.6509 0.4762
0.0000 0.8042 0.4976
0.0739 0.8028 0.4929
0.2222 0.8014 0.4883
0.3704 0.8001 0.4837
0.5187 0.7988 0.4791
0.6670 0.7975 0.4746
0.8152 0.7962 0.4701
0.9635 0.7950 0.4656
1.0000 0.7938 0.4612
0.0000 0.9466 0.4820
0.0782 0.9453 0.4774
0.2264 0.9440 0.4729
0.3747 0.9428 0.4684
0.5230 0.9416 0.4640
0.6713 0.9404 0.4597
0.8196 0.9393 0.4553
0.9679 0.9382 0.4511
1.0000 0.9371 0.4469
0.0000 1.0000 0.4668
0.0825 1.0000 0.4624
0.2308 1.0000 0.4581
0.3790 1.0000 0.4538
0.5273 1.0000 0.4496
0.6756 1.0000 0.4454
0.8238 1.0000 0.4414
0.9721 1.0000 0.4374
1.0000 1.0000 0.4336
0.0000 0.0000 0.7400
0.0554 0.0000 0.7353
0.2029 0.0000 0.7305
0.3504 0.0000 0.7257
0.4980 0.0000 0.7209
0.6457 0.0000 0.7161
0.7935 0.0000 0.7112
0.9412 0.0000 0.7064
1.0000 0.0000 0.7015
0.0000 0.0968 0.7240
0.0573 0.0949 0.7192
0.2050 0.0930 0.7143
0.3527 0.0911 0.7095
0.5006 0.0893 0.7046
0.6484 0.0875 0.6997
0.7963 0.0858 0.6949
0.9443 0.0840 0.6900
1.0000 0.0823 0.6852
0.0000 0.2375 0.7077
0.0599 0.2357 0.7028
0.2077 0.2339 0.6980
0.3557 0.2321 0.6931
0.5036 0.2304 0.6882
0.6516 0.2287 0.6834
0.7996 0.2271 0.6785
0.9477 0.2255 0.6737
1.0000 0.2239 0.6689
0.0000 0.3785 0.6913
0.0630 0.3768 0.6865
0.2110 0.3751 0.6816
0.3590 0.3735 0.6768
0.5071 0.3719 0.6720
0.6552 0.3703 0.6672
0.8033 0.3687 0.6624
0.9515 0.3672 0.6576
1.0000 0.3657 0.6528
0.0000 0.5199 0.6750
0.0665 0.5183 0.6702
0.2146 0.5167 0.6654
0.3627 0.5152 0.6606
0.5109 0.5137 0.6559
0.6591 0.5122 0.6511
0.8073 0.5108 0.6464
0.9555 0.5093 0.6417
1.0000 0.5080 0.6371
0.0000 0.6616 0.6589
0.0703 0.6601 0.6541
0.2185 0.6587 0.6494
0.3667 0.6572 0.6447
0.5149 0.6558 0.6400
0.6631 0.6545 0.6354
0.8114 0.6531 0.6308
0.9597 0.6518 0.6262
1.0000 0.6505 0.6217
0.0000 0.8037 0.6430
0.0744 0.8023 0.6383
0.2226 0.8010 0.6337
0.3709 0.7996 0.6291
0.5191 0.7983 0.6245
0.6674 0.7971 0.6200
0.8157 0.7958 0.6155
0.9640 0.7946 0.6111
1.0000 0.7934 0.6068
0.0000 0.9461 0.6274
0.0786 0.9449 0.6229
0.2269 0.9436 0.6184
0.3751 0.9424 0.6139
0.5234 0.9412 0.6095
0.6717 0.9400 0.6052
0.8200 0.9389 0.6009
0.9683 0.9378 0.5967
1.0000 0.9368 0.5925
0.0000 1.0000 0.6123
0.0829 1.0000 0.6079
0.2312 1.0000 0.6036
0.3795 1.0000 0.5993
0.5278 1.0000 0.5952
0.6760 1.0000 0.5910
0.8243 1.0000 0.5870
0.9725 1.0000 0.5831
1.0000 1.0000 0.5794
0.0000 0.0000 0.8854
0.0556 0.0000 0.8807
0.2030 0.0000 0.8759
0.3506 0.0000 0.8711
0.4983 0.0000 0.8663
0.6460 0.0000 0.8614
0.7937 0.0000 0.8566
0.9415 0.0000 0.8517
1.0000 0.0000 0.8469
0.0000 0.0962 0.8694
0.0575 0.0942 0.8645
0.2052 0.0924 0.8597
0.3530 0.0905 0.8548
0.5008 0.0887 0.8499
0.6487 0.0869 0.8451
0.7966 0.0852 0.8402
0.9446 0.0835 0.8354
1.0000 0.0818 0.8305
0.0000 0.2369 0.8530
0.0602 0.2351 0.8482
0.2080 0.2333 0.8433
0.3560 0.2315 0.8384
0.5039 0.2298 0.8336
0.6519 0.2282 0.8287
0.8000 0.2265 0.8239
0.9481 0.2249 0.8191
1.0000 0.2233 0.8143
0.0000 0.3779 0.8367
0.0633 0.3762 0.8318
0.2113 0.3746 0.8270
0.3594 0.3729 0.8222
0.5075 0.3713 0.8173
0.6556 0.3698 0.8125
0.8037 0.3682 0.8077
0.9518 0.3667 0.8030
1.0000 0.3652 0.7982
0.0000 0.5194 0.8204
0.0669 0.5178 0.8156
0.2150 0.5162 0.8108
0.3631 0.5147 0.8060
0.5113 0.5132 0.8013
0.6595 0.5117 0.7965
0.8077 0.5103 0.7918
0.9559 0.5089 0.7871
1.0000 0.5075 0.7825
0.0000 0.6611 0.8043
0.0707 0.6596 0.7995
0.2189 0.6582 0.7948
0.3671 0.6568 0.7901
0.5153 0.6554 0.7854
0.6636 0.6540 0.7808
0.8118 0.6527 0.7762
0.9601 0.6514 0.7717
1.0000 0.6501 0.7671
0.0000 0.8032 0.7884
0.0748 0.8019 0.7838
0.2230 0.8005 0.7791
0.3713 0.7992 0.7745
0.5196 0.7979 0.7700
0.6678 0.7966 0.7655
0.8161 0.7954 0.7610
0.9644 0.7942 0.7566
1.0000 0.7930 0.7523
0.0000 0.9457 0.7729
0.0790 0.9444 0.7684
0.2273 0.9432 0.7639
0.3756 0.9420 0.7594
0.5239 0.9408 0.7550
0.6722 0.9396 0.7507
0.8204 0.9385 0.7465
0.9687 0.9375 0.7423
1.0000 0.9364 0.7381
0.0000 1.0000 0.7578
0.0833 1.0000 0.7535
0.2316 1.0000 0.7492
0.3799 1.0000 0.7449
0.5282 1.0000 0.7408
0.6764 1.0000 0.7367
0.8247 1.0000 0.7327
0.9729 1.0000 0.7288
1.0000 1.0000 0.7251
0.0000 0.0000 1.0000
0.0557 0.0000 1.0000
0.2032 0.0000 1.0000
0.3508 0.0000 1.0000
0.4985 0.0000 1.0000
0.6462 0.0000 1.0000
0.7940 0.0000 1.0000
0.9418 0.0000 0.9971
1.0000 0.0000 0.9922
0.0000 0.0955 1.0000
0.0577 0.0936 1.0000
0.2055 0.0917 1.0000
0.3533 0.0899 1.0000
0.5011 0.0881 0.9953
0.6490 0.0863 0.9904
0.7970 0.0846 0.9856
0.9449 0.0829 0.9807
1.0000 0.0812 0.9759
0.0000 0.2362 0.9984
0.0604 0.2344 0.9935
0.2084 0.2327 0.9887
0.3563 0.2310 0.9838
0.5043 0.2293 0.9789
0.6523 0.2276 0.9741
0.8003 0.2260 0.9693
0.9484 0.2244 0.9644
1.0000 0.2228 0.9596
0.0000 0.3773 0.9820
0.0636 0.3757 0.9772
0.2117 0.3740 0.9723
0.3597 0.3724 0.9675
0.5078 0.3708 0.9627
0.6559 0.3692 0.9579
0.8041 0.3677 0.9531
0.9522 0.3662 0.9484
1.0000 0.3647 0.9436
0.0000 0.5188 0.9658
0.0672 0.5172 0.9610
0.2154 0.5157 0.9562
0.3635 0.5142 0.9514
0.5117 0.5127 0.9466
0.6599 0.5112 0.9419
0.8081 0.5098 0.9372
0.9563 0.5084 0.9326
1.0000 0.5070 0.9279
0.0000 0.6606 0.9497
0.0711 0.6591 0.9449
0.2193 0.6577 0.9402
0.3675 0.6563 0.9355
0.5158 0.6549 0.9309
0.6640 0.6535 0.9262
0.8123 0.6522 0.9217
0.9605 0.6509 0.9171
1.0000 0.6497 0.9126
0.0000 0.8028 0.9338
0.0752 0.8014 0.9292
0.2235 0.8000 0.9246
0.3717 0.7987 0.9200
0.5200 0.7975 0.9155
0.6683 0.7962 0.9110
0.8166 0.7950 0.9065
0.9648 0.7938 0.9022
1.0000 0.7927 0.8978
0.0000 0.9453 0.9183
0.0795 0.9440 0.9138
0.2277 0.9428 0.9094
0.3760 0.9416 0.9049
0.5243 0.9404 0.9006
0.6726 0.9393 0.8963
0.8209 0.9382 0.8920
0.9692 0.9371 0.8879
1.0000 0.9361 0.8838
0.0000 1.0000 0.9033
0.0838 1.0000 0.8990
0.2321 1.0000 0.8947
0.3803 1.0000 0.8905
0.5286 1.0000 0.8864
0.6769 1.0000 0.8823
0.8251 1.0000 0.8784
0.9733 1.0000 0.8746
1.0000 1.0000 0.8709
0.0000 0.0000 1.0000
0.0559 0.0000 1.0000
0.2034 0.0000 1.0000
0.3510 0.0000 1.0000
0.4987 0.0000 1.0000
0.6465 0.0000 1.0000
0.7943 0.0000 1.0000
0.9421 0.0000 1.0000
1.0000 0.0000 1.0000
0.0000 0.0949 1.0000
0.0580 0.0930 1.0000
0.2058 0.0911 1.0000
0.3536 0.0893 1.0000
0.5014 0.0875 1.0000
0.6493 0.0857 1.0000
0.7973 0.0840 1.0000
0.9453 0.0823 1.0000
1.0000 0.0807 1.0000
0.0000 0.2356 1.0000
0.0608 0.2338 1.0000
0.2087 0.2321 1.0000
0.3566 0.2304 1.0000
0.5046 0.2287 1.0000
0.6527 0.2271 1.0000
0.8007 0.2254 1.0000
0.9488 0.2238 1.0000
1.0000 0.2223 1.0000
0.0000 0.3768 1.0000
0.0640 0.3751 1.0000
0.2120 0.3735 1.0000
0.3601 0.3718 1.0000
0.5082 0.3703 1.0000
0.6563 0.3687 1.0000
0.8045 0.3672 1.0000
0.9526 0.3657 1.0000
1.0000 0.3643 1.0000
0.0000 0.5183 1.0000
0.0676 0.5167 1.0000
0.2157 0.5152 1.0000
0.3639 0.5137 1.0000
0.5121 0.5122 1.0000
0.6603 0.5107 1.0000
0.8085 0.5093 1.0000
0.9567 0.5079 1.0000
1.0000 0.5066 1.0000
0.0000 0.6601 1.0000
0.0715 0.6586 1.0000
0.2197 0.6572 1.0000
0.3679 0.6558 1.0000
0.5162 0.6544 1.0000
0.6644 0.6531 1.0000
0.8127 0.6518 1.0000
0.9610 0.6505 1.0000
1.0000 0.6492 1.0000
0.0000 0.8023 1.0000
0.0756 0.8009 1.0000
0.2239 0.7996 1.0000
0.3721 0.7983 1.0000
0.5204 0.7970 1.0000
0.6687 0.7958 1.0000
0.8170 0.7946 1.0000
0.9653 0.7934 1.0000
1.0000 0.7923 1.0000
0.0000 0.9448 1.0000
0.0799 0.9436 1.0000
0.2282 0.9423 1.0000
0.3765 0.9412 1.0000
0.5247 0.9400 1.0000
0.6730 0.9389 1.0000
0.8213 0.9378 1.0000
0.9696 0.9367 1.0000
1.0000 0.9357 1.0000
0.0000 1.0000 1.0000
0.0842 1.0000 1.0000
0.2325 1.0000 1.0000
0.3808 1.0000 1.0000
0.5290 1.0000 1.0000
0.6773 1.0000 1.0000
0.8255 1.0000 1.0000
0.9737 1.0000 1.0000
1.0000 1.0000 1.0000
