public/luts/cinematic.cube
# edite look: Cinematic (CC0)
TITLE "Cinematic"
LUT_3D_SIZE 5
DOMAIN_MIN 0.0 0.0 0.0
DOMAIN_MAX 1.0 1.0 1.0
0.0000 0.0000 0.0129
0.2022 0.0000 0.0036
0.4970 0.0000 0.0000
0.7922 0.0000 0.0000
1.0000 0.0000 0.0000
0.0000 0.2406 0.0000
0.2063 0.2369 0.0000
0.5020 0.2333 0.0000
0.7979 0.2299 0.0000
1.0000 0.2266 0.0000
0.0000 0.5227 0.0000
0.2127 0.5194 0.0000
0.5089 0.5163 0.0000
0.8052 0.5132 0.0000
1.0000 0.5103 0.0000
0.0000 0.8062 0.0000
0.2205 0.8033 0.0000
0.5170 0.8006 0.0000
0.8135 0.7979 0.0000
1.0000 0.7954 0.0000
0.0000 1.0000 0.0000
0.2290 1.0000 0.0000
0.5256 1.0000 0.0000
0.8221 1.0000 0.0000
1.0000 1.0000 0.0000
0.0000 0.0000 0.3038
0.2024 0.0000 0.2944
0.4974 0.0000 0.2848
0.7927 0.0000 0.2752
1.0000 0.0000 0.2655
0.0000 0.2394 0.2716
0.2068 0.2357 0.2619
0.5026 0.2322 0.2522
0.7986 0.2288 0.2425
1.0000 0.2255 0.2328
0.0000 0.5216 0.2390
0.2135 0.5183 0.2293
0.5097 0.5152 0.2197
0.8060 0.5122 0.2102
1.0000 0.5094 0.2008
0.0000 0.8052 0.2068
0.2213 0.8024 0.1974
0.5178 0.7996 0.1882
0.8144 0.7971 0.1791
1.0000 0.7946 0.1702
0.0000 1.0000 0.1758
0.2299 1.0000 0.1670
0.5265 1.0000 0.1584
0.8230 1.0000 0.1501
1.0000 1.0000 0.1422
0.0000 0.0000 0.5946
0.2027 0.0000 0.5852
0.4978 0.0000 0.5756
0.7932 0.0000 0.5659
1.0000 0.0000 0.5562
0.0000 0.2381 0.5623
0.2074 0.2345 0.5526
0.5033 0.2310 0.5429
0.7993 0.2276 0.5332
1.0000 0.2244 0.5235
0.0000 0.5204 0.5297
0.2142 0.5173 0.5200
0.5105 0.5142 0.5105
0.8068 0.5112 0.5010
1.0000 0.5084 0.4916
0.0000 0.8042 0.4976
0.2222 0.8014 0.4883
0.5187 0.7988 0.4791
0.8152 0.7962 0.4701
1.0000 0.7938 0.4612
0.0000 1.0000 0.4668
0.2308 1.0000 0.4581
0.5273 1.0000 0.4496
0.8238 1.0000 0.4414
1.0000 1.0000 0.4336
0.0000 0.0000 0.8854
0.2030 0.0000 0.8759
0.4983 0.0000 0.8663
0.7937 0.0000 0.8566
1.0000 0.0000 0.8469
0.0000 0.2369 0.8530
0.2080 0.2333 0.8433
0.5039 0.2298 0.8336
0.8000 0.2265 0.8239
1.0000 0.2233 0.8143
0.0000 0.5194 0.8204
0.2150 0.5162 0.8108
0.5113 0.5132 0.8013
0.8077 0.5103 0.7918
1.0000 0.5075 0.7825
0.0000 0.8032 0.7884
0.2230 0.8005 0.7791
0.5196 0.7979 0.7700
0.8161 0.7954 0.7610
1.0000 0.7930 0.7523
0.0000 1.0000 0.7578
0.2316 1.0000 0.7492
0.5282 1.0000 0.7408
0.8247 1.0000 0.7327
1.0000 1.0000 0.7251
0.0000 0.0000 1.0000
0.2034 0.0000 1.0000
0.4987 0.0000 1.0000
0.7943 0.0000 1.0000
1.0000 0.0000 1.0000
0.0000 0.2356 1.0000
0.2087 0.2321 1.0000
0.5046 0.2287 1.0000
0.8007 0.2254 1.0000
1.0000 0.2223 1.0000
0.0000 0.5183 1.0000
0.2157 0.5152 1.0000
0.5121 0.5122 1.0000
0.8085 0.5093 1.0000
1.0000 0.5066 1.0000
0.0000 0.8023 1.0000
0.2239 0.7996 1.0000
0.5204 0.7970 1.0000
0.8170 0.7946 1.0000
1.0000 0.7923 1.0000
0.0000 1.0000 1.0000
0.2325 1.0000 1.0000
0.5290 1.0000 1.0000
0.8255 1.0000 1.0000
1.0000 1.0000 1.0000
