public/luts/cool.cube
# edite look: Cool (CC0)
TITLE "Cool"
LUT_3D_SIZE 17
DOMAIN_MIN 0.0 0.0 0.0
DOMAIN_MAX 1.0 1.0 1.0
0.0000 0.0000 0.0000
0.0434 0.0000 0.0000
0.1117 0.0000 0.0000
0.1801 0.0000 0.0000
0.2485 0.0000 0.0000
0.3168 0.0000 0.0000
0.3852 0.0000 0.0000
0.4535 0.0000 0.0000
0.5219 0.0000 0.0000
0.5903 0.0000 0.0000
0.6586 0.0000 0.0000
0.7270 0.0000 0.0000
0.7954 0.0000 0.0000
0.8637 0.0000 0.0000
0.9321 0.0000 0.0000
1.0000 0.0000 0.0000
1.0000 0.0000 0.0000
0.0000 0.0421 0.0000
0.0396 0.0410 0.0000
0.1080 0.0399 0.0000
0.1763 0.0388 0.0000
0.2447 0.0377 0.0000
0.3131 0.0367 0.0000
0.3814 0.0356 0.0000
0.4498 0.0345 0.0000
0.5182 0.0334 0.0000
0.5865 0.0323 0.0000
0.6549 0.0312 0.0000
0.7232 0.0301 0.0000
0.7916 0.0290 0.0000
0.8600 0.0279 0.0000
0.9283 0.0268 0.0000
0.9967 0.0257 0.0000
1.0000 0.0246 0.0000
0.0000 0.1092 0.0000
0.0359 0.1081 0.0000
0.1042 0.1071 0.0000
0.1726 0.1060 0.0000
0.2409 0.1049 0.0000
0.3093 0.1038 0.0000
0.3777 0.1027 0.0000
0.4460 0.1016 0.0000
0.5144 0.1005 0.0000
0.5828 0.0994 0.0000
0.6511 0.0983 0.0000
0.7195 0.0972 0.0000
0.7879 0.0961 0.0000
0.8562 0.0950 0.0000
0.9246 0.0939 0.0000
0.9929 0.0928 0.0000
1.0000 0.0917 0.0000
0.0000 0.1764 0.0000
0.0321 0.1753 0.0000
0.1005 0.1742 0.0000
0.1688 0.1731 0.0000
0.2372 0.1720 0.0000
0.3056 0.1709 0.0000
0.3739 0.1698 0.0000
0.4423 0.1687 0.0000
0.5106 0.1676 0.0000
0.5790 0.1665 0.0000
0.6474 0.1654 0.0000
0.7157 0.1643 0.0000
0.7841 0.1632 0.0000
0.8525 0.1621 0.0000
0.9208 0.1610 0.0000
0.9892 0.1600 0.0000
1.0000 0.1589 0.0000
0.0000 0.2435 0.0000
0.0283 0.2424 0.0000
0.0967 0.2413 0.0000
0.1651 0.2402 0.0000
0.2334 0.2391 0.0000
0.3018 0.2380 0.0000
0.3702 0.2369 0.0000
0.4385 0.2358 0.0000
0.5069 0.2347 0.0000
0.5753 0.2336 0.0000
0.6436 0.2325 0.0000
0.7120 0.2314 0.0000
0.7803 0.2304 0.0000
0.8487 0.2293 0.0000
0.9171 0.2282 0.0000
0.9854 0.2271 0.0000
1.0000 0.2260 0.0000
0.0000 0.3106 0.0000
0.0246 0.3095 0.0000
0.0930 0.3084 0.0000
0.1613 0.3073 0.0000
0.2297 0.3062 0.0000
0.2980 0.3051 0.0000
0.3664 0.3040 0.0000
0.4348 0.3029 0.0000
0.5031 0.3019 0.0000
0.5715 0.3008 0.0000
0.6399 0.2997 0.0000
0.7082 0.2986 0.0000
0.7766 0.2975 0.0000
0.8450 0.2964 0.0000
0.9133 0.2953 0.0000
0.9817 0.2942 0.0000
1.0000 0.2931 0.0000
0.0000 0.3777 0.0000
0.0208 0.3766 0.0000
0.0892 0.3755 0.0000
0.1576 0.3744 0.0000
0.2259 0.3733 0.0000
0.2943 0.3723 0.0000
0.3627 0.3712 0.0000
0.4310 0.3701 0.0000
0.4994 0.3690 0.0000
0.5677 0.3679 0.0000
0.6361 0.3668 0.0000
0.7045 0.3657 0.0000
0.7728 0.3646 0.0000
0.8412 0.3635 0.0000
0.9096 0.3624 0.0000
0.9779 0.3613 0.0000
1.0000 0.3602 0.0000
0.0000 0.4448 0.0000
0.0171 0.4437 0.0000
0.0854 0.4427 0.0000
0.1538 0.4416 0.0000
0.2222 0.4405 0.0000
0.2905 0.4394 0.0000
0.3589 0.4383 0.0000
0.4273 0.4372 0.0000
0.4956 0.4361 0.0000
0.5640 0.4350 0.0000
0.6324 0.4339 0.0000
0.7007 0.4328 0.0000
0.7691 0.4317 0.0000
0.8374 0.4306 0.0000
0.9058 0.4295 0.0000
0.9742 0.4284 0.0000
1.0000 0.4273 0.0000
0.0000 0.5120 0.0000
0.0133 0.5109 0.0000
0.0817 0.5098 0.0000
0.1501 0.5087 0.0000
0.2184 0.5076 0.0000
0.2868 0.5065 0.0000
0.3551 0.5054 0.0000
0.4235 0.5043 0.0000
0.4919 0.5032 0.0000
0.5602 0.5021 0.0000
0.6286 0.5010 0.0000
0.6970 0.4999 0.0000
0.7653 0.4988 0.0000
0.8337 0.4977 0.0000
0.9021 0.4966 0.0000
0.9704 0.4956 0.0000
1.0000 0.4945 0.0000
0.0000 0.5791 0.0000
0.0096 0.5780 0.0000
0.0779 0.5769 0.0000
0.1463 0.5758 0.0000
0.2147 0.5747 0.0000
0.2830 0.5736 0.0000
0.3514 0.5725 0.0000
0.4198 0.5714 0.0000
0.4881 0.5703 0.0000
0.5565 0.5692 0.0000
0.6248 0.5681 0.0000
0.6932 0.5670 0.0000
0.7616 0.5660 0.0000
0.8299 0.5649 0.0000
0.8983 0.5638 0.0000
0.9667 0.5627 0.0000
1.0000 0.5616 0.0000
0.0000 0.6462 0.0000
0.0058 0.6451 0.0000
0.0742 0.6440 0.0000
0.1425 0.6429 0.0000
0.2109 0.6418 0.0000
0.2793 0.6407 0.0000
0.3476 0.6396 0.0000
0.4160 0.6385 0.0000
0.4844 0.6375 0.0000
0.5527 0.6364 0.0000
0.6211 0.6353 0.0000
0.6895 0.6342 0.0000
0.7578 0.6331 0.0000
0.8262 0.6320 0.0000
0.8945 0.6309 0.0000
0.9629 0.6298 0.0000
1.0000 0.6287 0.0000
0.0000 0.7133 0.0000
0.0021 0.7122 0.0000
0.0704 0.7111 0.0000
0.1388 0.7100 0.0000
0.2072 0.7089 0.0000
0.2755 0.7079 0.0000
0.3439 0.7068 0.0000
0.4122 0.7057 0.0000
0.4806 0.7046 0.0000
0.5490 0.7035 0.0000
0.6173 0.7024 0.0000
0.6857 0.7013 0.0000
0.7541 0.7002 0.0000
0.8224 0.6991 0.0000
0.8908 0.6980 0.0000
0.9592 0.6969 0.0000
1.0000 0.6958 0.0000
0.0000 0.7804 0.0000
0.0000 0.7793 0.0000
0.0667 0.7783 0.0000
0.1350 0.7772 0.0000
0.2034 0.7761 0.0000
0.2718 0.7750 0.0000
0.3401 0.7739 0.0000
0.4085 0.7728 0.0000
0.4769 0.7717 0.0000
0.5452 0.7706 0.0000
0.6136 0.7695 0.0000
0.6819 0.7684 0.0000
0.7503 0.7673 0.0000
0.8187 0.7662 0.0000
0.8870 0.7651 0.0000
0.9554 0.7640 0.0000
1.0000 0.7629 0.0000
0.0000 0.8476 0.0000
0.0000 0.8465 0.0000
0.0629 0.8454 0.0000
0.1313 0.8443 0.0000
0.1996 0.8432 0.0000
0.2680 0.8421 0.0000
0.3364 0.8410 0.0000
0.4047 0.8399 0.0000
0.4731 0.8388 0.0000
0.5415 0.8377 0.0000
0.6098 0.8366 0.0000
0.6782 0.8355 0.0000
0.7466 0.8344 0.0000
0.8149 0.8333 0.0000
0.8833 0.8322 0.0000
0.9516 0.8312 0.0000
1.0000 0.8301 0.0000
0.0000 0.9147 0.0000
0.0000 0.9136 0.0000
0.0592 0.9125 0.0000
0.1275 0.9114 0.0000
0.1959 0.9103 0.0000
0.2643 0.9092 0.0000
0.3326 0.9081 0.0000
0.4010 0.9070 0.0000
0.4693 0.9059 0.0000
0.5377 0.9048 0.0000
0.6061 0.9037 0.0000
0.6744 0.9027 0.0000
0.7428 0.9016 0.0000
0.8112 0.9005 0.0000
0.8795 0.8994 0.0000
0.9479 0.8983 0.0000
1.0000 0.8972 0.0000
0.0000 0.9818 0.0000
0.0000 0.9807 0.0000
0.0554 0.9796 0.0000
0.1238 0.9785 0.0000
0.1921 0.9774 0.0000
0.2605 0.9763 0.0000
0.3289 0.9752 0.0000
0.3972 0.9741 0.0000
0.4656 0.9731 0.0000
0.5340 0.9720 0.0000
0.6023 0.9709 0.0000
0.6707 0.9698 0.0000
0.7390 0.9687 0.0000
0.8074 0.9676 0.0000
0.8758 0.9665 0.0000
0.9441 0.9654 0.0000
1.0000 0.9643 0.0000
0.0000 1.0000 0.0000
0.0000 1.0000 0.0000
0.0517 1.0000 0.0000
0.1200 1.0000 0.0000
0.1884 1.0000 0.0000
0.2567 1.0000 0.0000
0.3251 1.0000 0.0000
0.3935 1.0000 0.0000
0.4618 1.0000 0.0000
0.5302 1.0000 0.0000
0.5986 1.0000 0.0000
0.6669 1.0000 0.0000
0.7353 1.0000 0.0000
0.8037 1.0000 0.0000
0.8720 1.0000 0.0000
0.9404 1.0000 0.0000
1.0000 1.0000 0.0000
0.0000 0.0000 0.0490
0.0430 0.0000 0.0479
0.1113 0.0000 0.0468
0.1797 0.0000 0.0457
0.2481 0.0000 0.0446
0.3164 0.0000 0.0436
0.3848 0.0000 0.0425
0.4531 0.0000 0.0414
0.5215 0.0000 0.0403
0.5899 0.0000 0.0392
0.6582 0.0000 0.0381
0.7266 0.0000 0.0370
0.7950 0.0000 0.0359
0.8633 0.0000 0.0348
0.9317 0.0000 0.0337
1.0000 0.0000 0.0326
1.0000 0.0000 0.0315
0.0000 0.0417 0.0453
0.0392 0.0406 0.0442
0.1076 0.0395 0.0431
0.1759 0.0384 0.0420
0.2443 0.0373 0.0409
0.3127 0.0363 0.0398
0.3810 0.0352 0.0387
0.4494 0.0341 0.0376
0.5178 0.0330 0.0365
0.5861 0.0319 0.0354
0.6545 0.0308 0.0343
0.7228 0.0297 0.0332
0.7912 0.0286 0.0321
0.8596 0.0275 0.0310
0.9279 0.0264 0.0300
0.9963 0.0253 0.0289
1.0000 0.0242 0.0278
0.0000 0.1088 0.0415
0.0355 0.1077 0.0404
0.1038 0.1067 0.0393
0.1722 0.1056 0.0382
0.2405 0.1045 0.0371
0.3089 0.1034 0.0360
0.3773 0.1023 0.0349
0.4456 0.1012 0.0339
0.5140 0.1001 0.0328
0.5824 0.0990 0.0317
0.6507 0.0979 0.0306
0.7191 0.0968 0.0295
0.7875 0.0957 0.0284
0.8558 0.0946 0.0273
0.9242 0.0935 0.0262
0.9925 0.0924 0.0251
1.0000 0.0913 0.0240
0.0000 0.1760 0.0378
0.0317 0.1749 0.0367
0.1001 0.1738 0.0356
0.1684 0.1727 0.0345
0.2368 0.1716 0.0334
0.3052 0.1705 0.0323
0.3735 0.1694 0.0312
0.4419 0.1683 0.0301
0.5102 0.1672 0.0290
0.5786 0.1661 0.0279
0.6470 0.1650 0.0268
0.7153 0.1639 0.0257
0.7837 0.1628 0.0246
0.8521 0.1617 0.0235
0.9204 0.1606 0.0224
0.9888 0.1596 0.0213
1.0000 0.1585 0.0203
0.0000 0.2431 0.0340
0.0279 0.2420 0.0329
0.0963 0.2409 0.0318
0.1647 0.2398 0.0307
0.2330 0.2387 0.0296
0.3014 0.2376 0.0285
0.3698 0.2365 0.0274
0.4381 0.2354 0.0263
0.5065 0.2343 0.0253
0.5749 0.2332 0.0242
0.6432 0.2321 0.0231
0.7116 0.2311 0.0220
0.7799 0.2300 0.0209
0.8483 0.2289 0.0198
0.9167 0.2278 0.0187
0.9850 0.2267 0.0176
1.0000 0.2256 0.0165
0.0000 0.3102 0.0302
0.0242 0.3091 0.0292
0.0926 0.3080 0.0281
0.1609 0.3069 0.0270
0.2293 0.3058 0.0259
0.2976 0.3047 0.0248
0.3660 0.3036 0.0237
0.4344 0.3025 0.0226
0.5027 0.3015 0.0215
0.5711 0.3004 0.0204
0.6395 0.2993 0.0193
0.7078 0.2982 0.0182
0.7762 0.2971 0.0171
0.8446 0.2960 0.0160
0.9129 0.2949 0.0149
0.9813 0.2938 0.0138
1.0000 0.2927 0.0127
0.0000 0.3773 0.0265
0.0204 0.3762 0.0254
0.0888 0.3751 0.0243
0.1572 0.3740 0.0232
0.2255 0.3729 0.0221
0.2939 0.3719 0.0210
0.3623 0.3708 0.0199
0.4306 0.3697 0.0188
0.4990 0.3686 0.0177
0.5673 0.3675 0.0166
0.6357 0.3664 0.0156
0.7041 0.3653 0.0145
0.7724 0.3642 0.0134
0.8408 0.3631 0.0123
0.9092 0.3620 0.0112
0.9775 0.3609 0.0101
1.0000 0.3598 0.0090
0.0000 0.4444 0.0227
0.0167 0.4433 0.0216
0.0850 0.4423 0.0205
0.1534 0.4412 0.0195
0.2218 0.4401 0.0184
0.2901 0.4390 0.0173
0.3585 0.4379 0.0162
0.4269 0.4368 0.0151
0.4952 0.4357 0.0140
0.5636 0.4346 0.0129
0.6320 0.4335 0.0118
0.7003 0.4324 0.0107
0.7687 0.4313 0.0096
0.8370 0.4302 0.0085
0.9054 0.4291 0.0074
0.9738 0.4280 0.0063
1.0000 0.4269 0.0052
0.0000 0.5116 0.0190
0.0129 0.5105 0.0179
0.0813 0.5094 0.0168
0.1497 0.5083 0.0157
0.2180 0.5072 0.0146
0.2864 0.5061 0.0135
0.3547 0.5050 0.0124
0.4231 0.5039 0.0113
0.4915 0.5028 0.0102
0.5598 0.5017 0.0091
0.6282 0.5006 0.0080
0.6966 0.4995 0.0070
0.7649 0.4984 0.0059
0.8333 0.4973 0.0048
0.9017 0.4963 0.0037
0.9700 0.4952 0.0026
1.0000 0.4941 0.0015
0.0000 0.5787 0.0152
0.0092 0.5776 0.0141
0.0775 0.5765 0.0130
0.1459 0.5754 0.0119
0.2143 0.5743 0.0109
0.2826 0.5732 0.0098
0.3510 0.5721 0.0087
0.4194 0.5710 0.0076
0.4877 0.5699 0.0065
0.5561 0.5688 0.0054
0.6244 0.5677 0.0043
0.6928 0.5667 0.0032
0.7612 0.5656 0.0021
0.8295 0.5645 0.0010
0.8979 0.5634 0.0000
0.9663 0.5623 0.0000
1.0000 0.5612 0.0000
0.0000 0.6458 0.0115
0.0054 0.6447 0.0104
0.0738 0.6436 0.0093
0.1421 0.6425 0.0082
0.2105 0.6414 0.0071
0.2789 0.6403 0.0060
0.3472 0.6392 0.0049
0.4156 0.6381 0.0038
0.4840 0.6371 0.0027
0.5523 0.6360 0.0016
0.6207 0.6349 0.0005
0.6891 0.6338 0.0000
0.7574 0.6327 0.0000
0.8258 0.6316 0.0000
0.8941 0.6305 0.0000
0.9625 0.6294 0.0000
1.0000 0.6283 0.0000
0.0000 0.7129 0.0077
0.0017 0.7118 0.0066
0.0700 0.7107 0.0055
0.1384 0.7096 0.0044
0.2068 0.7085 0.0033
0.2751 0.7075 0.0022
0.3435 0.7064 0.0012
0.4118 0.7053 0.0001
0.4802 0.7042 0.0000
0.5486 0.7031 0.0000
0.6169 0.7020 0.0000
0.6853 0.7009 0.0000
0.7537 0.6998 0.0000
0.8220 0.6987 0.0000
0.8904 0.6976 0.0000
0.9588 0.6965 0.0000
1.0000 0.6954 0.0000
0.0000 0.7800 0.0040
0.0000 0.7790 0.0029
0.0663 0.7779 0.0018
0.1346 0.7768 0.0007
0.2030 0.7757 0.0000
0.2714 0.7746 0.0000
0.3397 0.7735 0.0000
0.4081 0.7724 0.0000
0.4765 0.7713 0.0000
0.5448 0.7702 0.0000
0.6132 0.7691 0.0000
0.6815 0.7680 0.0000
0.7499 0.7669 0.0000
0.8183 0.7658 0.0000
0.8866 0.7647 0.0000
0.9550 0.7636 0.0000
1.0000 0.7625 0.0000
0.0000 0.8472 0.0002
0.0000 0.8461 0.0000
0.0625 0.8450 0.0000
0.1309 0.8439 0.0000
0.1992 0.8428 0.0000
0.2676 0.8417 0.0000
0.3360 0.8406 0.0000
0.4043 0.8395 0.0000
0.4727 0.8384 0.0000
0.5411 0.8373 0.0000
0.6094 0.8362 0.0000
0.6778 0.8351 0.0000
0.7462 0.8340 0.0000
0.8145 0.8329 0.0000
0.8829 0.8319 0.0000
0.9512 0.8308 0.0000
1.0000 0.8297 0.0000
0.0000 0.9143 0.0000
0.0000 0.9132 0.0000
0.0588 0.9121 0.0000
0.1271 0.9110 0.0000
0.1955 0.9099 0.0000
0.2639 0.9088 0.0000
0.3322 0.9077 0.0000
0.4006 0.9066 0.0000
0.4689 0.9055 0.0000
0.5373 0.9044 0.0000
0.6057 0.9033 0.0000
0.6740 0.9023 0.0000
0.7424 0.9012 0.0000
0.8108 0.9001 0.0000
0.8791 0.8990 0.0000
0.9475 0.8979 0.0000
1.0000 0.8968 0.0000
0.0000 0.9814 0.0000
0.0000 0.9803 0.0000
0.0550 0.9792 0.0000
0.1234 0.9781 0.0000
0.1917 0.9770 0.0000
0.2601 0.9759 0.0000
0.3285 0.9748 0.0000
0.3968 0.9737 0.0000
0.4652 0.9727 0.0000
0.5336 0.9716 0.0000
0.6019 0.9705 0.0000
0.6703 0.9694 0.0000
0.7386 0.9683 0.0000
0.8070 0.9672 0.0000
0.8754 0.9661 0.0000
0.9437 0.9650 0.0000
1.0000 0.9639 0.0000
0.0000 1.0000 0.0000
0.0000 1.0000 0.0000
0.0513 1.0000 0.0000
0.1196 1.0000 0.0000
0.1880 1.0000 0.0000
0.2563 1.0000 0.0000
0.3247 1.0000 0.0000
0.3931 1.0000 0.0000
0.4614 1.0000 0.0000
0.5298 1.0000 0.0000
0.5982 1.0000 0.0000
0.6665 1.0000 0.0000
0.7349 1.0000 0.0000
0.8033 1.0000 0.0000
0.8716 1.0000 0.0000
0.9400 1.0000 0.0000
1.0000 1.0000 0.0000
0.0000 0.0000 0.1230
0.0426 0.0000 0.1219
0.1109 0.0000 0.1209
0.1793 0.0000 0.1198
0.2477 0.0000 0.1187
0.3160 0.0000 0.1176
0.3844 0.0000 0.1165
0.4527 0.0000 0.1154
0.5211 0.0000 0.1143
0.5895 0.0000 0.1132
0.6578 0.0000 0.1121
0.7262 0.0000 0.1110
0.7946 0.0000 0.1099
0.8629 0.0000 0.1088
0.9313 0.0000 0.1077
0.9997 0.0000 0.1066
1.0000 0.0000 0.1055
0.0000 0.0413 0.1193
0.0388 0.0402 0.1182
0.1072 0.0391 0.1171
0.1755 0.0380 0.1160
0.2439 0.0369 0.1149
0.3123 0.0359 0.1138
0.3806 0.0348 0.1127
0.4490 0.0337 0.1116
0.5174 0.0326 0.1105
0.5857 0.0315 0.1094
0.6541 0.0304 0.1083
0.7224 0.0293 0.1073
0.7908 0.0282 0.1062
0.8592 0.0271 0.1051
0.9275 0.0260 0.1040
0.9959 0.0249 0.1029
1.0000 0.0238 0.1018
0.0000 0.1084 0.1155
0.0351 0.1074 0.1144
0.1034 0.1063 0.1133
0.1718 0.1052 0.1123
0.2401 0.1041 0.1112
0.3085 0.1030 0.1101
0.3769 0.1019 0.1090
0.4452 0.1008 0.1079
0.5136 0.0997 0.1068
0.5820 0.0986 0.1057
0.6503 0.0975 0.1046
0.7187 0.0964 0.1035
0.7871 0.0953 0.1024
0.8554 0.0942 0.1013
0.9238 0.0931 0.1002
0.9921 0.0920 0.0991
1.0000 0.0909 0.0980
0.0000 0.1756 0.1118
0.0313 0.1745 0.1107
0.0997 0.1734 0.1096
0.1680 0.1723 0.1085
0.2364 0.1712 0.1074
0.3048 0.1701 0.1063
0.3731 0.1690 0.1052
0.4415 0.1679 0.1041
0.5098 0.1668 0.1030
0.5782 0.1657 0.1019
0.6466 0.1646 0.1008
0.7149 0.1635 0.0997
0.7833 0.1624 0.0987
0.8517 0.1613 0.0976
0.9200 0.1603 0.0965
0.9884 0.1592 0.0954
1.0000 0.1581 0.0943
0.0000 0.2427 0.1080
0.0275 0.2416 0.1069
0.0959 0.2405 0.1058
0.1643 0.2394 0.1047
0.2326 0.2383 0.1036
0.3010 0.2372 0.1026
0.3694 0.2361 0.1015
0.4377 0.2350 0.1004
0.5061 0.2339 0.0993
0.5745 0.2328 0.0982
0.6428 0.2317 0.0971
0.7112 0.2307 0.0960
0.7795 0.2296 0.0949
0.8479 0.2285 0.0938
0.9163 0.2274 0.0927
0.9846 0.2263 0.0916
1.0000 0.2252 0.0905
0.0000 0.3098 0.1043
0.0238 0.3087 0.1032
0.0922 0.3076 0.1021
0.1605 0.3065 0.1010
0.2289 0.3054 0.0999
0.2972 0.3043 0.0988
0.3656 0.3032 0.0977
0.4340 0.3021 0.0966
0.5023 0.3011 0.0955
0.5707 0.3000 0.0944
0.6391 0.2989 0.0933
0.7074 0.2978 0.0922
0.7758 0.2967 0.0911
0.8442 0.2956 0.0900
0.9125 0.2945 0.0890
0.9809 0.2934 0.0879
1.0000 0.2923 0.0868
0.0000 0.3769 0.1005
0.0200 0.3758 0.0994
0.0884 0.3747 0.0983
0.1568 0.3736 0.0972
0.2251 0.3725 0.0961
0.2935 0.3715 0.0950
0.3619 0.3704 0.0939
0.4302 0.3693 0.0929
0.4986 0.3682 0.0918
0.5669 0.3671 0.0907
0.6353 0.3660 0.0896
0.7037 0.3649 0.0885
0.7720 0.3638 0.0874
0.8404 0.3627 0.0863
0.9088 0.3616 0.0852
0.9771 0.3605 0.0841
1.0000 0.3594 0.0830
0.0000 0.4440 0.0968
0.0163 0.4430 0.0957
0.0846 0.4419 0.0946
0.1530 0.4408 0.0935
0.2214 0.4397 0.0924
0.2897 0.4386 0.0913
0.3581 0.4375 0.0902
0.4265 0.4364 0.0891
0.4948 0.4353 0.0880
0.5632 0.4342 0.0869
0.6316 0.4331 0.0858
0.6999 0.4320 0.0847
0.7683 0.4309 0.0836
0.8366 0.4298 0.0825
0.9050 0.4287 0.0814
0.9734 0.4276 0.0804
1.0000 0.4265 0.0793
0.0000 0.5112 0.0930
0.0125 0.5101 0.0919
0.0809 0.5090 0.0908
0.1493 0.5079 0.0897
0.2176 0.5068 0.0886
0.2860 0.5057 0.0875
0.3543 0.5046 0.0864
0.4227 0.5035 0.0853
0.4911 0.5024 0.0843
0.5594 0.5013 0.0832
0.6278 0.5002 0.0821
0.6962 0.4991 0.0810
0.7645 0.4980 0.0799
0.8329 0.4969 0.0788
0.9013 0.4959 0.0777
0.9696 0.4948 0.0766
1.0000 0.4937 0.0755
0.0000 0.5783 0.0892
0.0088 0.5772 0.0882
0.0771 0.5761 0.0871
0.1455 0.5750 0.0860
0.2139 0.5739 0.0849
0.2822 0.5728 0.0838
0.3506 0.5717 0.0827
0.4190 0.5706 0.0816
0.4873 0.5695 0.0805
0.5557 0.5684 0.0794
0.6240 0.5673 0.0783
0.6924 0.5663 0.0772
0.7608 0.5652 0.0761
0.8291 0.5641 0.0750
0.8975 0.5630 0.0739
0.9659 0.5619 0.0728
1.0000 0.5608 0.0717
0.0000 0.6454 0.0855
0.0050 0.6443 0.0844
0.0734 0.6432 0.0833
0.1417 0.6421 0.0822
0.2101 0.6410 0.0811
0.2785 0.6399 0.0800
0.3468 0.6388 0.0789
0.4152 0.6377 0.0778
0.4836 0.6367 0.0767
0.5519 0.6356 0.0756
0.6203 0.6345 0.0746
0.6887 0.6334 0.0735
0.7570 0.6323 0.0724
0.8254 0.6312 0.0713
0.8937 0.6301 0.0702
0.9621 0.6290 0.0691
1.0000 0.6279 0.0680
0.0000 0.7125 0.0817
0.0013 0.7114 0.0806
0.0696 0.7103 0.0796
0.1380 0.7092 0.0785
0.2064 0.7082 0.0774
0.2747 0.7071 0.0763
0.3431 0.7060 0.0752
0.4114 0.7049 0.0741
0.4798 0.7038 0.0730
0.5482 0.7027 0.0719
0.6165 0.7016 0.0708
0.6849 0.7005 0.0697
0.7533 0.6994 0.0686
0.8216 0.6983 0.0675
0.8900 0.6972 0.0664
0.9584 0.6961 0.0653
1.0000 0.6950 0.0642
0.0000 0.7796 0.0780
0.0000 0.7786 0.0769
0.0659 0.7775 0.0758
0.1342 0.7764 0.0747
0.2026 0.7753 0.0736
0.2710 0.7742 0.0725
0.3393 0.7731 0.0714
0.4077 0.7720 0.0703
0.4761 0.7709 0.0692
0.5444 0.7698 0.0681
0.6128 0.7687 0.0670
0.6811 0.7676 0.0660
0.7495 0.7665 0.0649
0.8179 0.7654 0.0638
0.8862 0.7643 0.0627
0.9546 0.7632 0.0616
1.0000 0.7621 0.0605
0.0000 0.8468 0.0742
0.0000 0.8457 0.0731
0.0621 0.8446 0.0720
0.1305 0.8435 0.0709
0.1988 0.8424 0.0699
0.2672 0.8413 0.0688
0.3356 0.8402 0.0677
0.4039 0.8391 0.0666
0.4723 0.8380 0.0655
0.5407 0.8369 0.0644
0.6090 0.8358 0.0633
0.6774 0.8347 0.0622
0.7458 0.8336 0.0611
0.8141 0.8325 0.0600
0.8825 0.8315 0.0589
0.9508 0.8304 0.0578
1.0000 0.8293 0.0567
0.0000 0.9139 0.0705
0.0000 0.9128 0.0694
0.0584 0.9117 0.0683
0.1267 0.9106 0.0672
0.1951 0.9095 0.0661
0.2635 0.9084 0.0650
0.3318 0.9073 0.0639
0.4002 0.9062 0.0628
0.4685 0.9051 0.0617
0.5369 0.9040 0.0606
0.6053 0.9029 0.0595
0.6736 0.9019 0.0584
0.7420 0.9008 0.0573
0.8104 0.8997 0.0563
0.8787 0.8986 0.0552
0.9471 0.8975 0.0541
1.0000 0.8964 0.0530
0.0000 0.9810 0.0667
0.0000 0.9799 0.0656
0.0546 0.9788 0.0645
0.1230 0.9777 0.0634
0.1913 0.9766 0.0623
0.2597 0.9755 0.0613
0.3281 0.9744 0.0602
0.3964 0.9734 0.0591
0.4648 0.9723 0.0580
0.5332 0.9712 0.0569
0.6015 0.9701 0.0558
0.6699 0.9690 0.0547
0.7382 0.9679 0.0536
0.8066 0.9668 0.0525
0.8750 0.9657 0.0514
0.9433 0.9646 0.0503
1.0000 0.9635 0.0492
0.0000 1.0000 0.0630
0.0000 1.0000 0.0619
0.0509 1.0000 0.0608
0.1192 1.0000 0.0597
0.1876 1.0000 0.0586
0.2559 1.0000 0.0575
0.3243 1.0000 0.0564
0.3927 1.0000 0.0553
0.4610 1.0000 0.0542
0.5294 1.0000 0.0531
0.5978 1.0000 0.0520
0.6661 1.0000 0.0509
0.7345 1.0000 0.0498
0.8029 1.0000 0.0487
0.8712 1.0000 0.0477
0.9396 1.0000 0.0466
1.0000 1.0000 0.0455
0.0000 0.0000 0.1971
0.0422 0.0000 0.1960
0.1105 0.0000 0.1949
0.1789 0.0000 0.1938
0.2473 0.0000 0.1927
0.3156 0.0000 0.1916
0.3840 0.0000 0.1905
0.4524 0.0000 0.1894
0.5207 0.0000 0.1883
0.5891 0.0000 0.1872
0.6574 0.0000 0.1861
0.7258 0.0000 0.1850
0.7942 0.0000 0.1839
0.8625 0.0000 0.1828
0.9309 0.0000 0.1817
0.9993 0.0000 0.1807
1.0000 0.0000 0.1796
0.0000 0.0409 0.1933
0.0384 0.0398 0.1922
0.1068 0.0387 0.1911
0.1751 0.0376 0.1900
0.2435 0.0366 0.1889
0.3119 0.0355 0.1878
0.3802 0.0344 0.1867
0.4486 0.0333 0.1857
0.5170 0.0322 0.1846
0.5853 0.0311 0.1835
0.6537 0.0300 0.1824
0.7221 0.0289 0.1813
0.7904 0.0278 0.1802
0.8588 0.0267 0.1791
0.9271 0.0256 0.1780
0.9955 0.0245 0.1769
