public/luts/cool.cube
# edite look: Cool (CC0)
TITLE "Cool"
LUT_3D_SIZE 9
DOMAIN_MIN 0.0 0.0 0.0
DOMAIN_MAX 1.0 1.0 1.0
0.0000 0.0000 0.0000
0.1117 0.0000 0.0000
0.2485 0.0000 0.0000
0.3852 0.0000 0.0000
0.5219 0.0000 0.0000
0.6586 0.0000 0.0000
0.7954 0.0000 0.0000
0.9321 0.0000 0.0000
1.0000 0.0000 0.0000
0.0000 0.1092 0.0000
0.1042 0.1071 0.0000
0.2409 0.1049 0.0000
0.3777 0.1027 0.0000
0.5144 0.1005 0.0000
0.6511 0.0983 0.0000
0.7879 0.0961 0.0000
0.9246 0.0939 0.0000
1.0000 0.0917 0.0000
0.0000 0.2435 0.0000
0.0967 0.2413 0.0000
0.2334 0.2391 0.0000
0.3702 0.2369 0.0000
0.5069 0.2347 0.0000
0.6436 0.2325 0.0000
0.7803 0.2304 0.0000
0.9171 0.2282 0.0000
1.0000 0.2260 0.0000
0.0000 0.3777 0.0000
0.0892 0.3755 0.0000
0.2259 0.3733 0.0000
0.3627 0.3712 0.0000
0.4994 0.3690 0.0000
0.6361 0.3668 0.0000
0.7728 0.3646 0.0000
0.9096 0.3624 0.0000
1.0000 0.3602 0.0000
0.0000 0.5120 0.0000
0.0817 0.5098 0.0000
0.2184 0.5076 0.0000
0.3551 0.5054 0.0000
0.4919 0.5032 0.0000
0.6286 0.5010 0.0000
0.7653 0.4988 0.0000
0.9021 0.4966 0.0000
1.0000 0.4945 0.0000
0.0000 0.6462 0.0000
0.0742 0.6440 0.0000
0.2109 0.6418 0.0000
0.3476 0.6396 0.0000
0.4844 0.6375 0.0000
0.6211 0.6353 0.0000
0.7578 0.6331 0.0000
0.8945 0.6309 0.0000
1.0000 0.6287 0.0000
0.0000 0.7804 0.0000
0.0667 0.7783 0.0000
0.2034 0.7761 0.0000
0.3401 0.7739 0.0000
0.4769 0.7717 0.0000
0.6136 0.7695 0.0000
0.7503 0.7673 0.0000
0.8870 0.7651 0.0000
1.0000 0.7629 0.0000
0.0000 0.9147 0.0000
0.0592 0.9125 0.0000
0.1959 0.9103 0.0000
0.3326 0.9081 0.0000
0.4693 0.9059 0.0000
0.6061 0.9037 0.0000
0.7428 0.9016 0.0000
0.8795 0.8994 0.0000
1.0000 0.8972 0.0000
0.0000 1.0000 0.0000
0.0517 1.0000 0.0000
0.1884 1.0000 0.0000
0.3251 1.0000 0.0000
0.4618 1.0000 0.0000
0.5986 1.0000 0.0000
0.7353 1.0000 0.0000
0.8720 1.0000 0.0000
1.0000 1.0000 0.0000
0.0000 0.0000 0.1230
0.1109 0.0000 0.1209
0.2477 0.0000 0.1187
0.3844 0.0000 0.1165
0.5211 0.0000 0.1143
0.6578 0.0000 0.1121
0.7946 0.0000 0.1099
0.9313 0.0000 0.1077
1.0000 0.0000 0.1055
0.0000 0.1084 0.1155
0.1034 0.1063 0.1133
0.2401 0.1041 0.1112
0.3769 0.1019 0.1090
0.5136 0.0997 0.1068
0.6503 0.0975 0.1046
0.7871 0.0953 0.1024
0.9238 0.0931 0.1002
1.0000 0.0909 0.0980
0.0000 0.2427 0.1080
0.0959 0.2405 0.1058
0.2326 0.2383 0.1036
0.3694 0.2361 0.1015
0.5061 0.2339 0.0993
0.6428 0.2317 0.0971
0.7795 0.2296 0.0949
0.9163 0.2274 0.0927
1.0000 0.2252 0.0905
0.0000 0.3769 0.1005
0.0884 0.3747 0.0983
0.2251 0.3725 0.0961
0.3619 0.3704 0.0939
0.4986 0.3682 0.0918
0.6353 0.3660 0.0896
0.7720 0.3638 0.0874
0.9088 0.3616 0.0852
1.0000 0.3594 0.0830
0.0000 0.5112 0.0930
0.0809 0.5090 0.0908
0.2176 0.5068 0.0886
0.3543 0.5046 0.0864
0.4911 0.5024 0.0843
0.6278 0.5002 0.0821
0.7645 0.4980 0.0799
0.9013 0.4959 0.0777
1.0000 0.4937 0.0755
0.0000 0.6454 0.0855
0.0734 0.6432 0.0833
0.2101 0.6410 0.0811
0.3468 0.6388 0.0789
0.4836 0.6367 0.0767
0.6203 0.6345 0.0746
0.7570 0.6323 0.0724
0.8937 0.6301 0.0702
1.0000 0.6279 0.0680
0.0000 0.7796 0.0780
0.0659 0.7775 0.0758
0.2026 0.7753 0.0736
0.3393 0.7731 0.0714
0.4761 0.7709 0.0692
0.6128 0.7687 0.0670
0.7495 0.7665 0.0649
0.8862 0.7643 0.0627
1.0000 0.7621 0.0605
0.0000 0.9139 0.0705
0.0584 0.9117 0.0683
0.1951 0.9095 0.0661
0.3318 0.9073 0.0639
0.4685 0.9051 0.0617
0.6053 0.9029 0.0595
0.7420 0.9008 0.0573
0.8787 0.8986 0.0552
1.0000 0.8964 0.0530
0.0000 1.0000 0.0630
0.0509 1.0000 0.0608
0.1876 1.0000 0.0586
0.3243 1.0000 0.0564
0.4610 1.0000 0.0542
0.5978 1.0000 0.0520
0.7345 1.0000 0.0498
0.8712 1.0000 0.0477
1.0000 1.0000 0.0455
0.0000 0.0000 0.2711
0.1101 0.0000 0.2689
0.2469 0.0000 0.2667
0.3836 0.0000 0.2645
0.5203 0.0000 0.2623
0.6570 0.0000 0.2601
0.7938 0.0000 0.2580
0.9305 0.0000 0.2558
1.0000 0.0000 0.2536
0.0000 0.1076 0.2636
0.1026 0.1055 0.2614
0.2394 0.1033 0.2592
0.3761 0.1011 0.2570
0.5128 0.0989 0.2548
0.6495 0.0967 0.2526
0.7863 0.0945 0.2504
0.9230 0.0923 0.2483
1.0000 0.0901 0.2461
0.0000 0.2419 0.2561
0.0951 0.2397 0.2539
0.2318 0.2375 0.2517
0.3686 0.2353 0.2495
0.5053 0.2331 0.2473
0.6420 0.2310 0.2451
0.7788 0.2288 0.2429
0.9155 0.2266 0.2408
1.0000 0.2244 0.2386
0.0000 0.3761 0.2486
0.0876 0.3739 0.2464
0.2243 0.3718 0.2442
0.3611 0.3696 0.2420
0.4978 0.3674 0.2398
0.6345 0.3652 0.2376
0.7712 0.3630 0.2354
0.9080 0.3608 0.2332
1.0000 0.3586 0.2311
0.0000 0.5104 0.2410
0.0801 0.5082 0.2389
0.2168 0.5060 0.2367
0.3536 0.5038 0.2345
0.4903 0.5016 0.2323
0.6270 0.4994 0.2301
0.7637 0.4972 0.2279
0.9005 0.4951 0.2257
1.0000 0.4929 0.2235
0.0000 0.6446 0.2335
0.0726 0.6424 0.2313
0.2093 0.6402 0.2292
0.3460 0.6380 0.2270
0.4828 0.6359 0.2248
0.6195 0.6337 0.2226
0.7562 0.6315 0.2204
0.8930 0.6293 0.2182
1.0000 0.6271 0.2160
0.0000 0.7789 0.2260
0.0651 0.7767 0.2238
0.2018 0.7745 0.2217
0.3385 0.7723 0.2195
0.4753 0.7701 0.2173
0.6120 0.7679 0.2151
0.7487 0.7657 0.2129
0.8854 0.7635 0.2107
1.0000 0.7613 0.2085
0.0000 0.9131 0.2185
0.0576 0.9109 0.2163
0.1943 0.9087 0.2141
0.3310 0.9065 0.2120
0.4678 0.9043 0.2098
0.6045 0.9022 0.2076
0.7412 0.9000 0.2054
0.8779 0.8978 0.2032
1.0000 0.8956 0.2010
0.0000 1.0000 0.2110
0.0501 1.0000 0.2088
0.1868 1.0000 0.2066
0.3235 1.0000 0.2044
0.4602 1.0000 0.2023
0.5970 1.0000 0.2001
0.7337 1.0000 0.1979
0.8704 1.0000 0.1957
1.0000 1.0000 0.1935
0.0000 0.0000 0.4191
0.1093 0.0000 0.4169
0.2461 0.0000 0.4147
0.3828 0.0000 0.4126
0.5195 0.0000 0.4104
0.6562 0.0000 0.4082
0.7930 0.0000 0.4060
0.9297 0.0000 0.4038
1.0000 0.0000 0.4016
0.0000 0.1069 0.4116
0.1018 0.1047 0.4094
0.2386 0.1025 0.4072
0.3753 0.1003 0.4051
0.5120 0.0981 0.4029
0.6487 0.0959 0.4007
0.7855 0.0937 0.3985
0.9222 0.0915 0.3963
1.0000 0.0894 0.3941
0.0000 0.2411 0.4041
0.0943 0.2389 0.4019
0.2310 0.2367 0.3997
0.3678 0.2345 0.3975
0.5045 0.2323 0.3954
0.6412 0.2302 0.3932
0.7780 0.2280 0.3910
0.9147 0.2258 0.3888
1.0000 0.2236 0.3866
0.0000 0.3753 0.3966
0.0868 0.3731 0.3944
0.2235 0.3710 0.3922
0.3603 0.3688 0.3900
0.4970 0.3666 0.3878
0.6337 0.3644 0.3857
0.7704 0.3622 0.3835
0.9072 0.3600 0.3813
1.0000 0.3578 0.3791
0.0000 0.5096 0.3891
0.0793 0.5074 0.3869
0.2160 0.5052 0.3847
0.3528 0.5030 0.3825
0.4895 0.5008 0.3803
0.6262 0.4986 0.3781
0.7629 0.4964 0.3760
0.8997 0.4943 0.3738
1.0000 0.4921 0.3716
0.0000 0.6438 0.3816
0.0718 0.6416 0.3794
0.2085 0.6394 0.3772
0.3452 0.6373 0.3750
0.4820 0.6351 0.3728
0.6187 0.6329 0.3706
0.7554 0.6307 0.3685
0.8922 0.6285 0.3663
1.0000 0.6263 0.3641
0.0000 0.7781 0.3741
0.0643 0.7759 0.3719
0.2010 0.7737 0.3697
0.3377 0.7715 0.3675
0.4745 0.7693 0.3653
0.6112 0.7671 0.3631
0.7479 0.7649 0.3609
0.8846 0.7627 0.3588
1.0000 0.7606 0.3566
0.0000 0.9123 0.3666
0.0568 0.9101 0.3644
0.1935 0.9079 0.3622
0.3302 0.9057 0.3600
0.4670 0.9035 0.3578
0.6037 0.9014 0.3556
0.7404 0.8992 0.3534
0.8771 0.8970 0.3512
1.0000 0.8948 0.3491
0.0000 1.0000 0.3590
0.0493 1.0000 0.3569
0.1860 1.0000 0.3547
0.3227 1.0000 0.3525
0.4594 1.0000 0.3503
0.5962 1.0000 0.3481
0.7329 1.0000 0.3459
0.8696 1.0000 0.3437
1.0000 1.0000 0.3415
0.0000 0.0000 0.5672
0.1085 0.0000 0.5650
0.2453 0.0000 0.5628
0.3820 0.0000 0.5606
0.5187 0.0000 0.5584
0.6555 0.0000 0.5562
0.7922 0.0000 0.5540
0.9289 0.0000 0.5519
1.0000 0.0000 0.5497
0.0000 0.1061 0.5597
0.1010 0.1039 0.5575
0.2378 0.1017 0.5553
0.3745 0.0995 0.5531
0.5112 0.0973 0.5509
0.6479 0.0951 0.5487
0.7847 0.0929 0.5465
0.9214 0.0907 0.5443
1.0000 0.0886 0.5422
0.0000 0.2403 0.5521
0.0935 0.2381 0.5500
0.2303 0.2359 0.5478
0.3670 0.2337 0.5456
0.5037 0.2315 0.5434
0.6404 0.2294 0.5412
0.7772 0.2272 0.5390
0.9139 0.2250 0.5368
1.0000 0.2228 0.5346
0.0000 0.3745 0.5446
0.0860 0.3723 0.5424
0.2227 0.3702 0.5403
0.3595 0.3680 0.5381
0.4962 0.3658 0.5359
0.6329 0.3636 0.5337
0.7697 0.3614 0.5315
0.9064 0.3592 0.5293
1.0000 0.3570 0.5271
0.0000 0.5088 0.5371
0.0785 0.5066 0.5349
0.2152 0.5044 0.5328
0.3520 0.5022 0.5306
0.4887 0.5000 0.5284
0.6254 0.4978 0.5262
0.7621 0.4957 0.5240
0.8989 0.4935 0.5218
1.0000 0.4913 0.5196
0.0000 0.6430 0.5296
0.0710 0.6408 0.5274
0.2077 0.6386 0.5252
0.3445 0.6365 0.5231
0.4812 0.6343 0.5209
0.6179 0.6321 0.5187
0.7546 0.6299 0.5165
0.8914 0.6277 0.5143
1.0000 0.6255 0.5121
0.0000 0.7773 0.5221
0.0635 0.7751 0.5199
0.2002 0.7729 0.5177
0.3369 0.7707 0.5155
0.4737 0.7685 0.5134
0.6104 0.7663 0.5112
0.7471 0.7641 0.5090
0.8838 0.7619 0.5068
1.0000 0.7598 0.5046
0.0000 0.9115 0.5146
0.0560 0.9093 0.5124
0.1927 0.9071 0.5102
0.3294 0.9049 0.5080
0.4662 0.9027 0.5058
0.6029 0.9006 0.5037
0.7396 0.8984 0.5015
0.8763 0.8962 0.4993
1.0000 0.8940 0.4971
0.0000 1.0000 0.5071
0.0485 1.0000 0.5049
0.1852 1.0000 0.5027
0.3219 1.0000 0.5005
0.4586 1.0000 0.4983
0.5954 1.0000 0.4962
0.7321 1.0000 0.4940
0.8688 1.0000 0.4918
1.0000 1.0000 0.4896
0.0000 0.0000 0.7152
0.1077 0.0000 0.7130
0.2445 0.0000 0.7108
0.3812 0.0000 0.7086
0.5179 0.0000 0.7065
0.6547 0.0000 0.7043
0.7914 0.0000 0.7021
0.9281 0.0000 0.6999
1.0000 0.0000 0.6977
0.0000 0.1053 0.7077
0.1002 0.1031 0.7055
0.2370 0.1009 0.7033
0.3737 0.0987 0.7011
0.5104 0.0965 0.6989
0.6471 0.0943 0.6968
0.7839 0.0921 0.6946
0.9206 0.0899 0.6924
1.0000 0.0878 0.6902
0.0000 0.2395 0.7002
0.0927 0.2373 0.6980
0.2295 0.2351 0.6958
0.3662 0.2329 0.6936
0.5029 0.2308 0.6914
0.6396 0.2286 0.6893
0.7764 0.2264 0.6871
0.9131 0.2242 0.6849
1.0000 0.2220 0.6827
0.0000 0.3737 0.6927
0.0852 0.3716 0.6905
0.2219 0.3694 0.6883
0.3587 0.3672 0.6861
0.4954 0.3650 0.6839
0.6321 0.3628 0.6817
0.7689 0.3606 0.6796
0.9056 0.3584 0.6774
1.0000 0.3562 0.6752
0.0000 0.5080 0.6852
0.0777 0.5058 0.6830
0.2144 0.5036 0.6808
0.3512 0.5014 0.6786
0.4879 0.4992 0.6764
0.6246 0.4970 0.6742
0.7613 0.4949 0.6720
0.8981 0.4927 0.6699
1.0000 0.4905 0.6677
0.0000 0.6422 0.6777
0.0702 0.6400 0.6755
0.2069 0.6378 0.6733
0.3437 0.6357 0.6711
0.4804 0.6335 0.6689
0.6171 0.6313 0.6667
0.7538 0.6291 0.6645
0.8906 0.6269 0.6623
1.0000 0.6247 0.6602
0.0000 0.7765 0.6701
0.0627 0.7743 0.6680
0.1994 0.7721 0.6658
0.3361 0.7699 0.6636
0.4729 0.7677 0.6614
0.6096 0.7655 0.6592
0.7463 0.7633 0.6570
0.8831 0.7611 0.6548
1.0000 0.7590 0.6526
0.0000 0.9107 0.6626
0.0552 0.9085 0.6605
0.1919 0.9063 0.6583
0.3286 0.9041 0.6561
0.4654 0.9020 0.6539
0.6021 0.8998 0.6517
0.7388 0.8976 0.6495
0.8755 0.8954 0.6473
1.0000 0.8932 0.6451
0.0000 1.0000 0.6551
0.0477 1.0000 0.6529
0.1844 1.0000 0.6508
0.3211 1.0000 0.6486
0.4579 1.0000 0.6464
0.5946 1.0000 0.6442
0.7313 1.0000 0.6420
0.8680 1.0000 0.6398
1.0000 1.0000 0.6376
0.0000 0.0000 0.8632
0.1070 0.0000 0.8611
0.2437 0.0000 0.8589
0.3804 0.0000 0.8567
0.5171 0.0000 0.8545
0.6539 0.0000 0.8523
0.7906 0.0000 0.8501
0.9273 0.0000 0.8479
1.0000 0.0000 0.8457
0.0000 0.1045 0.8557
0.0994 0.1023 0.8536
0.2362 0.1001 0.8514
0.3729 0.0979 0.8492
0.5096 0.0957 0.8470
0.6464 0.0935 0.8448
0.7831 0.0913 0.8426
0.9198 0.0892 0.8404
1.0000 0.0870 0.8382
0.0000 0.2387 0.8482
0.0919 0.2365 0.8460
0.2287 0.2343 0.8439
0.3654 0.2321 0.8417
0.5021 0.2300 0.8395
0.6388 0.2278 0.8373
0.7756 0.2256 0.8351
0.9123 0.2234 0.8329
1.0000 0.2212 0.8307
0.0000 0.3729 0.8407
0.0844 0.3708 0.8385
0.2211 0.3686 0.8363
0.3579 0.3664 0.8342
0.4946 0.3642 0.8320
0.6313 0.3620 0.8298
0.7681 0.3598 0.8276
0.9048 0.3576 0.8254
1.0000 0.3554 0.8232
0.0000 0.5072 0.8332
0.0769 0.5050 0.8310
0.2136 0.5028 0.8288
0.3504 0.5006 0.8266
0.4871 0.4984 0.8245
0.6238 0.4962 0.8223
0.7605 0.4941 0.8201
0.8973 0.4919 0.8179
1.0000 0.4897 0.8157
0.0000 0.6414 0.8257
0.0694 0.6392 0.8235
0.2061 0.6371 0.8213
0.3429 0.6349 0.8191
0.4796 0.6327 0.8170
0.6163 0.6305 0.8148
0.7530 0.6283 0.8126
0.8898 0.6261 0.8104
1.0000 0.6239 0.8082
0.0000 0.7757 0.8182
0.0619 0.7735 0.8160
0.1986 0.7713 0.8138
0.3353 0.7691 0.8116
0.4721 0.7669 0.8094
0.6088 0.7647 0.8073
0.7455 0.7625 0.8051
0.8823 0.7604 0.8029
1.0000 0.7582 0.8007
0.0000 0.9099 0.8107
0.0544 0.9077 0.8085
0.1911 0.9055 0.8063
0.3278 0.9033 0.8041
0.4646 0.9012 0.8019
0.6013 0.8990 0.7997
0.7380 0.8968 0.7976
0.8747 0.8946 0.7954
1.0000 0.8924 0.7932
0.0000 1.0000 0.8032
0.0469 1.0000 0.8010
0.1836 1.0000 0.7988
0.3203 1.0000 0.7966
0.4571 1.0000 0.7944
0.5938 1.0000 0.7922
0.7305 1.0000 0.7900
0.8672 1.0000 0.7879
1.0000 1.0000 0.7857
0.0000 0.0000 1.0000
0.1062 0.0000 1.0000
0.2429 0.0000 1.0000
0.3796 0.0000 1.0000
0.5163 0.0000 1.0000
0.6531 0.0000 1.0000
0.7898 0.0000 0.9982
0.9265 0.0000 0.9960
1.0000 0.0000 0.9938
0.0000 0.1037 1.0000
0.0986 0.1015 1.0000
0.2354 0.0993 0.9994
0.3721 0.0971 0.9972
0.5088 0.0949 0.9950
0.6456 0.0927 0.9928
0.7823 0.0905 0.9907
0.9190 0.0884 0.9885
1.0000 0.0862 0.9863
0.0000 0.2379 0.9963
0.0911 0.2357 0.9941
0.2279 0.2335 0.9919
0.3646 0.2313 0.9897
0.5013 0.2292 0.9875
0.6380 0.2270 0.9853
0.7748 0.2248 0.9831
0.9115 0.2226 0.9810
1.0000 0.2204 0.9788
0.0000 0.3721 0.9888
0.0836 0.3700 0.9866
0.2204 0.3678 0.9844
0.3571 0.3656 0.9822
0.4938 0.3634 0.9800
0.6305 0.3612 0.9778
0.7673 0.3590 0.9756
0.9040 0.3568 0.9734
1.0000 0.3546 0.9713
0.0000 0.5064 0.9813
0.0761 0.5042 0.9791
0.2128 0.5020 0.9769
0.3496 0.4998 0.9747
0.4863 0.4976 0.9725
0.6230 0.4955 0.9703
0.7598 0.4933 0.9681
0.8965 0.4911 0.9659
1.0000 0.4889 0.9638
0.0000 0.6406 0.9737
0.0686 0.6384 0.9716
0.2053 0.6363 0.9694
0.3421 0.6341 0.9672
0.4788 0.6319 0.9650
0.6155 0.6297 0.9628
0.7522 0.6275 0.9606
0.8890 0.6253 0.9584
1.0000 0.6231 0.9562
0.0000 0.7749 0.9662
0.0611 0.7727 0.9640
0.1978 0.7705 0.9619
0.3346 0.7683 0.9597
0.4713 0.7661 0.9575
0.6080 0.7639 0.9553
0.7447 0.7617 0.9531
0.8815 0.7596 0.9509
1.0000 0.7574 0.9487
0.0000 0.9091 0.9587
0.0536 0.9069 0.9565
0.1903 0.9047 0.9543
0.3270 0.9025 0.9522
0.4638 0.9004 0.9500
0.6005 0.8982 0.9478
0.7372 0.8960 0.9456
0.8740 0.8938 0.9434
1.0000 0.8916 0.9412
0.0000 1.0000 0.9512
0.0461 1.0000 0.9490
0.1828 1.0000 0.9468
0.3195 1.0000 0.9447
0.4563 1.0000 0.9425
0.5930 1.0000 0.9403
0.7297 1.0000 0.9381
0.8664 1.0000 0.9359
1.0000 1.0000 0.9337
0.0000 0.0000 1.0000
0.1054 0.0000 1.0000
0.2421 0.0000 1.0000
0.3788 0.0000 1.0000
0.5155 0.0000 1.0000
0.6523 0.0000 1.0000
0.7890 0.0000 1.0000
0.9257 0.0000 1.0000
1.0000 0.0000 1.0000
0.0000 0.1029 1.0000
0.0978 0.1007 1.0000
0.2346 0.0985 1.0000
0.3713 0.0963 1.0000
0.5080 0.0941 1.0000
0.6448 0.0919 1.0000
0.7815 0.0897 1.0000
0.9182 0.0876 1.0000
1.0000 0.0854 1.0000
0.0000 0.2371 1.0000
0.0903 0.2349 1.0000
0.2271 0.2327 1.0000
0.3638 0.2305 1.0000
0.5005 0.2284 1.0000
0.6372 0.2262 1.0000
0.7740 0.2240 1.0000
0.9107 0.2218 1.0000
1.0000 0.2196 1.0000
0.0000 0.3714 1.0000
0.0828 0.3692 1.0000
0.2196 0.3670 1.0000
0.3563 0.3648 1.0000
0.4930 0.3626 1.0000
0.6297 0.3604 1.0000
0.7665 0.3582 1.0000
0.9032 0.3560 1.0000
1.0000 0.3539 1.0000
0.0000 0.5056 1.0000
0.0753 0.5034 1.0000
0.2120 0.5012 1.0000
0.3488 0.4990 1.0000
0.4855 0.4968 1.0000
0.6222 0.4947 1.0000
0.7590 0.4925 1.0000
0.8957 0.4903 1.0000
1.0000 0.4881 1.0000
0.0000 0.6398 1.0000
0.0678 0.6376 1.0000
0.2045 0.6355 1.0000
0.3413 0.6333 1.0000
0.4780 0.6311 1.0000
0.6147 0.6289 1.0000
0.7514 0.6267 1.0000
0.8882 0.6245 1.0000
1.0000 0.6223 1.0000
0.0000 0.7741 1.0000
0.0603 0.7719 1.0000
0.1970 0.7697 1.0000
0.3338 0.7675 1.0000
0.4705 0.7653 1.0000
0.6072 0.7631 1.0000
0.7439 0.7609 1.0000
0.8807 0.7588 1.0000
1.0000 0.7566 1.0000
0.0000 0.9083 1.0000
0.0528 0.9061 1.0000
0.1895 0.9039 1.0000
0.3262 0.9018 1.0000
0.4630 0.8996 1.0000
0.5997 0.8974 1.0000
0.7364 0.8952 1.0000
0.8732 0.8930 1.0000
1.0000 0.8908 1.0000
0.0000 1.0000 1.0000
0.0453 1.0000 1.0000
0.1820 1.0000 1.0000
0.3187 1.0000 1.0000
0.4555 1.0000 1.0000
0.5922 1.0000 1.0000
0.7289 1.0000 1.0000
0.8656 1.0000 1.0000
1.0000 1.0000 1.0000
