public/luts/cool.cube
# edite look: Cool (CC0)
TITLE "Cool"
LUT_3D_SIZE 5
DOMAIN_MIN 0.0 0.0 0.0
DOMAIN_MAX 1.0 1.0 1.0
0.0000 0.0000 0.0000
0.2485 0.0000 0.0000
0.5219 0.0000 0.0000
0.7954 0.0000 0.0000
1.0000 0.0000 0.0000
0.0000 0.2435 0.0000
0.2334 0.2391 0.0000
0.5069 0.2347 0.0000
0.7803 0.2304 0.0000
1.0000 0.2260 0.0000
0.0000 0.5120 0.0000
0.2184 0.5076 0.0000
0.4919 0.5032 0.0000
0.7653 0.4988 0.0000
1.0000 0.4945 0.0000
0.0000 0.7804 0.0000
0.2034 0.7761 0.0000
0.4769 0.7717 0.0000
0.7503 0.7673 0.0000
1.0000 0.7629 0.0000
0.0000 1.0000 0.0000
0.1884 1.0000 0.0000
0.4618 1.0000 0.0000
0.7353 1.0000 0.0000
1.0000 1.0000 0.0000
0.0000 0.0000 0.2711
0.2469 0.0000 0.2667
0.5203 0.0000 0.2623
0.7938 0.0000 0.2580
1.0000 0.0000 0.2536
0.0000 0.2419 0.2561
0.2318 0.2375 0.2517
0.5053 0.2331 0.2473
0.7788 0.2288 0.2429
1.0000 0.2244 0.2386
0.0000 0.5104 0.2410
0.2168 0.5060 0.2367
0.4903 0.5016 0.2323
0.7637 0.4972 0.2279
1.0000 0.4929 0.2235
0.0000 0.7789 0.2260
0.2018 0.7745 0.2217
0.4753 0.7701 0.2173
0.7487 0.7657 0.2129
1.0000 0.7613 0.2085
0.0000 1.0000 0.2110
0.1868 1.0000 0.2066
0.4602 1.0000 0.2023
0.7337 1.0000 0.1979
1.0000 1.0000 0.1935
0.0000 0.0000 0.5672
0.2453 0.0000 0.5628
0.5187 0.0000 0.5584
0.7922 0.0000 0.5540
1.0000 0.0000 0.5497
0.0000 0.2403 0.5521
0.2303 0.2359 0.5478
0.5037 0.2315 0.5434
0.7772 0.2272 0.5390
1.0000 0.2228 0.5346
0.0000 0.5088 0.5371
0.2152 0.5044 0.5328
0.4887 0.5000 0.5284
0.7621 0.4957 0.5240
1.0000 0.4913 0.5196
0.0000 0.7773 0.5221
0.2002 0.7729 0.5177
0.4737 0.7685 0.5134
0.7471 0.7641 0.5090
1.0000 0.7598 0.5046
0.0000 1.0000 0.5071
0.1852 1.0000 0.5027
0.4586 1.0000 0.4983
0.7321 1.0000 0.4940
1.0000 1.0000 0.4896
0.0000 0.0000 0.8632
0.2437 0.0000 0.8589
0.5171 0.0000 0.8545
0.7906 0.0000 0.8501
1.0000 0.0000 0.8457
0.0000 0.2387 0.8482
0.2287 0.2343 0.8439
0.5021 0.2300 0.8395
0.7756 0.2256 0.8351
1.0000 0.2212 0.8307
0.0000 0.5072 0.8332
0.2136 0.5028 0.8288
0.4871 0.4984 0.8245
0.7605 0.4941 0.8201
1.0000 0.4897 0.8157
0.0000 0.7757 0.8182
0.1986 0.7713 0.8138
0.4721 0.7669 0.8094
0.7455 0.7625 0.8051
1.0000 0.7582 0.8007
0.0000 1.0000 0.8032
0.1836 1.0000 0.7988
0.4571 1.0000 0.7944
0.7305 1.0000 0.7900
1.0000 1.0000 0.7857
0.0000 0.0000 1.0000
0.2421 0.0000 1.0000
0.5155 0.0000 1.0000
0.7890 0.0000 1.0000
1.0000 0.0000 1.0000
0.0000 0.2371 1.0000
0.2271 0.2327 1.0000
0.5005 0.2284 1.0000
0.7740 0.2240 1.0000
1.0000 0.2196 1.0000
0.0000 0.5056 1.0000
0.2120 0.5012 1.0000
0.4855 0.4968 1.0000
0.7590 0.4925 1.0000
1.0000 0.4881 1.0000
0.0000 0.7741 1.0000
0.1970 0.7697 1.0000
0.4705 0.7653 1.0000
0.7439 0.7609 1.0000
1.0000 0.7566 1.0000
0.0000 1.0000 1.0000
0.1820 1.0000 1.0000
0.4555 1.0000 1.0000
0.7289 1.0000 1.0000
1.0000 1.0000 1.0000
