public/luts/fresh.cube
# edite look: Fresh (CC0)
TITLE "Fresh"
LUT_3D_SIZE 17
DOMAIN_MIN 0.0 0.0 0.0
DOMAIN_MAX 1.0 1.0 1.0
0.0000 0.0000 0.0000
0.0346 0.0000 0.0000
0.1092 0.0000 0.0000
0.1839 0.0000 0.0000
0.2585 0.0000 0.0000
0.3331 0.0000 0.0000
0.4077 0.0000 0.0000
0.4823 0.0000 0.0000
0.5569 0.0000 0.0000
0.6316 0.0000 0.0000
0.7062 0.0000 0.0000
0.7808 0.0000 0.0000
0.8554 0.0000 0.0000
0.9300 0.0000 0.0000
1.0000 0.0000 0.0000
1.0000 0.0000 0.0000
1.0000 0.0000 0.0000
0.0000 0.0319 0.0000
0.0286 0.0302 0.0000
0.1033 0.0284 0.0000
0.1779 0.0267 0.0000
0.2525 0.0249 0.0000
0.3271 0.0232 0.0000
0.4017 0.0215 0.0000
0.4764 0.0197 0.0000
0.5510 0.0180 0.0000
0.6256 0.0162 0.0000
0.7002 0.0145 0.0000
0.7748 0.0128 0.0000
0.8494 0.0110 0.0000
0.9241 0.0093 0.0000
0.9987 0.0076 0.0000
1.0000 0.0058 0.0000
1.0000 0.0041 0.0000
0.0000 0.1038 0.0000
0.0227 0.1021 0.0000
0.0973 0.1003 0.0000
0.1719 0.0986 0.0000
0.2465 0.0968 0.0000
0.3211 0.0951 0.0000
0.3958 0.0934 0.0000
0.4704 0.0916 0.0000
0.5450 0.0899 0.0000
0.6196 0.0881 0.0000
0.6942 0.0864 0.0000
0.7689 0.0847 0.0000
0.8435 0.0829 0.0000
0.9181 0.0812 0.0000
0.9927 0.0795 0.0000
1.0000 0.0777 0.0000
1.0000 0.0760 0.0000
0.0000 0.1757 0.0000
0.0167 0.1740 0.0000
0.0913 0.1722 0.0000
0.1659 0.1705 0.0000
0.2406 0.1687 0.0000
0.3152 0.1670 0.0000
0.3898 0.1653 0.0000
0.4644 0.1635 0.0000
0.5390 0.1618 0.0000
0.6136 0.1600 0.0000
0.6883 0.1583 0.0000
0.7629 0.1566 0.0000
0.8375 0.1548 0.0000
0.9121 0.1531 0.0000
0.9867 0.1514 0.0000
1.0000 0.1496 0.0000
1.0000 0.1479 0.0000
0.0000 0.2476 0.0000
0.0107 0.2459 0.0000
0.0854 0.2441 0.0000
0.1600 0.2424 0.0000
0.2346 0.2406 0.0000
0.3092 0.2389 0.0000
0.3838 0.2372 0.0000
0.4584 0.2354 0.0000
0.5331 0.2337 0.0000
0.6077 0.2320 0.0000
0.6823 0.2302 0.0000
0.7569 0.2285 0.0000
0.8315 0.2267 0.0000
0.9061 0.2250 0.0000
0.9808 0.2233 0.0000
1.0000 0.2215 0.0000
1.0000 0.2198 0.0000
0.0000 0.3195 0.0000
0.0048 0.3178 0.0000
0.0794 0.3160 0.0000
0.1540 0.3143 0.0000
0.2286 0.3125 0.0000
0.3032 0.3108 0.0000
0.3779 0.3091 0.0000
0.4525 0.3073 0.0000
0.5271 0.3056 0.0000
0.6017 0.3039 0.0000
0.6763 0.3021 0.0000
0.7509 0.3004 0.0000
0.8256 0.2986 0.0000
0.9002 0.2969 0.0000
0.9748 0.2952 0.0000
1.0000 0.2934 0.0000
1.0000 0.2917 0.0000
0.0000 0.3914 0.0000
0.0000 0.3897 0.0000
0.0734 0.3879 0.0000
0.1480 0.3862 0.0000
0.2227 0.3844 0.0000
0.2973 0.3827 0.0000
0.3719 0.3810 0.0000
0.4465 0.3792 0.0000
0.5211 0.3775 0.0000
0.5957 0.3758 0.0000
0.6704 0.3740 0.0000
0.7450 0.3723 0.0000
0.8196 0.3705 0.0000
0.8942 0.3688 0.0000
0.9688 0.3671 0.0000
1.0000 0.3653 0.0000
1.0000 0.3636 0.0000
0.0000 0.4633 0.0000
0.0000 0.4616 0.0000
0.0675 0.4598 0.0000
0.1421 0.4581 0.0000
0.2167 0.4564 0.0000
0.2913 0.4546 0.0000
0.3659 0.4529 0.0000
0.4405 0.4511 0.0000
0.5152 0.4494 0.0000
0.5898 0.4477 0.0000
0.6644 0.4459 0.0000
0.7390 0.4442 0.0000
0.8136 0.4424 0.0000
0.8882 0.4407 0.0000
0.9629 0.4390 0.0000
1.0000 0.4372 0.0000
1.0000 0.4355 0.0000
0.0000 0.5352 0.0000
0.0000 0.5335 0.0000
0.0615 0.5317 0.0000
0.1361 0.5300 0.0000
0.2107 0.5283 0.0000
0.2853 0.5265 0.0000
0.3600 0.5248 0.0000
0.4346 0.5230 0.0000
0.5092 0.5213 0.0000
0.5838 0.5196 0.0000
0.6584 0.5178 0.0000
0.7330 0.5161 0.0000
0.8077 0.5143 0.0000
0.8823 0.5126 0.0000
0.9569 0.5109 0.0000
1.0000 0.5091 0.0000
1.0000 0.5074 0.0000
0.0000 0.6071 0.0000
0.0000 0.6054 0.0000
0.0555 0.6036 0.0000
0.1301 0.6019 0.0000
0.2048 0.6002 0.0000
0.2794 0.5984 0.0000
0.3540 0.5967 0.0000
0.4286 0.5949 0.0000
0.5032 0.5932 0.0000
0.5778 0.5915 0.0000
0.6525 0.5897 0.0000
0.7271 0.5880 0.0000
0.8017 0.5862 0.0000
0.8763 0.5845 0.0000
0.9509 0.5828 0.0000
1.0000 0.5810 0.0000
1.0000 0.5793 0.0000
0.0000 0.6790 0.0000
0.0000 0.6773 0.0000
0.0496 0.6755 0.0000
0.1242 0.6738 0.0000
0.1988 0.6721 0.0000
0.2734 0.6703 0.0000
0.3480 0.6686 0.0000
0.4226 0.6668 0.0000
0.4973 0.6651 0.0000
0.5719 0.6634 0.0000
0.6465 0.6616 0.0000
0.7211 0.6599 0.0000
0.7957 0.6581 0.0000
0.8703 0.6564 0.0000
0.9450 0.6547 0.0000
1.0000 0.6529 0.0000
1.0000 0.6512 0.0000
0.0000 0.7509 0.0000
0.0000 0.7492 0.0000
0.0436 0.7474 0.0000
0.1182 0.7457 0.0000
0.1928 0.7440 0.0000
0.2674 0.7422 0.0000
0.3421 0.7405 0.0000
0.4167 0.7387 0.0000
0.4913 0.7370 0.0000
0.5659 0.7353 0.0000
0.6405 0.7335 0.0000
0.7151 0.7318 0.0000
0.7898 0.7300 0.0000
0.8644 0.7283 0.0000
0.9390 0.7266 0.0000
1.0000 0.7248 0.0000
1.0000 0.7231 0.0000
0.0000 0.8228 0.0000
0.0000 0.8211 0.0000
0.0376 0.8193 0.0000
0.1122 0.8176 0.0000
0.1869 0.8159 0.0000
0.2615 0.8141 0.0000
0.3361 0.8124 0.0000
0.4107 0.8106 0.0000
0.4853 0.8089 0.0000
0.5599 0.8072 0.0000
0.6346 0.8054 0.0000
0.7092 0.8037 0.0000
0.7838 0.8019 0.0000
0.8584 0.8002 0.0000
0.9330 0.7985 0.0000
1.0000 0.7967 0.0000
1.0000 0.7950 0.0000
0.0000 0.8947 0.0000
0.0000 0.8930 0.0000
0.0317 0.8912 0.0000
0.1063 0.8895 0.0000
0.1809 0.8878 0.0000
0.2555 0.8860 0.0000
0.3301 0.8843 0.0000
0.4047 0.8825 0.0000
0.4794 0.8808 0.0000
0.5540 0.8791 0.0000
0.6286 0.8773 0.0000
0.7032 0.8756 0.0000
0.7778 0.8738 0.0000
0.8524 0.8721 0.0000
0.9271 0.8704 0.0000
1.0000 0.8686 0.0000
1.0000 0.8669 0.0000
0.0000 0.9666 0.0000
0.0000 0.9649 0.0000
0.0257 0.9631 0.0000
0.1003 0.9614 0.0000
0.1749 0.9597 0.0000
0.2495 0.9579 0.0000
0.3242 0.9562 0.0000
0.3988 0.9544 0.0000
0.4734 0.9527 0.0000
0.5480 0.9510 0.0000
0.6226 0.9492 0.0000
0.6972 0.9475 0.0000
0.7719 0.9457 0.0000
0.8465 0.9440 0.0000
0.9211 0.9423 0.0000
0.9957 0.9405 0.0000
1.0000 0.9388 0.0000
0.0000 1.0000 0.0000
0.0000 1.0000 0.0000
0.0197 1.0000 0.0000
0.0943 1.0000 0.0000
0.1690 1.0000 0.0000
0.2436 1.0000 0.0000
0.3182 1.0000 0.0000
0.3928 1.0000 0.0000
0.4674 1.0000 0.0000
0.5420 1.0000 0.0000
0.6167 1.0000 0.0000
0.6913 1.0000 0.0000
0.7659 1.0000 0.0000
0.8405 1.0000 0.0000
0.9151 1.0000 0.0000
0.9897 1.0000 0.0000
1.0000 1.0000 0.0000
0.0000 1.0000 0.0000
0.0000 1.0000 0.0000
0.0138 1.0000 0.0000
0.0884 1.0000 0.0000
0.1630 1.0000 0.0000
0.2376 1.0000 0.0000
0.3122 1.0000 0.0000
0.3868 1.0000 0.0000
0.4615 1.0000 0.0000
0.5361 1.0000 0.0000
0.6107 1.0000 0.0000
0.6853 1.0000 0.0000
0.7599 1.0000 0.0000
0.8345 1.0000 0.0000
0.9092 1.0000 0.0000
0.9838 1.0000 0.0000
1.0000 1.0000 0.0000
0.0000 0.0000 0.0350
0.0340 0.0000 0.0333
0.1086 0.0000 0.0315
0.1833 0.0000 0.0298
0.2579 0.0000 0.0281
0.3325 0.0000 0.0263
0.4071 0.0000 0.0246
0.4817 0.0000 0.0228
0.5563 0.0000 0.0211
0.6310 0.0000 0.0194
0.7056 0.0000 0.0176
0.7802 0.0000 0.0159
0.8548 0.0000 0.0141
0.9294 0.0000 0.0124
1.0000 0.0000 0.0107
1.0000 0.0000 0.0089
1.0000 0.0000 0.0072
0.0000 0.0313 0.0290
0.0281 0.0296 0.0273
0.1027 0.0278 0.0256
0.1773 0.0261 0.0238
0.2519 0.0244 0.0221
0.3265 0.0226 0.0204
0.4011 0.0209 0.0186
0.4758 0.0191 0.0169
0.5504 0.0174 0.0151
0.6250 0.0157 0.0134
0.6996 0.0139 0.0117
0.7742 0.0122 0.0099
0.8488 0.0104 0.0082
0.9235 0.0087 0.0064
0.9981 0.0070 0.0047
1.0000 0.0052 0.0030
1.0000 0.0035 0.0012
0.0000 0.1032 0.0231
0.0221 0.1015 0.0213
0.0967 0.0997 0.0196
0.1713 0.0980 0.0179
0.2459 0.0963 0.0161
0.3206 0.0945 0.0144
0.3952 0.0928 0.0126
0.4698 0.0910 0.0109
0.5444 0.0893 0.0092
0.6190 0.0876 0.0074
0.6936 0.0858 0.0057
0.7683 0.0841 0.0039
0.8429 0.0823 0.0022
0.9175 0.0806 0.0005
0.9921 0.0789 0.0000
1.0000 0.0771 0.0000
1.0000 0.0754 0.0000
0.0000 0.1751 0.0171
0.0161 0.1734 0.0154
0.0907 0.1716 0.0136
0.1654 0.1699 0.0119
0.2400 0.1682 0.0102
0.3146 0.1664 0.0084
0.3892 0.1647 0.0067
0.4638 0.1629 0.0049
0.5384 0.1612 0.0032
0.6131 0.1595 0.0015
0.6877 0.1577 0.0000
0.7623 0.1560 0.0000
0.8369 0.1542 0.0000
0.9115 0.1525 0.0000
0.9861 0.1508 0.0000
1.0000 0.1490 0.0000
1.0000 0.1473 0.0000
0.0000 0.2470 0.0111
0.0102 0.2453 0.0094
0.0848 0.2435 0.0077
0.1594 0.2418 0.0059
0.2340 0.2401 0.0042
0.3086 0.2383 0.0025
0.3832 0.2366 0.0007
0.4579 0.2348 0.0000
0.5325 0.2331 0.0000
0.6071 0.2314 0.0000
0.6817 0.2296 0.0000
0.7563 0.2279 0.0000
0.8309 0.2261 0.0000
0.9056 0.2244 0.0000
0.9802 0.2227 0.0000
1.0000 0.2209 0.0000
1.0000 0.2192 0.0000
0.0000 0.3189 0.0052
0.0042 0.3172 0.0034
0.0788 0.3154 0.0017
0.1534 0.3137 0.0000
0.2280 0.3120 0.0000
0.3027 0.3102 0.0000
0.3773 0.3085 0.0000
0.4519 0.3067 0.0000
0.5265 0.3050 0.0000
0.6011 0.3033 0.0000
0.6757 0.3015 0.0000
0.7504 0.2998 0.0000
0.8250 0.2980 0.0000
0.8996 0.2963 0.0000
0.9742 0.2946 0.0000
1.0000 0.2928 0.0000
1.0000 0.2911 0.0000
0.0000 0.3908 0.0000
0.0000 0.3891 0.0000
0.0728 0.3873 0.0000
0.1475 0.3856 0.0000
0.2221 0.3839 0.0000
0.2967 0.3821 0.0000
0.3713 0.3804 0.0000
0.4459 0.3786 0.0000
0.5205 0.3769 0.0000
0.5952 0.3752 0.0000
0.6698 0.3734 0.0000
0.7444 0.3717 0.0000
0.8190 0.3700 0.0000
0.8936 0.3682 0.0000
0.9682 0.3665 0.0000
1.0000 0.3647 0.0000
1.0000 0.3630 0.0000
0.0000 0.4627 0.0000
0.0000 0.4610 0.0000
0.0669 0.4592 0.0000
0.1415 0.4575 0.0000
0.2161 0.4558 0.0000
0.2907 0.4540 0.0000
0.3653 0.4523 0.0000
0.4400 0.4505 0.0000
0.5146 0.4488 0.0000
0.5892 0.4471 0.0000
0.6638 0.4453 0.0000
0.7384 0.4436 0.0000
0.8130 0.4419 0.0000
0.8877 0.4401 0.0000
0.9623 0.4384 0.0000
1.0000 0.4366 0.0000
1.0000 0.4349 0.0000
0.0000 0.5346 0.0000
0.0000 0.5329 0.0000
0.0609 0.5311 0.0000
0.1355 0.5294 0.0000
0.2101 0.5277 0.0000
0.2848 0.5259 0.0000
0.3594 0.5242 0.0000
0.4340 0.5224 0.0000
0.5086 0.5207 0.0000
0.5832 0.5190 0.0000
0.6578 0.5172 0.0000
0.7325 0.5155 0.0000
0.8071 0.5138 0.0000
0.8817 0.5120 0.0000
0.9563 0.5103 0.0000
1.0000 0.5085 0.0000
1.0000 0.5068 0.0000
0.0000 0.6065 0.0000
0.0000 0.6048 0.0000
0.0549 0.6030 0.0000
0.1296 0.6013 0.0000
0.2042 0.5996 0.0000
0.2788 0.5978 0.0000
0.3534 0.5961 0.0000
0.4280 0.5943 0.0000
0.5026 0.5926 0.0000
0.5773 0.5909 0.0000
0.6519 0.5891 0.0000
0.7265 0.5874 0.0000
0.8011 0.5857 0.0000
0.8757 0.5839 0.0000
0.9503 0.5822 0.0000
1.0000 0.5804 0.0000
1.0000 0.5787 0.0000
0.0000 0.6784 0.0000
0.0000 0.6767 0.0000
0.0490 0.6749 0.0000
0.1236 0.6732 0.0000
0.1982 0.6715 0.0000
0.2728 0.6697 0.0000
0.3474 0.6680 0.0000
0.4221 0.6663 0.0000
0.4967 0.6645 0.0000
0.5713 0.6628 0.0000
0.6459 0.6610 0.0000
0.7205 0.6593 0.0000
0.7951 0.6576 0.0000
0.8698 0.6558 0.0000
0.9444 0.6541 0.0000
1.0000 0.6523 0.0000
1.0000 0.6506 0.0000
0.0000 0.7503 0.0000
0.0000 0.7486 0.0000
0.0430 0.7468 0.0000
0.1176 0.7451 0.0000
0.1922 0.7434 0.0000
0.2669 0.7416 0.0000
0.3415 0.7399 0.0000
0.4161 0.7382 0.0000
0.4907 0.7364 0.0000
0.5653 0.7347 0.0000
0.6399 0.7329 0.0000
0.7146 0.7312 0.0000
0.7892 0.7295 0.0000
0.8638 0.7277 0.0000
0.9384 0.7260 0.0000
1.0000 0.7242 0.0000
1.0000 0.7225 0.0000
0.0000 0.8222 0.0000
0.0000 0.8205 0.0000
0.0370 0.8187 0.0000
0.1117 0.8170 0.0000
0.1863 0.8153 0.0000
0.2609 0.8135 0.0000
0.3355 0.8118 0.0000
0.4101 0.8101 0.0000
0.4847 0.8083 0.0000
0.5594 0.8066 0.0000
0.6340 0.8048 0.0000
0.7086 0.8031 0.0000
0.7832 0.8014 0.0000
0.8578 0.7996 0.0000
0.9324 0.7979 0.0000
1.0000 0.7961 0.0000
1.0000 0.7944 0.0000
0.0000 0.8941 0.0000
0.0000 0.8924 0.0000
0.0311 0.8907 0.0000
0.1057 0.8889 0.0000
0.1803 0.8872 0.0000
0.2549 0.8854 0.0000
0.3295 0.8837 0.0000
0.4042 0.8820 0.0000
0.4788 0.8802 0.0000
0.5534 0.8785 0.0000
0.6280 0.8767 0.0000
0.7026 0.8750 0.0000
0.7772 0.8733 0.0000
0.8519 0.8715 0.0000
0.9265 0.8698 0.0000
1.0000 0.8680 0.0000
1.0000 0.8663 0.0000
0.0000 0.9660 0.0000
0.0000 0.9643 0.0000
0.0251 0.9626 0.0000
0.0997 0.9608 0.0000
0.1743 0.9591 0.0000
0.2490 0.9573 0.0000
0.3236 0.9556 0.0000
0.3982 0.9539 0.0000
0.4728 0.9521 0.0000
0.5474 0.9504 0.0000
0.6220 0.9486 0.0000
0.6967 0.9469 0.0000
0.7713 0.9452 0.0000
0.8459 0.9434 0.0000
0.9205 0.9417 0.0000
0.9951 0.9399 0.0000
1.0000 0.9382 0.0000
0.0000 1.0000 0.0000
0.0000 1.0000 0.0000
0.0191 1.0000 0.0000
0.0938 1.0000 0.0000
0.1684 1.0000 0.0000
0.2430 1.0000 0.0000
0.3176 1.0000 0.0000
0.3922 1.0000 0.0000
0.4668 1.0000 0.0000
0.5415 1.0000 0.0000
0.6161 1.0000 0.0000
0.6907 1.0000 0.0000
0.7653 1.0000 0.0000
0.8399 1.0000 0.0000
0.9145 1.0000 0.0000
0.9892 1.0000 0.0000
1.0000 1.0000 0.0000
0.0000 1.0000 0.0000
0.0000 1.0000 0.0000
0.0132 1.0000 0.0000
0.0878 1.0000 0.0000
0.1624 1.0000 0.0000
0.2370 1.0000 0.0000
0.3116 1.0000 0.0000
0.3863 1.0000 0.0000
0.4609 1.0000 0.0000
0.5355 1.0000 0.0000
0.6101 1.0000 0.0000
0.6847 1.0000 0.0000
0.7593 1.0000 0.0000
0.8340 1.0000 0.0000
0.9086 1.0000 0.0000
0.9832 1.0000 0.0000
1.0000 1.0000 0.0000
0.0000 0.0000 0.1100
0.0334 0.0000 0.1083
0.1081 0.0000 0.1066
0.1827 0.0000 0.1048
0.2573 0.0000 0.1031
0.3319 0.0000 0.1013
0.4065 0.0000 0.0996
0.4811 0.0000 0.0979
0.5558 0.0000 0.0961
0.6304 0.0000 0.0944
0.7050 0.0000 0.0926
0.7796 0.0000 0.0909
0.8542 0.0000 0.0892
0.9288 0.0000 0.0874
1.0000 0.0000 0.0857
1.0000 0.0000 0.0839
1.0000 0.0000 0.0822
0.0000 0.0307 0.1041
0.0275 0.0290 0.1023
0.1021 0.0273 0.1006
0.1767 0.0255 0.0988
0.2513 0.0238 0.0971
0.3259 0.0220 0.0954
0.4006 0.0203 0.0936
0.4752 0.0186 0.0919
0.5498 0.0168 0.0901
0.6244 0.0151 0.0884
0.6990 0.0133 0.0867
0.7736 0.0116 0.0849
0.8483 0.0099 0.0832
0.9229 0.0081 0.0815
0.9975 0.0064 0.0797
1.0000 0.0046 0.0780
1.0000 0.0029 0.0762
0.0000 0.1026 0.0981
0.0215 0.1009 0.0964
0.0961 0.0992 0.0946
0.1707 0.0974 0.0929
0.2454 0.0957 0.0911
0.3200 0.0939 0.0894
0.3946 0.0922 0.0877
0.4692 0.0905 0.0859
0.5438 0.0887 0.0842
0.6184 0.0870 0.0824
0.6931 0.0852 0.0807
0.7677 0.0835 0.0790
0.8423 0.0818 0.0772
0.9169 0.0800 0.0755
0.9915 0.0783 0.0737
1.0000 0.0765 0.0720
1.0000 0.0748 0.0703
0.0000 0.1745 0.0921
0.0155 0.1728 0.0904
0.0902 0.1711 0.0887
0.1648 0.1693 0.0869
0.2394 0.1676 0.0852
0.3140 0.1658 0.0834
0.3886 0.1641 0.0817
0.4632 0.1624 0.0800
0.5379 0.1606 0.0782
0.6125 0.1589 0.0765
0.6871 0.1571 0.0747
0.7617 0.1554 0.0730
0.8363 0.1537 0.0713
0.9109 0.1519 0.0695
0.9856 0.1502 0.0678
1.0000 0.1484 0.0660
1.0000 0.1467 0.0643
0.0000 0.2464 0.0862
0.0096 0.2447 0.0844
0.0842 0.2430 0.0827
0.1588 0.2412 0.0809
0.2334 0.2395 0.0792
0.3080 0.2377 0.0775
0.3827 0.2360 0.0757
0.4573 0.2343 0.0740
0.5319 0.2325 0.0722
0.6065 0.2308 0.0705
0.6811 0.2290 0.0688
0.7557 0.2273 0.0670
0.8304 0.2256 0.0653
0.9050 0.2238 0.0636
0.9796 0.2221 0.0618
1.0000 0.2203 0.0601
1.0000 0.2186 0.0583
0.0000 0.3183 0.0802
0.0036 0.3166 0.0785
0.0782 0.3149 0.0767
0.1528 0.3131 0.0750
0.2275 0.3114 0.0732
0.3021 0.3096 0.0715
0.3767 0.3079 0.0698
0.4513 0.3062 0.0680
0.5259 0.3044 0.0663
0.6005 0.3027 0.0645
0.6752 0.3009 0.0628
0.7498 0.2992 0.0611
0.8244 0.2975 0.0593
0.8990 0.2957 0.0576
0.9736 0.2940 0.0558
1.0000 0.2922 0.0541
1.0000 0.2905 0.0524
0.0000 0.3902 0.0742
0.0000 0.3885 0.0725
0.0723 0.3868 0.0708
0.1469 0.3850 0.0690
0.2215 0.3833 0.0673
0.2961 0.3815 0.0655
0.3707 0.3798 0.0638
0.4453 0.3781 0.0621
0.5200 0.3763 0.0603
0.5946 0.3746 0.0586
0.6692 0.3728 0.0568
0.7438 0.3711 0.0551
0.8184 0.3694 0.0534
0.8930 0.3676 0.0516
0.9677 0.3659 0.0499
1.0000 0.3641 0.0481
1.0000 0.3624 0.0464
0.0000 0.4621 0.0683
0.0000 0.4604 0.0665
0.0663 0.4587 0.0648
0.1409 0.4569 0.0630
0.2155 0.4552 0.0613
0.2901 0.4534 0.0596
0.3648 0.4517 0.0578
0.4394 0.4500 0.0561
0.5140 0.4482 0.0543
0.5886 0.4465 0.0526
0.6632 0.4447 0.0509
0.7378 0.4430 0.0491
0.8125 0.4413 0.0474
0.8871 0.4395 0.0457
0.9617 0.4378 0.0439
1.0000 0.4360 0.0422
1.0000 0.4343 0.0404
0.0000 0.5340 0.0623
0.0000 0.5323 0.0606
0.0603 0.5306 0.0588
0.1349 0.5288 0.0571
0.2096 0.5271 0.0553
0.2842 0.5253 0.0536
0.3588 0.5236 0.0519
0.4334 0.5219 0.0501
0.5080 0.5201 0.0484
0.5826 0.5184 0.0466
0.6573 0.5166 0.0449
0.7319 0.5149 0.0432
0.8065 0.5132 0.0414
0.8811 0.5114 0.0397
0.9557 0.5097 0.0379
1.0000 0.5079 0.0362
1.0000 0.5062 0.0345
0.0000 0.6059 0.0563
0.0000 0.6042 0.0546
0.0544 0.6025 0.0528
0.1290 0.6007 0.0511
0.2036 0.5990 0.0494
0.2782 0.5972 0.0476
0.3528 0.5955 0.0459
0.4274 0.5938 0.0442
0.5021 0.5920 0.0424
0.5767 0.5903 0.0407
0.6513 0.5885 0.0389
0.7259 0.5868 0.0372
0.8005 0.5851 0.0355
0.8751 0.5833 0.0337
0.9498 0.5816 0.0320
1.0000 0.5799 0.0302
1.0000 0.5781 0.0285
0.0000 0.6778 0.0504
0.0000 0.6761 0.0486
0.0484 0.6744 0.0469
0.1230 0.6726 0.0451
0.1976 0.6709 0.0434
0.2722 0.6691 0.0417
0.3469 0.6674 0.0399
0.4215 0.6657 0.0382
0.4961 0.6639 0.0364
0.5707 0.6622 0.0347
0.6453 0.6604 0.0330
0.7199 0.6587 0.0312
0.7946 0.6570 0.0295
0.8692 0.6552 0.0278
0.9438 0.6535 0.0260
1.0000 0.6518 0.0243
1.0000 0.6500 0.0225
0.0000 0.7497 0.0444
0.0000 0.7480 0.0427
0.0424 0.7463 0.0409
0.1170 0.7445 0.0392
0.1917 0.7428 0.0374
0.2663 0.7410 0.0357
0.3409 0.7393 0.0340
0.4155 0.7376 0.0322
0.4901 0.7358 0.0305
0.5647 0.7341 0.0287
0.6394 0.7323 0.0270
0.7140 0.7306 0.0253
0.7886 0.7289 0.0235
0.8632 0.7271 0.0218
0.9378 0.7254 0.0200
1.0000 0.7237 0.0183
1.0000 0.7219 0.0166
0.0000 0.8216 0.0384
0.0000 0.8199 0.0367
0.0365 0.8182 0.0349
0.1111 0.8164 0.0332
0.1857 0.8147 0.0315
0.2603 0.8129 0.0297
0.3349 0.8112 0.0280
0.4095 0.8095 0.0263
0.4842 0.8077 0.0245
0.5588 0.8060 0.0228
0.6334 0.8043 0.0210
0.7080 0.8025 0.0193
0.7826 0.8008 0.0176
0.8572 0.7990 0.0158
0.9319 0.7973 0.0141
1.0000 0.7956 0.0123
1.0000 0.7938 0.0106
0.0000 0.8935 0.0325
0.0000 0.8918 0.0307
0.0305 0.8901 0.0290
0.1051 0.8883 0.0272
0.1797 0.8866 0.0255
0.2543 0.8848 0.0238
0.3290 0.8831 0.0220
0.4036 0.8814 0.0203
0.4782 0.8796 0.0185
0.5528 0.8779 0.0168
0.6274 0.8762 0.0151
0.7020 0.8744 0.0133
0.7767 0.8727 0.0116
0.8513 0.8709 0.0098
0.9259 0.8692 0.0081
1.0000 0.8675 0.0064
1.0000 0.8657 0.0046
0.0000 0.9654 0.0265
0.0000 0.9637 0.0248
0.0245 0.9620 0.0230
0.0991 0.9602 0.0213
0.1738 0.9585 0.0195
0.2484 0.9567 0.0178
0.3230 0.9550 0.0161
0.3976 0.9533 0.0143
0.4722 0.9515 0.0126
0.5468 0.9498 0.0108
0.6215 0.9481 0.0091
0.6961 0.9463 0.0074
0.7707 0.9446 0.0056
0.8453 0.9428 0.0039
0.9199 0.9411 0.0021
0.9945 0.9394 0.0004
1.0000 0.9376 0.0000
0.0000 1.0000 0.0205
0.0000 1.0000 0.0188
0.0186 1.0000 0.0170
0.0932 1.0000 0.0153
0.1678 1.0000 0.0136
0.2424 1.0000 0.0118
0.3170 1.0000 0.0101
0.3916 1.0000 0.0084
0.4663 1.0000 0.0066
0.5409 1.0000 0.0049
0.6155 1.0000 0.0031
0.6901 1.0000 0.0014
0.7647 1.0000 0.0000
0.8393 1.0000 0.0000
0.9140 1.0000 0.0000
0.9886 1.0000 0.0000
1.0000 1.0000 0.0000
0.0000 1.0000 0.0146
0.0000 1.0000 0.0128
0.0126 1.0000 0.0111
0.0872 1.0000 0.0093
0.1618 1.0000 0.0076
0.2364 1.0000 0.0059
0.3111 1.0000 0.0041
0.3857 1.0000 0.0024
0.4603 1.0000 0.0006
0.5349 1.0000 0.0000
0.6095 1.0000 0.0000
0.6841 1.0000 0.0000
0.7588 1.0000 0.0000
0.8334 1.0000 0.0000
0.9080 1.0000 0.0000
0.9826 1.0000 0.0000
1.0000 1.0000 0.0000
0.0000 0.0000 0.1850
0.0329 0.0000 0.1833
0.1075 0.0000 0.1816
0.1821 0.0000 0.1798
0.2567 0.0000 0.1781
0.3313 0.0000 0.1763
0.4059 0.0000 0.1746
0.4806 0.0000 0.1729
0.5552 0.0000 0.1711
0.6298 0.0000 0.1694
0.7044 0.0000 0.1677
0.7790 0.0000 0.1659
0.8536 0.0000 0.1642
0.9283 0.0000 0.1624
1.0000 0.0000 0.1607
1.0000 0.0000 0.1590
1.0000 0.0000 0.1572
0.0000 0.0301 0.1791
0.0269 0.0284 0.1773
0.1015 0.0267 0.1756
0.1761 0.0249 0.1739
0.2507 0.0232 0.1721
0.3254 0.0215 0.1704
0.4000 0.0197 0.1686
0.4746 0.0180 0.1669
0.5492 0.0162 0.1652
0.6238 0.0145 0.1634
0.6984 0.0128 0.1617
0.7731 0.0110 0.1599
0.8477 0.0093 0.1582
0.9223 0.0075 0.1565
0.9969 0.0058 0.1547
1.0000 0.0041 0.1530
