public/luts/fresh.cube
# edite look: Fresh (CC0)
TITLE "Fresh"
LUT_3D_SIZE 9
DOMAIN_MIN 0.0 0.0 0.0
DOMAIN_MAX 1.0 1.0 1.0
0.0000 0.0000 0.0000
0.1092 0.0000 0.0000
0.2585 0.0000 0.0000
0.4077 0.0000 0.0000
0.5569 0.0000 0.0000
0.7062 0.0000 0.0000
0.8554 0.0000 0.0000
1.0000 0.0000 0.0000
1.0000 0.0000 0.0000
0.0000 0.1038 0.0000
0.0973 0.1003 0.0000
0.2465 0.0968 0.0000
0.3958 0.0934 0.0000
0.5450 0.0899 0.0000
0.6942 0.0864 0.0000
0.8435 0.0829 0.0000
0.9927 0.0795 0.0000
1.0000 0.0760 0.0000
0.0000 0.2476 0.0000
0.0854 0.2441 0.0000
0.2346 0.2406 0.0000
0.3838 0.2372 0.0000
0.5331 0.2337 0.0000
0.6823 0.2302 0.0000
0.8315 0.2267 0.0000
0.9808 0.2233 0.0000
1.0000 0.2198 0.0000
0.0000 0.3914 0.0000
0.0734 0.3879 0.0000
0.2227 0.3844 0.0000
0.3719 0.3810 0.0000
0.5211 0.3775 0.0000
0.6704 0.3740 0.0000
0.8196 0.3705 0.0000
0.9688 0.3671 0.0000
1.0000 0.3636 0.0000
0.0000 0.5352 0.0000
0.0615 0.5317 0.0000
0.2107 0.5283 0.0000
0.3600 0.5248 0.0000
0.5092 0.5213 0.0000
0.6584 0.5178 0.0000
0.8077 0.5143 0.0000
0.9569 0.5109 0.0000
1.0000 0.5074 0.0000
0.0000 0.6790 0.0000
0.0496 0.6755 0.0000
0.1988 0.6721 0.0000
0.3480 0.6686 0.0000
0.4973 0.6651 0.0000
0.6465 0.6616 0.0000
0.7957 0.6581 0.0000
0.9450 0.6547 0.0000
1.0000 0.6512 0.0000
0.0000 0.8228 0.0000
0.0376 0.8193 0.0000
0.1869 0.8159 0.0000
0.3361 0.8124 0.0000
0.4853 0.8089 0.0000
0.6346 0.8054 0.0000
0.7838 0.8019 0.0000
0.9330 0.7985 0.0000
1.0000 0.7950 0.0000
0.0000 0.9666 0.0000
0.0257 0.9631 0.0000
0.1749 0.9597 0.0000
0.3242 0.9562 0.0000
0.4734 0.9527 0.0000
0.6226 0.9492 0.0000
0.7719 0.9457 0.0000
0.9211 0.9423 0.0000
1.0000 0.9388 0.0000
0.0000 1.0000 0.0000
0.0138 1.0000 0.0000
0.1630 1.0000 0.0000
0.3122 1.0000 0.0000
0.4615 1.0000 0.0000
0.6107 1.0000 0.0000
0.7599 1.0000 0.0000
0.9092 1.0000 0.0000
1.0000 1.0000 0.0000
0.0000 0.0000 0.1100
0.1081 0.0000 0.1066
0.2573 0.0000 0.1031
0.4065 0.0000 0.0996
0.5558 0.0000 0.0961
0.7050 0.0000 0.0926
0.8542 0.0000 0.0892
1.0000 0.0000 0.0857
1.0000 0.0000 0.0822
0.0000 0.1026 0.0981
0.0961 0.0992 0.0946
0.2454 0.0957 0.0911
0.3946 0.0922 0.0877
0.5438 0.0887 0.0842
0.6931 0.0852 0.0807
0.8423 0.0818 0.0772
0.9915 0.0783 0.0737
1.0000 0.0748 0.0703
0.0000 0.2464 0.0862
0.0842 0.2430 0.0827
0.2334 0.2395 0.0792
0.3827 0.2360 0.0757
0.5319 0.2325 0.0722
0.6811 0.2290 0.0688
0.8304 0.2256 0.0653
0.9796 0.2221 0.0618
1.0000 0.2186 0.0583
0.0000 0.3902 0.0742
0.0723 0.3868 0.0708
0.2215 0.3833 0.0673
0.3707 0.3798 0.0638
0.5200 0.3763 0.0603
0.6692 0.3728 0.0568
0.8184 0.3694 0.0534
0.9677 0.3659 0.0499
1.0000 0.3624 0.0464
0.0000 0.5340 0.0623
0.0603 0.5306 0.0588
0.2096 0.5271 0.0553
0.3588 0.5236 0.0519
0.5080 0.5201 0.0484
0.6573 0.5166 0.0449
0.8065 0.5132 0.0414
0.9557 0.5097 0.0379
1.0000 0.5062 0.0345
0.0000 0.6778 0.0504
0.0484 0.6744 0.0469
0.1976 0.6709 0.0434
0.3469 0.6674 0.0399
0.4961 0.6639 0.0364
0.6453 0.6604 0.0330
0.7946 0.6570 0.0295
0.9438 0.6535 0.0260
1.0000 0.6500 0.0225
0.0000 0.8216 0.0384
0.0365 0.8182 0.0349
0.1857 0.8147 0.0315
0.3349 0.8112 0.0280
0.4842 0.8077 0.0245
0.6334 0.8043 0.0210
0.7826 0.8008 0.0176
0.9319 0.7973 0.0141
1.0000 0.7938 0.0106
0.0000 0.9654 0.0265
0.0245 0.9620 0.0230
0.1738 0.9585 0.0195
0.3230 0.9550 0.0161
0.4722 0.9515 0.0126
0.6215 0.9481 0.0091
0.7707 0.9446 0.0056
0.9199 0.9411 0.0021
1.0000 0.9376 0.0000
0.0000 1.0000 0.0146
0.0126 1.0000 0.0111
0.1618 1.0000 0.0076
0.3111 1.0000 0.0041
0.4603 1.0000 0.0006
0.6095 1.0000 0.0000
0.7588 1.0000 0.0000
0.9080 1.0000 0.0000
1.0000 1.0000 0.0000
0.0000 0.0000 0.2601
0.1069 0.0000 0.2566
0.2561 0.0000 0.2531
0.4054 0.0000 0.2496
0.5546 0.0000 0.2461
0.7038 0.0000 0.2427
0.8531 0.0000 0.2392
1.0000 0.0000 0.2357
1.0000 0.0000 0.2322
0.0000 0.1015 0.2481
0.0950 0.0980 0.2446
0.2442 0.0945 0.2412
0.3934 0.0910 0.2377
0.5427 0.0875 0.2342
0.6919 0.0841 0.2307
0.8411 0.0806 0.2273
0.9904 0.0771 0.2238
1.0000 0.0736 0.2203
0.0000 0.2453 0.2362
0.0830 0.2418 0.2327
0.2323 0.2383 0.2292
0.3815 0.2348 0.2258
0.5307 0.2314 0.2223
0.6800 0.2279 0.2188
0.8292 0.2244 0.2153
0.9784 0.2209 0.2118
1.0000 0.2174 0.2084
0.0000 0.3891 0.2243
0.0711 0.3856 0.2208
0.2203 0.3821 0.2173
0.3696 0.3786 0.2138
0.5188 0.3752 0.2103
0.6680 0.3717 0.2069
0.8173 0.3682 0.2034
0.9665 0.3647 0.1999
1.0000 0.3612 0.1964
0.0000 0.5329 0.2123
0.0592 0.5294 0.2088
0.2084 0.5259 0.2054
0.3576 0.5224 0.2019
0.5069 0.5190 0.1984
0.6561 0.5155 0.1949
0.8053 0.5120 0.1915
0.9546 0.5085 0.1880
1.0000 0.5050 0.1845
0.0000 0.6767 0.2004
0.0472 0.6732 0.1969
0.1965 0.6697 0.1934
0.3457 0.6662 0.1900
0.4949 0.6628 0.1865
0.6442 0.6593 0.1830
0.7934 0.6558 0.1795
0.9426 0.6523 0.1760
1.0000 0.6488 0.1726
0.0000 0.8205 0.1885
0.0353 0.8170 0.1850
0.1845 0.8135 0.1815
0.3338 0.8100 0.1780
0.4830 0.8066 0.1745
0.6322 0.8031 0.1711
0.7815 0.7996 0.1676
0.9307 0.7961 0.1641
1.0000 0.7926 0.1606
0.0000 0.9643 0.1765
0.0234 0.9608 0.1730
0.1726 0.9573 0.1696
0.3218 0.9538 0.1661
0.4711 0.9504 0.1626
0.6203 0.9469 0.1591
0.7695 0.9434 0.1557
0.9188 0.9399 0.1522
1.0000 0.9364 0.1487
0.0000 1.0000 0.1646
0.0114 1.0000 0.1611
0.1607 1.0000 0.1576
0.3099 1.0000 0.1542
0.4591 1.0000 0.1507
0.6084 1.0000 0.1472
0.7576 1.0000 0.1437
0.9068 1.0000 0.1402
1.0000 1.0000 0.1368
0.0000 0.0000 0.4101
0.1057 0.0000 0.4066
0.2550 0.0000 0.4031
0.4042 0.0000 0.3997
0.5534 0.0000 0.3962
0.7027 0.0000 0.3927
0.8519 0.0000 0.3892
1.0000 0.0000 0.3857
1.0000 0.0000 0.3823
0.0000 0.1003 0.3982
0.0938 0.0968 0.3947
0.2430 0.0933 0.3912
0.3923 0.0899 0.3877
0.5415 0.0864 0.3842
0.6907 0.0829 0.3808
0.8400 0.0794 0.3773
0.9892 0.0759 0.3738
1.0000 0.0725 0.3703
0.0000 0.2441 0.3862
0.0819 0.2406 0.3827
0.2311 0.2371 0.3793
0.3803 0.2337 0.3758
0.5296 0.2302 0.3723
0.6788 0.2267 0.3688
0.8280 0.2232 0.3654
0.9773 0.2197 0.3619
1.0000 0.2163 0.3584
0.0000 0.3879 0.3743
0.0699 0.3844 0.3708
0.2192 0.3809 0.3673
0.3684 0.3775 0.3639
0.5176 0.3740 0.3604
0.6669 0.3705 0.3569
0.8161 0.3670 0.3534
0.9653 0.3635 0.3499
1.0000 0.3601 0.3465
0.0000 0.5317 0.3624
0.0580 0.5282 0.3589
0.2072 0.5247 0.3554
0.3565 0.5213 0.3519
0.5057 0.5178 0.3484
0.6549 0.5143 0.3450
0.8042 0.5108 0.3415
0.9534 0.5073 0.3380
1.0000 0.5039 0.3345
0.0000 0.6755 0.3504
0.0461 0.6720 0.3469
0.1953 0.6685 0.3435
0.3445 0.6651 0.3400
0.4938 0.6616 0.3365
0.6430 0.6581 0.3330
0.7922 0.6546 0.3296
0.9415 0.6512 0.3261
1.0000 0.6477 0.3226
0.0000 0.8193 0.3385
0.0341 0.8158 0.3350
0.1834 0.8123 0.3315
0.3326 0.8089 0.3281
0.4818 0.8054 0.3246
0.6311 0.8019 0.3211
0.7803 0.7984 0.3176
0.9295 0.7950 0.3141
1.0000 0.7915 0.3107
0.0000 0.9631 0.3266
0.0222 0.9596 0.3231
0.1714 0.9561 0.3196
0.3207 0.9527 0.3161
0.4699 0.9492 0.3126
0.6191 0.9457 0.3092
0.7684 0.9422 0.3057
0.9176 0.9388 0.3022
1.0000 0.9353 0.2987
0.0000 1.0000 0.3146
0.0103 1.0000 0.3111
0.1595 1.0000 0.3077
0.3087 1.0000 0.3042
0.4580 1.0000 0.3007
0.6072 1.0000 0.2972
0.7564 1.0000 0.2937
0.9057 1.0000 0.2903
1.0000 1.0000 0.2868
0.0000 0.0000 0.5601
0.1046 0.0000 0.5566
0.2538 0.0000 0.5532
0.4030 0.0000 0.5497
0.5523 0.0000 0.5462
0.7015 0.0000 0.5427
0.8507 0.0000 0.5393
1.0000 0.0000 0.5358
1.0000 0.0000 0.5323
0.0000 0.0991 0.5482
0.0926 0.0956 0.5447
0.2419 0.0922 0.5412
0.3911 0.0887 0.5378
0.5403 0.0852 0.5343
0.6896 0.0817 0.5308
0.8388 0.0783 0.5273
0.9880 0.0748 0.5238
1.0000 0.0713 0.5204
0.0000 0.2429 0.5363
0.0807 0.2394 0.5328
0.2299 0.2360 0.5293
0.3792 0.2325 0.5258
0.5284 0.2290 0.5223
0.6776 0.2255 0.5189
0.8269 0.2221 0.5154
0.9761 0.2186 0.5119
1.0000 0.2151 0.5084
0.0000 0.3867 0.5243
0.0688 0.3832 0.5208
0.2180 0.3798 0.5174
0.3672 0.3763 0.5139
0.5165 0.3728 0.5104
0.6657 0.3693 0.5069
0.8149 0.3659 0.5034
0.9642 0.3624 0.5000
1.0000 0.3589 0.4965
0.0000 0.5305 0.5124
0.0568 0.5271 0.5089
0.2061 0.5236 0.5054
0.3553 0.5201 0.5020
0.5045 0.5166 0.4985
0.6538 0.5131 0.4950
0.8030 0.5097 0.4915
0.9522 0.5062 0.4880
1.0000 0.5027 0.4846
0.0000 0.6743 0.5005
0.0449 0.6709 0.4970
0.1941 0.6674 0.4935
0.3434 0.6639 0.4900
0.4926 0.6604 0.4865
0.6418 0.6569 0.4831
0.7911 0.6535 0.4796
0.9403 0.6500 0.4761
1.0000 0.6465 0.4726
0.0000 0.8181 0.4885
0.0330 0.8147 0.4850
0.1822 0.8112 0.4816
0.3314 0.8077 0.4781
0.4807 0.8042 0.4746
0.6299 0.8007 0.4711
0.7791 0.7973 0.4676
0.9284 0.7938 0.4642
1.0000 0.7903 0.4607
0.0000 0.9619 0.4766
0.0210 0.9585 0.4731
0.1703 0.9550 0.4696
0.3195 0.9515 0.4661
0.4687 0.9480 0.4627
0.6180 0.9445 0.4592
0.7672 0.9411 0.4557
0.9164 0.9376 0.4522
1.0000 0.9341 0.4488
0.0000 1.0000 0.4647
0.0091 1.0000 0.4612
0.1583 1.0000 0.4577
0.3076 1.0000 0.4542
0.4568 1.0000 0.4507
0.6060 1.0000 0.4473
0.7553 1.0000 0.4438
0.9045 1.0000 0.4403
1.0000 1.0000 0.4368
0.0000 0.0000 0.7102
0.1034 0.0000 0.7067
0.2526 0.0000 0.7032
0.4019 0.0000 0.6997
0.5511 0.0000 0.6962
0.7003 0.0000 0.6928
0.8496 0.0000 0.6893
0.9988 0.0000 0.6858
1.0000 0.0000 0.6823
0.0000 0.0980 0.6982
0.0915 0.0945 0.6947
0.2407 0.0910 0.6913
0.3899 0.0875 0.6878
0.5392 0.0840 0.6843
0.6884 0.0806 0.6808
0.8376 0.0771 0.6773
0.9869 0.0736 0.6739
1.0000 0.0701 0.6704
0.0000 0.2418 0.6863
0.0795 0.2383 0.6828
0.2288 0.2348 0.6793
0.3780 0.2313 0.6758
0.5272 0.2278 0.6724
0.6765 0.2244 0.6689
0.8257 0.2209 0.6654
0.9749 0.2174 0.6619
1.0000 0.2139 0.6585
0.0000 0.3856 0.6744
0.0676 0.3821 0.6709
0.2168 0.3786 0.6674
0.3661 0.3751 0.6639
0.5153 0.3716 0.6604
0.6645 0.3682 0.6570
0.8138 0.3647 0.6535
0.9630 0.3612 0.6500
1.0000 0.3577 0.6465
0.0000 0.5294 0.6624
0.0556 0.5259 0.6589
0.2049 0.5224 0.6555
0.3541 0.5189 0.6520
0.5034 0.5154 0.6485
0.6526 0.5120 0.6450
0.8018 0.5085 0.6415
0.9511 0.5050 0.6381
1.0000 0.5015 0.6346
0.0000 0.6732 0.6505
0.0437 0.6697 0.6470
0.1929 0.6662 0.6435
0.3422 0.6627 0.6400
0.4914 0.6592 0.6366
0.6406 0.6558 0.6331
0.7899 0.6523 0.6296
0.9391 0.6488 0.6261
1.0000 0.6453 0.6227
0.0000 0.8170 0.6385
0.0318 0.8135 0.6351
0.1810 0.8100 0.6316
0.3302 0.8065 0.6281
0.4795 0.8031 0.6246
0.6287 0.7996 0.6212
0.7779 0.7961 0.6177
0.9272 0.7926 0.6142
1.0000 0.7891 0.6107
0.0000 0.9608 0.6266
0.0198 0.9573 0.6231
0.1691 0.9538 0.6197
0.3183 0.9503 0.6162
0.4675 0.9469 0.6127
0.6168 0.9434 0.6092
0.7660 0.9399 0.6057
0.9152 0.9364 0.6023
1.0000 0.9329 0.5988
0.0000 1.0000 0.6147
0.0079 1.0000 0.6112
0.1571 1.0000 0.6077
0.3064 1.0000 0.6042
0.4556 1.0000 0.6008
0.6048 1.0000 0.5973
0.7541 1.0000 0.5938
0.9033 1.0000 0.5903
1.0000 1.0000 0.5869
0.0000 0.0000 0.8602
0.1022 0.0000 0.8567
0.2514 0.0000 0.8532
0.4007 0.0000 0.8497
0.5499 0.0000 0.8463
0.6991 0.0000 0.8428
0.8484 0.0000 0.8393
0.9976 0.0000 0.8358
1.0000 0.0000 0.8324
0.0000 0.0968 0.8482
0.0903 0.0933 0.8448
0.2395 0.0898 0.8413
0.3887 0.0863 0.8378
0.5380 0.0829 0.8343
0.6872 0.0794 0.8309
0.8364 0.0759 0.8274
0.9857 0.0724 0.8239
1.0000 0.0690 0.8204
0.0000 0.2406 0.8363
0.0783 0.2371 0.8328
0.2276 0.2336 0.8294
0.3768 0.2302 0.8259
0.5260 0.2267 0.8224
0.6753 0.2232 0.8189
0.8245 0.2197 0.8154
0.9737 0.2162 0.8120
1.0000 0.2128 0.8085
0.0000 0.3844 0.8244
0.0664 0.3809 0.8209
0.2156 0.3774 0.8174
0.3649 0.3740 0.8139
0.5141 0.3705 0.8105
0.6633 0.3670 0.8070
0.8126 0.3635 0.8035
0.9618 0.3600 0.8000
1.0000 0.3566 0.7966
0.0000 0.5282 0.8124
0.0545 0.5247 0.8090
0.2037 0.5212 0.8055
0.3529 0.5178 0.8020
0.5022 0.5143 0.7985
0.6514 0.5108 0.7951
0.8006 0.5073 0.7916
0.9499 0.5038 0.7881
1.0000 0.5004 0.7846
0.0000 0.6720 0.8005
0.0425 0.6685 0.7970
0.1918 0.6650 0.7936
0.3410 0.6616 0.7901
0.4902 0.6581 0.7866
0.6395 0.6546 0.7831
0.7887 0.6511 0.7796
0.9379 0.6476 0.7762
1.0000 0.6442 0.7727
0.0000 0.8158 0.7886
0.0306 0.8123 0.7851
0.1798 0.8088 0.7816
0.3291 0.8054 0.7781
0.4783 0.8019 0.7747
0.6275 0.7984 0.7712
0.7768 0.7949 0.7677
0.9260 0.7914 0.7642
1.0000 0.7880 0.7608
0.0000 0.9596 0.7766
0.0187 0.9561 0.7732
0.1679 0.9526 0.7697
0.3171 0.9492 0.7662
0.4664 0.9457 0.7627
0.6156 0.9422 0.7593
0.7648 0.9387 0.7558
0.9141 0.9352 0.7523
1.0000 0.9318 0.7488
0.0000 1.0000 0.7647
0.0067 1.0000 0.7612
0.1560 1.0000 0.7578
0.3052 1.0000 0.7543
0.4544 1.0000 0.7508
0.6037 1.0000 0.7473
0.7529 1.0000 0.7438
0.9021 1.0000 0.7404
1.0000 1.0000 0.7369
0.0000 0.0000 1.0000
0.1010 0.0000 1.0000
0.2503 0.0000 1.0000
0.3995 0.0000 0.9998
0.5487 0.0000 0.9963
0.6980 0.0000 0.9928
0.8472 0.0000 0.9893
0.9964 0.0000 0.9859
1.0000 0.0000 0.9824
0.0000 0.0956 0.9983
0.0891 0.0921 0.9948
0.2383 0.0887 0.9913
0.3876 0.0852 0.9878
0.5368 0.0817 0.9844
0.6860 0.0782 0.9809
0.8353 0.0747 0.9774
0.9845 0.0713 0.9739
1.0000 0.0678 0.9705
0.0000 0.2394 0.9863
0.0772 0.2359 0.9829
0.2264 0.2325 0.9794
0.3756 0.2290 0.9759
0.5249 0.2255 0.9724
0.6741 0.2220 0.9690
0.8233 0.2185 0.9655
0.9726 0.2151 0.9620
1.0000 0.2116 0.9585
0.0000 0.3832 0.9744
0.0652 0.3797 0.9709
0.2145 0.3763 0.9675
0.3637 0.3728 0.9640
0.5129 0.3693 0.9605
0.6622 0.3658 0.9570
0.8114 0.3623 0.9535
0.9606 0.3589 0.9501
1.0000 0.3554 0.9466
0.0000 0.5270 0.9625
0.0533 0.5235 0.9590
0.2025 0.5201 0.9555
0.3518 0.5166 0.9520
0.5010 0.5131 0.9486
0.6502 0.5096 0.9451
0.7995 0.5061 0.9416
0.9487 0.5027 0.9381
1.0000 0.4992 0.9346
0.0000 0.6708 0.9505
0.0414 0.6673 0.9471
0.1906 0.6639 0.9436
0.3398 0.6604 0.9401
0.4891 0.6569 0.9366
0.6383 0.6534 0.9332
0.7875 0.6500 0.9297
0.9368 0.6465 0.9262
1.0000 0.6430 0.9227
0.0000 0.8146 0.9386
0.0294 0.8111 0.9351
0.1787 0.8077 0.9317
0.3279 0.8042 0.9282
0.4771 0.8007 0.9247
0.6264 0.7972 0.9212
0.7756 0.7938 0.9177
0.9248 0.7903 0.9143
1.0000 0.7868 0.9108
0.0000 0.9584 0.9267
0.0175 0.9549 0.9232
0.1667 0.9515 0.9197
0.3160 0.9480 0.9162
0.4652 0.9445 0.9128
0.6144 0.9410 0.9093
0.7637 0.9376 0.9058
0.9129 0.9341 0.9023
1.0000 0.9306 0.8988
0.0000 1.0000 0.9147
0.0056 1.0000 0.9113
0.1548 1.0000 0.9078
0.3040 1.0000 0.9043
0.4533 1.0000 0.9008
0.6025 1.0000 0.8973
0.7517 1.0000 0.8939
0.9010 1.0000 0.8904
1.0000 1.0000 0.8869
0.0000 0.0000 1.0000
0.0999 0.0000 1.0000
0.2491 0.0000 1.0000
0.3983 0.0000 1.0000
0.5476 0.0000 1.0000
0.6968 0.0000 1.0000
0.8460 0.0000 1.0000
0.9953 0.0000 1.0000
1.0000 0.0000 1.0000
0.0000 0.0944 1.0000
0.0879 0.0910 1.0000
0.2372 0.0875 1.0000
0.3864 0.0840 1.0000
0.5356 0.0805 1.0000
0.6849 0.0771 1.0000
0.8341 0.0736 1.0000
0.9833 0.0701 1.0000
1.0000 0.0666 1.0000
0.0000 0.2382 1.0000
0.0760 0.2348 1.0000
0.2252 0.2313 1.0000
0.3745 0.2278 1.0000
0.5237 0.2243 1.0000
0.6729 0.2209 1.0000
0.8222 0.2174 1.0000
0.9714 0.2139 1.0000
1.0000 0.2104 1.0000
0.0000 0.3820 1.0000
0.0641 0.3786 1.0000
0.2133 0.3751 1.0000
0.3625 0.3716 1.0000
0.5118 0.3681 1.0000
0.6610 0.3647 1.0000
0.8102 0.3612 1.0000
0.9595 0.3577 1.0000
1.0000 0.3542 1.0000
0.0000 0.5259 1.0000
0.0521 0.5224 1.0000
0.2014 0.5189 1.0000
0.3506 0.5154 1.0000
0.4998 0.5119 1.0000
0.6491 0.5085 1.0000
0.7983 0.5050 1.0000
0.9475 0.5015 1.0000
1.0000 0.4980 1.0000
0.0000 0.6697 1.0000
0.0402 0.6662 1.0000
0.1894 0.6627 1.0000
0.3387 0.6592 1.0000
0.4879 0.6557 1.0000
0.6371 0.6523 1.0000
0.7864 0.6488 1.0000
0.9356 0.6453 1.0000
1.0000 0.6418 1.0000
0.0000 0.8135 1.0000
0.0283 0.8100 1.0000
0.1775 0.8065 1.0000
0.3267 0.8030 1.0000
0.4760 0.7995 1.0000
0.6252 0.7961 1.0000
0.7744 0.7926 1.0000
0.9237 0.7891 1.0000
1.0000 0.7856 1.0000
0.0000 0.9573 1.0000
0.0163 0.9538 1.0000
0.1656 0.9503 1.0000
0.3148 0.9468 1.0000
0.4640 0.9433 1.0000
0.6133 0.9399 1.0000
0.7625 0.9364 1.0000
0.9117 0.9329 1.0000
1.0000 0.9294 1.0000
0.0000 1.0000 1.0000
0.0044 1.0000 1.0000
0.1536 1.0000 1.0000
0.3029 1.0000 1.0000
0.4521 1.0000 1.0000
0.6013 1.0000 1.0000
0.7506 1.0000 1.0000
0.8998 1.0000 1.0000
1.0000 1.0000 1.0000
