public/luts/fresh.cube
# edite look: Fresh (CC0)
TITLE "Fresh"
LUT_3D_SIZE 5
DOMAIN_MIN 0.0 0.0 0.0
DOMAIN_MAX 1.0 1.0 1.0
0.0000 0.0000 0.0000
0.2585 0.0000 0.0000
0.5569 0.0000 0.0000
0.8554 0.0000 0.0000
1.0000 0.0000 0.0000
0.0000 0.2476 0.0000
0.2346 0.2406 0.0000
0.5331 0.2337 0.0000
0.8315 0.2267 0.0000
1.0000 0.2198 0.0000
0.0000 0.5352 0.0000
0.2107 0.5283 0.0000
0.5092 0.5213 0.0000
0.8077 0.5143 0.0000
1.0000 0.5074 0.0000
0.0000 0.8228 0.0000
0.1869 0.8159 0.0000
0.4853 0.8089 0.0000
0.7838 0.8019 0.0000
1.0000 0.7950 0.0000
0.0000 1.0000 0.0000
0.1630 1.0000 0.0000
0.4615 1.0000 0.0000
0.7599 1.0000 0.0000
1.0000 1.0000 0.0000
0.0000 0.0000 0.2601
0.2561 0.0000 0.2531
0.5546 0.0000 0.2461
0.8531 0.0000 0.2392
1.0000 0.0000 0.2322
0.0000 0.2453 0.2362
0.2323 0.2383 0.2292
0.5307 0.2314 0.2223
0.8292 0.2244 0.2153
1.0000 0.2174 0.2084
0.0000 0.5329 0.2123
0.2084 0.5259 0.2054
0.5069 0.5190 0.1984
0.8053 0.5120 0.1915
1.0000 0.5050 0.1845
0.0000 0.8205 0.1885
0.1845 0.8135 0.1815
0.4830 0.8066 0.1745
0.7815 0.7996 0.1676
1.0000 0.7926 0.1606
0.0000 1.0000 0.1646
0.1607 1.0000 0.1576
0.4591 1.0000 0.1507
0.7576 1.0000 0.1437
1.0000 1.0000 0.1368
0.0000 0.0000 0.5601
0.2538 0.0000 0.5532
0.5523 0.0000 0.5462
0.8507 0.0000 0.5393
1.0000 0.0000 0.5323
0.0000 0.2429 0.5363
0.2299 0.2360 0.5293
0.5284 0.2290 0.5223
0.8269 0.2221 0.5154
1.0000 0.2151 0.5084
0.0000 0.5305 0.5124
0.2061 0.5236 0.5054
0.5045 0.5166 0.4985
0.8030 0.5097 0.4915
1.0000 0.5027 0.4846
0.0000 0.8181 0.4885
0.1822 0.8112 0.4816
0.4807 0.8042 0.4746
0.7791 0.7973 0.4676
1.0000 0.7903 0.4607
0.0000 1.0000 0.4647
0.1583 1.0000 0.4577
0.4568 1.0000 0.4507
0.7553 1.0000 0.4438
1.0000 1.0000 0.4368
0.0000 0.0000 0.8602
0.2514 0.0000 0.8532
0.5499 0.0000 0.8463
0.8484 0.0000 0.8393
1.0000 0.0000 0.8324
0.0000 0.2406 0.8363
0.2276 0.2336 0.8294
0.5260 0.2267 0.8224
0.8245 0.2197 0.8154
1.0000 0.2128 0.8085
0.0000 0.5282 0.8124
0.2037 0.5212 0.8055
0.5022 0.5143 0.7985
0.8006 0.5073 0.7916
1.0000 0.5004 0.7846
0.0000 0.8158 0.7886
0.1798 0.8088 0.7816
0.4783 0.8019 0.7747
0.7768 0.7949 0.7677
1.0000 0.7880 0.7608
0.0000 1.0000 0.7647
0.1560 1.0000 0.7578
0.4544 1.0000 0.7508
0.7529 1.0000 0.7438
1.0000 1.0000 0.7369
0.0000 0.0000 1.0000
0.2491 0.0000 1.0000
0.5476 0.0000 1.0000
0.8460 0.0000 1.0000
1.0000 0.0000 1.0000
0.0000 0.2382 1.0000
0.2252 0.2313 1.0000
0.5237 0.2243 1.0000
0.8222 0.2174 1.0000
1.0000 0.2104 1.0000
0.0000 0.5259 1.0000
0.2014 0.5189 1.0000
0.4998 0.5119 1.0000
0.7983 0.5050 1.0000
1.0000 0.4980 1.0000
0.0000 0.8135 1.0000
0.1775 0.8065 1.0000
0.4760 0.7995 1.0000
0.7744 0.7926 1.0000
1.0000 0.7856 1.0000
0.0000 1.0000 1.0000
0.1536 1.0000 1.0000
0.4521 1.0000 1.0000
0.7506 1.0000 1.0000
1.0000 1.0000 1.0000
