public/luts/glow.cube
# edite look: Glow (CC0)
TITLE "Glow"
LUT_3D_SIZE 5
DOMAIN_MIN 0.0 0.0 0.0
DOMAIN_MAX 1.0 1.0 1.0
0.0836 0.0593 0.0497
0.3192 0.0603 0.0507
0.5549 0.0613 0.0517
0.7905 0.0623 0.0527
1.0000 0.0634 0.0538
0.0869 0.2907 0.0530
0.3226 0.2917 0.0540
0.5582 0.2927 0.0551
0.7938 0.2937 0.0561
1.0000 0.2947 0.0571
0.0903 0.5220 0.0563
0.3259 0.5231 0.0574
0.5615 0.5241 0.0584
0.7971 0.5251 0.0594
1.0000 0.5261 0.0604
0.0936 0.7534 0.0597
0.3292 0.7544 0.0607
0.5648 0.7555 0.0617
0.8005 0.7565 0.0627
1.0000 0.7575 0.0637
0.0969 0.9848 0.0630
0.3325 0.9858 0.0640
0.5682 0.9868 0.0650
0.8038 0.9879 0.0661
1.0000 0.9889 0.0671
0.0839 0.0596 0.2713
0.3196 0.0606 0.2723
0.5552 0.0617 0.2733
0.7908 0.0627 0.2744
1.0000 0.0637 0.2754
0.0872 0.2910 0.2746
0.3229 0.2920 0.2757
0.5585 0.2930 0.2767
0.7941 0.2940 0.2777
1.0000 0.2951 0.2787
0.0906 0.5224 0.2780
0.3262 0.5234 0.2790
0.5618 0.5244 0.2800
0.7975 0.5254 0.2810
1.0000 0.5264 0.2820
0.0939 0.7538 0.2813
0.3295 0.7548 0.2823
0.5652 0.7558 0.2833
0.8008 0.7568 0.2844
1.0000 0.7578 0.2854
0.0972 0.9851 0.2846
0.3329 0.9861 0.2856
0.5685 0.9872 0.2867
0.8041 0.9882 0.2877
1.0000 0.9892 0.2887
0.0842 0.0599 0.4929
0.3199 0.0610 0.4940
0.5555 0.0620 0.4950
0.7911 0.0630 0.4960
1.0000 0.0640 0.4970
0.0876 0.2913 0.4963
0.3232 0.2923 0.4973
0.5588 0.2934 0.4983
0.7945 0.2944 0.4993
1.0000 0.2954 0.5003
0.0909 0.5227 0.4996
0.3265 0.5237 0.5006
0.5622 0.5247 0.5016
0.7978 0.5258 0.5026
1.0000 0.5268 0.5037
0.0942 0.7541 0.5029
0.3299 0.7551 0.5039
0.5655 0.7561 0.5050
0.8011 0.7571 0.5060
1.0000 0.7582 0.5070
0.0976 0.9855 0.5063
0.3332 0.9865 0.5073
0.5688 0.9875 0.5083
0.8045 0.9885 0.5093
1.0000 0.9895 0.5103
0.0846 0.0603 0.7146
0.3202 0.0613 0.7156
0.5558 0.0623 0.7166
0.7915 0.0633 0.7176
1.0000 0.0643 0.7186
0.0879 0.2916 0.7179
0.3235 0.2927 0.7189
0.5592 0.2937 0.7199
0.7948 0.2947 0.7209
1.0000 0.2957 0.7220
0.0912 0.5230 0.7212
0.3269 0.5240 0.7222
0.5625 0.5251 0.7233
0.7981 0.5261 0.7243
1.0000 0.5271 0.7253
0.0946 0.7544 0.7246
0.3302 0.7554 0.7256
0.5658 0.7564 0.7266
0.8014 0.7575 0.7276
1.0000 0.7585 0.7286
0.0979 0.9858 0.7279
0.3335 0.9868 0.7289
0.5691 0.9878 0.7299
0.8048 0.9888 0.7309
1.0000 0.9899 0.7320
0.0849 0.0606 0.9362
0.3205 0.0616 0.9372
0.5562 0.0626 0.9382
0.7918 0.0636 0.9392
1.0000 0.0647 0.9403
0.0882 0.2920 0.9395
0.3239 0.2930 0.9405
0.5595 0.2940 0.9416
0.7951 0.2950 0.9426
1.0000 0.2960 0.9436
0.0916 0.5234 0.9428
0.3272 0.5244 0.9439
0.5628 0.5254 0.9449
0.7984 0.5264 0.9459
1.0000 0.5274 0.9469
0.0949 0.7547 0.9462
0.3305 0.7557 0.9472
0.5661 0.7568 0.9482
0.8018 0.7578 0.9492
1.0000 0.7588 0.9502
0.0982 0.9861 0.9495
0.3338 0.9871 0.9505
0.5695 0.9881 0.9515
0.8051 0.9892 0.9526
1.0000 0.9902 0.9536
