public/luts/glow.cube
# edite look: Glow (CC0)
TITLE "Glow"
LUT_3D_SIZE 9
DOMAIN_MIN 0.0 0.0 0.0
DOMAIN_MAX 1.0 1.0 1.0
0.0836 0.0593 0.0497
0.2014 0.0598 0.0502
0.3192 0.0603 0.0507
0.4370 0.0608 0.0512
0.5549 0.0613 0.0517
0.6727 0.0618 0.0522
0.7905 0.0623 0.0527
0.9083 0.0629 0.0533
1.0000 0.0634 0.0538
0.0853 0.1750 0.0514
0.2031 0.1755 0.0519
0.3209 0.1760 0.0524
0.4387 0.1765 0.0529
0.5565 0.1770 0.0534
0.6743 0.1775 0.0539
0.7921 0.1780 0.0544
0.9100 0.1785 0.0549
1.0000 0.1791 0.0554
0.0869 0.2907 0.0530
0.2047 0.2912 0.0535
0.3226 0.2917 0.0540
0.4404 0.2922 0.0545
0.5582 0.2927 0.0551
0.6760 0.2932 0.0556
0.7938 0.2937 0.0561
0.9116 0.2942 0.0566
1.0000 0.2947 0.0571
0.0886 0.4064 0.0547
0.2064 0.4069 0.0552
0.3242 0.4074 0.0557
0.4420 0.4079 0.0562
0.5598 0.4084 0.0567
0.6777 0.4089 0.0572
0.7955 0.4094 0.0577
0.9133 0.4099 0.0582
1.0000 0.4104 0.0588
0.0903 0.5220 0.0563
0.2081 0.5226 0.0569
0.3259 0.5231 0.0574
0.4437 0.5236 0.0579
0.5615 0.5241 0.0584
0.6793 0.5246 0.0589
0.7971 0.5251 0.0594
0.9150 0.5256 0.0599
1.0000 0.5261 0.0604
0.0919 0.6377 0.0580
0.2097 0.6382 0.0585
0.3275 0.6388 0.0590
0.4454 0.6393 0.0595
0.5632 0.6398 0.0600
0.6810 0.6403 0.0606
0.7988 0.6408 0.0611
0.9166 0.6413 0.0616
1.0000 0.6418 0.0621
0.0936 0.7534 0.0597
0.2114 0.7539 0.0602
0.3292 0.7544 0.0607
0.4470 0.7550 0.0612
0.5648 0.7555 0.0617
0.6827 0.7560 0.0622
0.8005 0.7565 0.0627
0.9183 0.7570 0.0632
1.0000 0.7575 0.0637
0.0952 0.8691 0.0613
0.2131 0.8696 0.0618
0.3309 0.8701 0.0624
0.4487 0.8706 0.0629
0.5665 0.8712 0.0634
0.6843 0.8717 0.0639
0.8021 0.8722 0.0644
0.9200 0.8727 0.0649
1.0000 0.8732 0.0654
0.0969 0.9848 0.0630
0.2147 0.9853 0.0635
0.3325 0.9858 0.0640
0.4504 0.9863 0.0645
0.5682 0.9868 0.0650
0.6860 0.9874 0.0655
0.8038 0.9879 0.0661
0.9216 0.9884 0.0666
1.0000 0.9889 0.0671
0.0838 0.0595 0.1605
0.2016 0.0600 0.1610
0.3194 0.0605 0.1615
0.4372 0.0610 0.1620
0.5550 0.0615 0.1625
0.6728 0.0620 0.1630
0.7906 0.0625 0.1636
0.9085 0.0630 0.1641
1.0000 0.0635 0.1646
0.0854 0.1751 0.1622
0.2032 0.1757 0.1627
0.3211 0.1762 0.1632
0.4389 0.1767 0.1637
0.5567 0.1772 0.1642
0.6745 0.1777 0.1647
0.7923 0.1782 0.1652
0.9101 0.1787 0.1657
1.0000 0.1792 0.1662
0.0871 0.2908 0.1638
0.2049 0.2913 0.1643
0.3227 0.2919 0.1648
0.4405 0.2924 0.1654
0.5583 0.2929 0.1659
0.6762 0.2934 0.1664
0.7940 0.2939 0.1669
0.9118 0.2944 0.1674
1.0000 0.2949 0.1679
0.0888 0.4065 0.1655
0.2066 0.4070 0.1660
0.3244 0.4075 0.1665
0.4422 0.4080 0.1670
0.5600 0.4086 0.1675
0.6778 0.4091 0.1680
0.7956 0.4096 0.1685
0.9135 0.4101 0.1691
1.0000 0.4106 0.1696
0.0904 0.5222 0.1672
0.2082 0.5227 0.1677
0.3260 0.5232 0.1682
0.4439 0.5237 0.1687
0.5617 0.5242 0.1692
0.6795 0.5248 0.1697
0.7973 0.5253 0.1702
0.9151 0.5258 0.1707
1.0000 0.5263 0.1712
0.0921 0.6379 0.1688
0.2099 0.6384 0.1693
0.3277 0.6389 0.1698
0.4455 0.6394 0.1703
0.5633 0.6399 0.1709
0.6812 0.6404 0.1714
0.7990 0.6410 0.1719
0.9168 0.6415 0.1724
1.0000 0.6420 0.1729
0.0937 0.7536 0.1705
0.2116 0.7541 0.1710
0.3294 0.7546 0.1715
0.4472 0.7551 0.1720
0.5650 0.7556 0.1725
0.6828 0.7561 0.1730
0.8006 0.7566 0.1735
0.9184 0.7572 0.1740
1.0000 0.7577 0.1746
0.0954 0.8693 0.1722
0.2132 0.8698 0.1727
0.3310 0.8703 0.1732
0.4489 0.8708 0.1737
0.5667 0.8713 0.1742
0.6845 0.8718 0.1747
0.8023 0.8723 0.1752
0.9201 0.8728 0.1757
1.0000 0.8734 0.1762
0.0971 0.9850 0.1738
0.2149 0.9855 0.1743
0.3327 0.9860 0.1748
0.4505 0.9865 0.1753
0.5683 0.9870 0.1759
0.6861 0.9875 0.1764
0.8040 0.9880 0.1769
0.9218 0.9885 0.1774
1.0000 0.9890 0.1779
0.0839 0.0596 0.2713
0.2017 0.0601 0.2718
0.3196 0.0606 0.2723
0.4374 0.0611 0.2728
0.5552 0.0617 0.2733
0.6730 0.0622 0.2739
0.7908 0.0627 0.2744
0.9086 0.0632 0.2749
1.0000 0.0637 0.2754
0.0856 0.1753 0.2730
0.2034 0.1758 0.2735
0.3212 0.1763 0.2740
0.4390 0.1768 0.2745
0.5568 0.1773 0.2750
0.6747 0.1779 0.2755
0.7925 0.1784 0.2760
0.9103 0.1789 0.2765
1.0000 0.1794 0.2770
0.0872 0.2910 0.2746
0.2051 0.2915 0.2752
0.3229 0.2920 0.2757
0.4407 0.2925 0.2762
0.5585 0.2930 0.2767
0.6763 0.2935 0.2772
0.7941 0.2940 0.2777
0.9120 0.2946 0.2782
1.0000 0.2951 0.2787
0.0889 0.4067 0.2763
0.2067 0.4072 0.2768
0.3245 0.4077 0.2773
0.4424 0.4082 0.2778
0.5602 0.4087 0.2783
0.6780 0.4092 0.2789
0.7958 0.4097 0.2794
0.9136 0.4102 0.2799
1.0000 0.4108 0.2804
0.0906 0.5224 0.2780
0.2084 0.5229 0.2785
0.3262 0.5234 0.2790
0.4440 0.5239 0.2795
0.5618 0.5244 0.2800
0.6797 0.5249 0.2805
0.7975 0.5254 0.2810
0.9153 0.5259 0.2815
1.0000 0.5264 0.2820
0.0922 0.6381 0.2796
0.2101 0.6386 0.2801
0.3279 0.6391 0.2807
0.4457 0.6396 0.2812
0.5635 0.6401 0.2817
0.6813 0.6406 0.2822
0.7991 0.6411 0.2827
0.9169 0.6416 0.2832
1.0000 0.6421 0.2837
0.0939 0.7538 0.2813
0.2117 0.7543 0.2818
0.3295 0.7548 0.2823
0.4474 0.7553 0.2828
0.5652 0.7558 0.2833
0.6830 0.7563 0.2838
0.8008 0.7568 0.2844
0.9186 0.7573 0.2849
1.0000 0.7578 0.2854
0.0956 0.8694 0.2830
0.2134 0.8700 0.2835
0.3312 0.8705 0.2840
0.4490 0.8710 0.2845
0.5668 0.8715 0.2850
0.6846 0.8720 0.2855
0.8025 0.8725 0.2860
0.9203 0.8730 0.2865
1.0000 0.8735 0.2870
0.0972 0.9851 0.2846
0.2151 0.9856 0.2851
0.3329 0.9861 0.2856
0.4507 0.9867 0.2862
0.5685 0.9872 0.2867
0.6863 0.9877 0.2872
0.8041 0.9882 0.2877
0.9219 0.9887 0.2882
1.0000 0.9892 0.2887
0.0841 0.0598 0.3821
0.2019 0.0603 0.3826
0.3197 0.0608 0.3831
0.4375 0.0613 0.3837
0.5553 0.0618 0.3842
0.6732 0.0623 0.3847
0.7910 0.0628 0.3852
0.9088 0.0633 0.3857
1.0000 0.0639 0.3862
0.0857 0.1755 0.3838
0.2036 0.1760 0.3843
0.3214 0.1765 0.3848
0.4392 0.1770 0.3853
0.5570 0.1775 0.3858
0.6748 0.1780 0.3863
0.7926 0.1785 0.3868
0.9105 0.1790 0.3874
1.0000 0.1795 0.3879
0.0874 0.2912 0.3855
0.2052 0.2917 0.3860
0.3230 0.2922 0.3865
0.4409 0.2927 0.3870
0.5587 0.2932 0.3875
0.6765 0.2937 0.3880
0.7943 0.2942 0.3885
0.9121 0.2947 0.3890
1.0000 0.2952 0.3895
0.0891 0.4068 0.3871
0.2069 0.4074 0.3876
0.3247 0.4079 0.3881
0.4425 0.4084 0.3886
0.5603 0.4089 0.3892
0.6782 0.4094 0.3897
0.7960 0.4099 0.3902
0.9138 0.4104 0.3907
1.0000 0.4109 0.3912
0.0907 0.5225 0.3888
0.2086 0.5230 0.3893
0.3264 0.5236 0.3898
0.4442 0.5241 0.3903
0.5620 0.5246 0.3908
0.6798 0.5251 0.3913
0.7976 0.5256 0.3918
0.9154 0.5261 0.3923
1.0000 0.5266 0.3929
0.0924 0.6382 0.3904
0.2102 0.6387 0.3910
0.3280 0.6392 0.3915
0.4459 0.6398 0.3920
0.5637 0.6403 0.3925
0.6815 0.6408 0.3930
0.7993 0.6413 0.3935
0.9171 0.6418 0.3940
1.0000 0.6423 0.3945
0.0941 0.7539 0.3921
0.2119 0.7544 0.3926
0.3297 0.7549 0.3931
0.4475 0.7554 0.3936
0.5653 0.7560 0.3941
0.6831 0.7565 0.3947
0.8010 0.7570 0.3952
0.9188 0.7575 0.3957
1.0000 0.7580 0.3962
0.0957 0.8696 0.3938
0.2135 0.8701 0.3943
0.3314 0.8706 0.3948
0.4492 0.8711 0.3953
0.5670 0.8716 0.3958
0.6848 0.8722 0.3963
0.8026 0.8727 0.3968
0.9204 0.8732 0.3973
1.0000 0.8737 0.3978
0.0974 0.9853 0.3954
0.2152 0.9858 0.3959
0.3330 0.9863 0.3965
0.4508 0.9868 0.3970
0.5687 0.9873 0.3975
0.6865 0.9878 0.3980
0.8043 0.9883 0.3985
0.9221 0.9889 0.3990
1.0000 0.9894 0.3995
0.0842 0.0599 0.4929
0.2021 0.0605 0.4934
0.3199 0.0610 0.4940
0.4377 0.0615 0.4945
0.5555 0.0620 0.4950
0.6733 0.0625 0.4955
0.7911 0.0630 0.4960
0.9090 0.0635 0.4965
1.0000 0.0640 0.4970
0.0859 0.1756 0.4946
0.2037 0.1761 0.4951
0.3215 0.1767 0.4956
0.4394 0.1772 0.4961
0.5572 0.1777 0.4966
0.6750 0.1782 0.4971
0.7928 0.1787 0.4977
0.9106 0.1792 0.4982
1.0000 0.1797 0.4987
0.0876 0.2913 0.4963
0.2054 0.2918 0.4968
0.3232 0.2923 0.4973
0.4410 0.2928 0.4978
0.5588 0.2934 0.4983
0.6767 0.2939 0.4988
0.7945 0.2944 0.4993
0.9123 0.2949 0.4998
1.0000 0.2954 0.5003
0.0892 0.4070 0.4979
0.2071 0.4075 0.4984
0.3249 0.4080 0.4989
0.4427 0.4085 0.4995
0.5605 0.4090 0.5000
0.6783 0.4096 0.5005
0.7961 0.4101 0.5010
0.9139 0.4106 0.5015
1.0000 0.4111 0.5020
0.0909 0.5227 0.4996
0.2087 0.5232 0.5001
0.3265 0.5237 0.5006
0.4443 0.5242 0.5011
0.5622 0.5247 0.5016
0.6800 0.5252 0.5021
0.7978 0.5258 0.5026
0.9156 0.5263 0.5032
1.0000 0.5268 0.5037
0.0926 0.6384 0.5013
0.2104 0.6389 0.5018
0.3282 0.6394 0.5023
0.4460 0.6399 0.5028
0.5638 0.6404 0.5033
0.6816 0.6409 0.5038
0.7995 0.6414 0.5043
0.9173 0.6420 0.5048
1.0000 0.6425 0.5053
0.0942 0.7541 0.5029
0.2120 0.7546 0.5034
0.3299 0.7551 0.5039
0.4477 0.7556 0.5045
0.5655 0.7561 0.5050
0.6833 0.7566 0.5055
0.8011 0.7571 0.5060
0.9189 0.7576 0.5065
1.0000 0.7582 0.5070
0.0959 0.8698 0.5046
0.2137 0.8703 0.5051
0.3315 0.8708 0.5056
0.4493 0.8713 0.5061
0.5672 0.8718 0.5066
0.6850 0.8723 0.5071
0.8028 0.8728 0.5076
0.9206 0.8733 0.5082
1.0000 0.8738 0.5087
0.0976 0.9855 0.5063
0.2154 0.9860 0.5068
0.3332 0.9865 0.5073
0.4510 0.9870 0.5078
0.5688 0.9875 0.5083
0.6866 0.9880 0.5088
0.8045 0.9885 0.5093
0.9223 0.9890 0.5098
1.0000 0.9895 0.5103
0.0844 0.0601 0.6038
0.2022 0.0606 0.6043
0.3200 0.0611 0.6048
0.4379 0.0616 0.6053
0.5557 0.0621 0.6058
0.6735 0.0627 0.6063
0.7913 0.0632 0.6068
0.9091 0.0637 0.6073
1.0000 0.0642 0.6078
0.0861 0.1758 0.6054
0.2039 0.1763 0.6059
0.3217 0.1768 0.6064
0.4395 0.1773 0.6069
0.5573 0.1778 0.6075
0.6751 0.1783 0.6080
0.7930 0.1788 0.6085
0.9108 0.1794 0.6090
1.0000 0.1799 0.6095
0.0877 0.2915 0.6071
0.2056 0.2920 0.6076
0.3234 0.2925 0.6081
0.4412 0.2930 0.6086
0.5590 0.2935 0.6091
0.6768 0.2940 0.6096
0.7946 0.2945 0.6101
0.9124 0.2950 0.6106
1.0000 0.2956 0.6112
0.0894 0.4072 0.6087
0.2072 0.4077 0.6093
0.3250 0.4082 0.6098
0.4428 0.4087 0.6103
0.5607 0.4092 0.6108
0.6785 0.4097 0.6113
0.7963 0.4102 0.6118
0.9141 0.4107 0.6123
1.0000 0.4112 0.6128
0.0911 0.5229 0.6104
0.2089 0.5234 0.6109
0.3267 0.5239 0.6114
0.4445 0.5244 0.6119
0.5623 0.5249 0.6124
0.6801 0.5254 0.6130
0.7980 0.5259 0.6135
0.9158 0.5264 0.6140
1.0000 0.5269 0.6145
0.0927 0.6386 0.6121
0.2105 0.6391 0.6126
0.3284 0.6396 0.6131
0.4462 0.6401 0.6136
0.5640 0.6406 0.6141
0.6818 0.6411 0.6146
0.7996 0.6416 0.6151
0.9174 0.6421 0.6156
1.0000 0.6426 0.6161
0.0944 0.7542 0.6137
0.2122 0.7548 0.6142
0.3300 0.7553 0.6148
0.4478 0.7558 0.6153
0.5657 0.7563 0.6158
0.6835 0.7568 0.6163
0.8013 0.7573 0.6168
0.9191 0.7578 0.6173
1.0000 0.7583 0.6178
0.0961 0.8699 0.6154
0.2139 0.8704 0.6159
0.3317 0.8709 0.6164
0.4495 0.8715 0.6169
0.5673 0.8720 0.6174
0.6851 0.8725 0.6179
0.8030 0.8730 0.6185
0.9208 0.8735 0.6190
1.0000 0.8740 0.6195
0.0977 0.9856 0.6171
0.2155 0.9861 0.6176
0.3334 0.9866 0.6181
0.4512 0.9871 0.6186
0.5690 0.9877 0.6191
0.6868 0.9882 0.6196
0.8046 0.9887 0.6201
0.9224 0.9892 0.6206
1.0000 0.9897 0.6211
0.0846 0.0603 0.7146
0.2024 0.0608 0.7151
0.3202 0.0613 0.7156
0.4380 0.0618 0.7161
0.5558 0.0623 0.7166
0.6736 0.0628 0.7171
0.7915 0.0633 0.7176
0.9093 0.0638 0.7181
1.0000 0.0643 0.7186
0.0862 0.1760 0.7162
0.2041 0.1765 0.7167
0.3219 0.1770 0.7172
0.4397 0.1775 0.7178
0.5575 0.1780 0.7183
0.6753 0.1785 0.7188
0.7931 0.1790 0.7193
0.9109 0.1795 0.7198
1.0000 0.1800 0.7203
0.0879 0.2916 0.7179
0.2057 0.2922 0.7184
0.3235 0.2927 0.7189
0.4413 0.2932 0.7194
0.5592 0.2937 0.7199
0.6770 0.2942 0.7204
0.7948 0.2947 0.7209
0.9126 0.2952 0.7215
1.0000 0.2957 0.7220
0.0896 0.4073 0.7196
0.2074 0.4078 0.7201
0.3252 0.4084 0.7206
0.4430 0.4089 0.7211
0.5608 0.4094 0.7216
0.6786 0.4099 0.7221
0.7965 0.4104 0.7226
0.9143 0.4109 0.7231
1.0000 0.4114 0.7236
0.0912 0.5230 0.7212
0.2090 0.5235 0.7217
0.3269 0.5240 0.7222
0.4447 0.5246 0.7227
0.5625 0.5251 0.7233
0.6803 0.5256 0.7238
0.7981 0.5261 0.7243
0.9159 0.5266 0.7248
1.0000 0.5271 0.7253
0.0929 0.6387 0.7229
0.2107 0.6392 0.7234
0.3285 0.6397 0.7239
0.4463 0.6402 0.7244
0.5642 0.6408 0.7249
0.6820 0.6413 0.7254
0.7998 0.6418 0.7259
0.9176 0.6423 0.7264
1.0000 0.6428 0.7270
0.0946 0.7544 0.7246
0.2124 0.7549 0.7251
0.3302 0.7554 0.7256
0.4480 0.7559 0.7261
0.5658 0.7564 0.7266
0.6836 0.7569 0.7271
0.8014 0.7575 0.7276
0.9193 0.7580 0.7281
1.0000 0.7585 0.7286
0.0962 0.8701 0.7262
0.2140 0.8706 0.7267
0.3319 0.8711 0.7272
0.4497 0.8716 0.7277
0.5675 0.8721 0.7283
0.6853 0.8726 0.7288
0.8031 0.8731 0.7293
0.9209 0.8737 0.7298
1.0000 0.8742 0.7303
0.0979 0.9858 0.7279
0.2157 0.9863 0.7284
0.3335 0.9868 0.7289
0.4513 0.9873 0.7294
0.5691 0.9878 0.7299
0.6870 0.9883 0.7304
0.8048 0.9888 0.7309
0.9226 0.9893 0.7314
1.0000 0.9899 0.7320
0.0847 0.0604 0.8254
0.2026 0.0609 0.8259
0.3204 0.0615 0.8264
0.4382 0.0620 0.8269
0.5560 0.0625 0.8274
0.6738 0.0630 0.8279
0.7916 0.0635 0.8284
0.9094 0.0640 0.8289
1.0000 0.0645 0.8294
0.0864 0.1761 0.8270
0.2042 0.1766 0.8276
0.3220 0.1771 0.8281
0.4398 0.1776 0.8286
0.5577 0.1782 0.8291
0.6755 0.1787 0.8296
0.7933 0.1792 0.8301
0.9111 0.1797 0.8306
1.0000 0.1802 0.8311
0.0881 0.2918 0.8287
0.2059 0.2923 0.8292
0.3237 0.2928 0.8297
0.4415 0.2933 0.8302
0.5593 0.2938 0.8307
0.6771 0.2944 0.8313
0.7950 0.2949 0.8318
0.9128 0.2954 0.8323
1.0000 0.2959 0.8328
0.0897 0.4075 0.8304
0.2075 0.4080 0.8309
0.3254 0.4085 0.8314
0.4432 0.4090 0.8319
0.5610 0.4095 0.8324
0.6788 0.4100 0.8329
0.7966 0.4106 0.8334
0.9144 0.4111 0.8339
1.0000 0.4116 0.8344
0.0914 0.5232 0.8320
0.2092 0.5237 0.8325
0.3270 0.5242 0.8331
0.4448 0.5247 0.8336
0.5627 0.5252 0.8341
0.6805 0.5257 0.8346
0.7983 0.5262 0.8351
0.9161 0.5268 0.8356
1.0000 0.5273 0.8361
0.0931 0.6389 0.8337
0.2109 0.6394 0.8342
0.3287 0.6399 0.8347
0.4465 0.6404 0.8352
0.5643 0.6409 0.8357
0.6821 0.6414 0.8362
0.7999 0.6419 0.8368
0.9178 0.6424 0.8373
1.0000 0.6430 0.8378
0.0947 0.7546 0.8354
0.2125 0.7551 0.8359
0.3304 0.7556 0.8364
0.4482 0.7561 0.8369
0.5660 0.7566 0.8374
0.6838 0.7571 0.8379
0.8016 0.7576 0.8384
0.9194 0.7581 0.8389
1.0000 0.7586 0.8394
0.0964 0.8703 0.8370
0.2142 0.8708 0.8375
0.3320 0.8713 0.8380
0.4498 0.8718 0.8386
0.5676 0.8723 0.8391
0.6855 0.8728 0.8396
0.8033 0.8733 0.8401
0.9211 0.8738 0.8406
1.0000 0.8743 0.8411
0.0981 0.9859 0.8387
0.2159 0.9865 0.8392
0.3337 0.9870 0.8397
0.4515 0.9875 0.8402
0.5693 0.9880 0.8407
0.6871 0.9885 0.8412
0.8049 0.9890 0.8417
0.9228 0.9895 0.8423
1.0000 0.9900 0.8428
0.0849 0.0606 0.9362
0.2027 0.0611 0.9367
0.3205 0.0616 0.9372
0.4383 0.0621 0.9377
0.5562 0.0626 0.9382
0.6740 0.0631 0.9387
0.7918 0.0636 0.9392
0.9096 0.0642 0.9398
1.0000 0.0647 0.9403
0.0866 0.1763 0.9379
0.2044 0.1768 0.9384
0.3222 0.1773 0.9389
0.4400 0.1778 0.9394
0.5578 0.1783 0.9399
0.6756 0.1788 0.9404
0.7935 0.1793 0.9409
0.9113 0.1798 0.9414
1.0000 0.1804 0.9419
0.0882 0.2920 0.9395
0.2060 0.2925 0.9400
0.3239 0.2930 0.9405
0.4417 0.2935 0.9410
0.5595 0.2940 0.9416
0.6773 0.2945 0.9421
0.7951 0.2950 0.9426
0.9129 0.2955 0.9431
1.0000 0.2960 0.9436
0.0899 0.4077 0.9412
0.2077 0.4082 0.9417
0.3255 0.4087 0.9422
0.4433 0.4092 0.9427
0.5612 0.4097 0.9432
0.6790 0.4102 0.9437
0.7968 0.4107 0.9442
0.9146 0.4112 0.9447
1.0000 0.4117 0.9453
0.0916 0.5234 0.9428
0.2094 0.5239 0.9434
0.3272 0.5244 0.9439
0.4450 0.5249 0.9444
0.5628 0.5254 0.9449
0.6806 0.5259 0.9454
0.7984 0.5264 0.9459
0.9163 0.5269 0.9464
1.0000 0.5274 0.9469
0.0932 0.6390 0.9445
0.2110 0.6396 0.9450
0.3289 0.6401 0.9455
0.4467 0.6406 0.9460
0.5645 0.6411 0.9465
0.6823 0.6416 0.9471
0.8001 0.6421 0.9476
0.9179 0.6426 0.9481
1.0000 0.6431 0.9486
0.0949 0.7547 0.9462
0.2127 0.7552 0.9467
0.3305 0.7557 0.9472
0.4483 0.7563 0.9477
0.5661 0.7568 0.9482
0.6840 0.7573 0.9487
0.8018 0.7578 0.9492
0.9196 0.7583 0.9497
1.0000 0.7588 0.9502
0.0965 0.8704 0.9478
0.2144 0.8709 0.9483
0.3322 0.8714 0.9489
0.4500 0.8719 0.9494
0.5678 0.8725 0.9499
0.6856 0.8730 0.9504
0.8034 0.8735 0.9509
0.9213 0.8740 0.9514
1.0000 0.8745 0.9519
0.0982 0.9861 0.9495
0.2160 0.9866 0.9500
0.3338 0.9871 0.9505
0.4517 0.9876 0.9510
0.5695 0.9881 0.9515
0.6873 0.9887 0.9520
0.8051 0.9892 0.9526
0.9229 0.9897 0.9531
1.0000 0.9902 0.9536
