public/luts/glow.cube
# edite look: Glow (CC0)
TITLE "Glow"
LUT_3D_SIZE 17
DOMAIN_MIN 0.0 0.0 0.0
DOMAIN_MAX 1.0 1.0 1.0
0.0836 0.0593 0.0497
0.1425 0.0595 0.0499
0.2014 0.0598 0.0502
0.2603 0.0601 0.0505
0.3192 0.0603 0.0507
0.3781 0.0606 0.0510
0.4370 0.0608 0.0512
0.4959 0.0611 0.0515
0.5549 0.0613 0.0517
0.6138 0.0616 0.0520
0.6727 0.0618 0.0522
0.7316 0.0621 0.0525
0.7905 0.0623 0.0527
0.8494 0.0626 0.0530
0.9083 0.0629 0.0533
0.9672 0.0631 0.0535
1.0000 0.0634 0.0538
0.0844 0.1171 0.0505
0.1433 0.1174 0.0508
0.2022 0.1176 0.0510
0.2611 0.1179 0.0513
0.3201 0.1182 0.0515
0.3790 0.1184 0.0518
0.4379 0.1187 0.0520
0.4968 0.1189 0.0523
0.5557 0.1192 0.0526
0.6146 0.1194 0.0528
0.6735 0.1197 0.0531
0.7324 0.1199 0.0533
0.7913 0.1202 0.0536
0.8502 0.1204 0.0538
0.9091 0.1207 0.0541
0.9680 0.1210 0.0543
1.0000 0.1212 0.0546
0.0853 0.1750 0.0514
0.1442 0.1752 0.0516
0.2031 0.1755 0.0519
0.2620 0.1757 0.0521
0.3209 0.1760 0.0524
0.3798 0.1763 0.0526
0.4387 0.1765 0.0529
0.4976 0.1768 0.0531
0.5565 0.1770 0.0534
0.6154 0.1773 0.0536
0.6743 0.1775 0.0539
0.7332 0.1778 0.0542
0.7921 0.1780 0.0544
0.8511 0.1783 0.0547
0.9100 0.1785 0.0549
0.9689 0.1788 0.0552
1.0000 0.1791 0.0554
0.0861 0.2328 0.0522
0.1450 0.2331 0.0524
0.2039 0.2333 0.0527
0.2628 0.2336 0.0529
0.3217 0.2338 0.0532
0.3806 0.2341 0.0535
0.4395 0.2344 0.0537
0.4984 0.2346 0.0540
0.5574 0.2349 0.0542
0.6163 0.2351 0.0545
0.6752 0.2354 0.0547
0.7341 0.2356 0.0550
0.7930 0.2359 0.0552
0.8519 0.2361 0.0555
0.9108 0.2364 0.0557
0.9697 0.2366 0.0560
1.0000 0.2369 0.0563
0.0869 0.2907 0.0530
0.1458 0.2909 0.0533
0.2047 0.2912 0.0535
0.2636 0.2914 0.0538
0.3226 0.2917 0.0540
0.3815 0.2919 0.0543
0.4404 0.2922 0.0545
0.4993 0.2925 0.0548
0.5582 0.2927 0.0551
0.6171 0.2930 0.0553
0.6760 0.2932 0.0556
0.7349 0.2935 0.0558
0.7938 0.2937 0.0561
0.8527 0.2940 0.0563
0.9116 0.2942 0.0566
0.9705 0.2945 0.0568
1.0000 0.2947 0.0571
0.0878 0.3485 0.0538
0.1467 0.3488 0.0541
0.2056 0.3490 0.0544
0.2645 0.3493 0.0546
0.3234 0.3495 0.0549
0.3823 0.3498 0.0551
0.4412 0.3500 0.0554
0.5001 0.3503 0.0556
0.5590 0.3506 0.0559
0.6179 0.3508 0.0561
0.6768 0.3511 0.0564
0.7357 0.3513 0.0566
0.7946 0.3516 0.0569
0.8536 0.3518 0.0572
0.9125 0.3521 0.0574
0.9714 0.3523 0.0577
1.0000 0.3526 0.0579
0.0886 0.4064 0.0547
0.1475 0.4066 0.0549
0.2064 0.4069 0.0552
0.2653 0.4071 0.0554
0.3242 0.4074 0.0557
0.3831 0.4076 0.0560
0.4420 0.4079 0.0562
0.5009 0.4081 0.0565
0.5598 0.4084 0.0567
0.6188 0.4086 0.0570
0.6777 0.4089 0.0572
0.7366 0.4092 0.0575
0.7955 0.4094 0.0577
0.8544 0.4097 0.0580
0.9133 0.4099 0.0582
0.9722 0.4102 0.0585
1.0000 0.4104 0.0588
0.0894 0.4642 0.0555
0.1483 0.4645 0.0558
0.2072 0.4647 0.0560
0.2661 0.4650 0.0563
0.3251 0.4652 0.0565
0.3840 0.4655 0.0568
0.4429 0.4657 0.0570
0.5018 0.4660 0.0573
0.5607 0.4662 0.0575
0.6196 0.4665 0.0578
0.6785 0.4667 0.0581
0.7374 0.4670 0.0583
0.7963 0.4673 0.0586
0.8552 0.4675 0.0588
0.9141 0.4678 0.0591
0.9730 0.4680 0.0593
1.0000 0.4683 0.0596
0.0903 0.5220 0.0563
0.1492 0.5223 0.0566
0.2081 0.5226 0.0569
0.2670 0.5228 0.0571
0.3259 0.5231 0.0574
0.3848 0.5233 0.0576
0.4437 0.5236 0.0579
0.5026 0.5238 0.0581
0.5615 0.5241 0.0584
0.6204 0.5243 0.0586
0.6793 0.5246 0.0589
0.7382 0.5248 0.0591
0.7971 0.5251 0.0594
0.8560 0.5254 0.0597
0.9150 0.5256 0.0599
0.9739 0.5259 0.0602
1.0000 0.5261 0.0604
0.0911 0.5799 0.0572
0.1500 0.5801 0.0574
0.2089 0.5804 0.0577
0.2678 0.5807 0.0579
0.3267 0.5809 0.0582
0.3856 0.5812 0.0584
0.4445 0.5814 0.0587
0.5034 0.5817 0.0590
0.5623 0.5819 0.0592
0.6213 0.5822 0.0595
0.6802 0.5824 0.0597
0.7391 0.5827 0.0600
0.7980 0.5829 0.0602
0.8569 0.5832 0.0605
0.9158 0.5835 0.0607
0.9747 0.5837 0.0610
1.0000 0.5840 0.0612
0.0919 0.6377 0.0580
0.1508 0.6380 0.0583
0.2097 0.6382 0.0585
0.2686 0.6385 0.0588
0.3275 0.6388 0.0590
0.3865 0.6390 0.0593
0.4454 0.6393 0.0595
0.5043 0.6395 0.0598
0.5632 0.6398 0.0600
0.6221 0.6400 0.0603
0.6810 0.6403 0.0606
0.7399 0.6405 0.0608
0.7988 0.6408 0.0611
0.8577 0.6410 0.0613
0.9166 0.6413 0.0616
0.9755 0.6416 0.0618
1.0000 0.6418 0.0621
0.0927 0.6956 0.0588
0.1517 0.6958 0.0591
0.2106 0.6961 0.0593
0.2695 0.6963 0.0596
0.3284 0.6966 0.0599
0.3873 0.6969 0.0601
0.4462 0.6971 0.0604
0.5051 0.6974 0.0606
0.5640 0.6976 0.0609
0.6229 0.6979 0.0611
0.6818 0.6981 0.0614
0.7407 0.6984 0.0616
0.7996 0.6986 0.0619
0.8585 0.6989 0.0621
0.9175 0.6991 0.0624
0.9764 0.6994 0.0627
1.0000 0.6997 0.0629
0.0936 0.7534 0.0597
0.1525 0.7537 0.0599
0.2114 0.7539 0.0602
0.2703 0.7542 0.0604
0.3292 0.7544 0.0607
0.3881 0.7547 0.0609
0.4470 0.7550 0.0612
0.5059 0.7552 0.0615
0.5648 0.7555 0.0617
0.6237 0.7557 0.0620
0.6827 0.7560 0.0622
0.7416 0.7562 0.0625
0.8005 0.7565 0.0627
0.8594 0.7567 0.0630
0.9183 0.7570 0.0632
0.9772 0.7572 0.0635
1.0000 0.7575 0.0637
0.0944 0.8113 0.0605
0.1533 0.8115 0.0608
0.2122 0.8118 0.0610
0.2711 0.8120 0.0613
0.3300 0.8123 0.0615
0.3890 0.8125 0.0618
0.4479 0.8128 0.0620
0.5068 0.8131 0.0623
0.5657 0.8133 0.0625
0.6246 0.8136 0.0628
0.6835 0.8138 0.0631
0.7424 0.8141 0.0633
0.8013 0.8143 0.0636
0.8602 0.8146 0.0638
0.9191 0.8148 0.0641
0.9780 0.8151 0.0643
1.0000 0.8153 0.0646
0.0952 0.8691 0.0613
0.1542 0.8694 0.0616
0.2131 0.8696 0.0618
0.2720 0.8699 0.0621
0.3309 0.8701 0.0624
0.3898 0.8704 0.0626
0.4487 0.8706 0.0629
0.5076 0.8709 0.0631
0.5665 0.8712 0.0634
0.6254 0.8714 0.0636
0.6843 0.8717 0.0639
0.7432 0.8719 0.0641
0.8021 0.8722 0.0644
0.8610 0.8724 0.0646
0.9200 0.8727 0.0649
0.9789 0.8729 0.0652
1.0000 0.8732 0.0654
0.0961 0.9270 0.0622
0.1550 0.9272 0.0624
0.2139 0.9275 0.0627
0.2728 0.9277 0.0629
0.3317 0.9280 0.0632
0.3906 0.9282 0.0634
0.4495 0.9285 0.0637
0.5084 0.9287 0.0640
0.5673 0.9290 0.0642
0.6262 0.9293 0.0645
0.6852 0.9295 0.0647
0.7441 0.9298 0.0650
0.8030 0.9300 0.0652
0.8619 0.9303 0.0655
0.9208 0.9305 0.0657
0.9797 0.9308 0.0660
1.0000 0.9310 0.0662
0.0969 0.9848 0.0630
0.1558 0.9851 0.0633
0.2147 0.9853 0.0635
0.2736 0.9856 0.0638
0.3325 0.9858 0.0640
0.3914 0.9861 0.0643
0.4504 0.9863 0.0645
0.5093 0.9866 0.0648
0.5682 0.9868 0.0650
0.6271 0.9871 0.0653
0.6860 0.9874 0.0655
0.7449 0.9876 0.0658
0.8038 0.9879 0.0661
0.8627 0.9881 0.0663
0.9216 0.9884 0.0666
0.9805 0.9886 0.0668
1.0000 0.9889 0.0671
0.0837 0.0594 0.1051
0.1426 0.0596 0.1053
0.2015 0.0599 0.1056
0.2604 0.0601 0.1059
0.3193 0.0604 0.1061
0.3782 0.0606 0.1064
0.4371 0.0609 0.1066
0.4960 0.0612 0.1069
0.5549 0.0614 0.1071
0.6138 0.0617 0.1074
0.6728 0.0619 0.1076
0.7317 0.0622 0.1079
0.7906 0.0624 0.1081
0.8495 0.0627 0.1084
0.9084 0.0629 0.1087
0.9673 0.0632 0.1089
1.0000 0.0634 0.1092
0.0845 0.1172 0.1059
0.1434 0.1175 0.1062
0.2023 0.1177 0.1064
0.2612 0.1180 0.1067
0.3201 0.1182 0.1069
0.3790 0.1185 0.1072
0.4380 0.1187 0.1075
0.4969 0.1190 0.1077
0.5558 0.1193 0.1080
0.6147 0.1195 0.1082
0.6736 0.1198 0.1085
0.7325 0.1200 0.1087
0.7914 0.1203 0.1090
0.8503 0.1205 0.1092
0.9092 0.1208 0.1095
0.9681 0.1210 0.1097
1.0000 0.1213 0.1100
0.0853 0.1751 0.1068
0.1442 0.1753 0.1070
0.2032 0.1756 0.1073
0.2621 0.1758 0.1075
0.3210 0.1761 0.1078
0.3799 0.1763 0.1080
0.4388 0.1766 0.1083
0.4977 0.1768 0.1085
0.5566 0.1771 0.1088
0.6155 0.1774 0.1090
0.6744 0.1776 0.1093
0.7333 0.1779 0.1096
0.7922 0.1781 0.1098
0.8511 0.1784 0.1101
0.9100 0.1786 0.1103
0.9690 0.1789 0.1106
1.0000 0.1791 0.1108
0.0862 0.2329 0.1076
0.1451 0.2332 0.1078
0.2040 0.2334 0.1081
0.2629 0.2337 0.1084
0.3218 0.2339 0.1086
0.3807 0.2342 0.1089
0.4396 0.2344 0.1091
0.4985 0.2347 0.1094
0.5574 0.2349 0.1096
0.6163 0.2352 0.1099
0.6752 0.2355 0.1101
0.7342 0.2357 0.1104
0.7931 0.2360 0.1106
0.8520 0.2362 0.1109
0.9109 0.2365 0.1112
0.9698 0.2367 0.1114
1.0000 0.2370 0.1117
0.0870 0.2908 0.1084
0.1459 0.2910 0.1087
0.2048 0.2913 0.1089
0.2637 0.2915 0.1092
0.3226 0.2918 0.1094
0.3815 0.2920 0.1097
0.4405 0.2923 0.1099
0.4994 0.2925 0.1102
0.5583 0.2928 0.1105
0.6172 0.2930 0.1107
0.6761 0.2933 0.1110
0.7350 0.2936 0.1112
0.7939 0.2938 0.1115
0.8528 0.2941 0.1117
0.9117 0.2943 0.1120
0.9706 0.2946 0.1122
1.0000 0.2948 0.1125
0.0878 0.3486 0.1093
0.1467 0.3489 0.1095
0.2057 0.3491 0.1098
0.2646 0.3494 0.1100
0.3235 0.3496 0.1103
0.3824 0.3499 0.1105
0.4413 0.3501 0.1108
0.5002 0.3504 0.1110
0.5591 0.3506 0.1113
0.6180 0.3509 0.1115
0.6769 0.3511 0.1118
0.7358 0.3514 0.1121
0.7947 0.3516 0.1123
0.8536 0.3519 0.1126
0.9125 0.3522 0.1128
0.9714 0.3524 0.1131
1.0000 0.3527 0.1133
0.0887 0.4064 0.1101
0.1476 0.4067 0.1103
0.2065 0.4069 0.1106
0.2654 0.4072 0.1109
0.3243 0.4075 0.1111
0.3832 0.4077 0.1114
0.4421 0.4080 0.1116
0.5010 0.4082 0.1119
0.5599 0.4085 0.1121
0.6188 0.4087 0.1124
0.6777 0.4090 0.1126
0.7367 0.4092 0.1129
0.7956 0.4095 0.1131
0.8545 0.4097 0.1134
0.9134 0.4100 0.1136
0.9723 0.4103 0.1139
1.0000 0.4105 0.1142
0.0895 0.4643 0.1109
0.1484 0.4645 0.1112
0.2073 0.4648 0.1114
0.2662 0.4650 0.1117
0.3251 0.4653 0.1119
0.3840 0.4656 0.1122
0.4429 0.4658 0.1124
0.5019 0.4661 0.1127
0.5608 0.4663 0.1130
0.6197 0.4666 0.1132
0.6786 0.4668 0.1135
0.7375 0.4671 0.1137
0.7964 0.4673 0.1140
0.8553 0.4676 0.1142
0.9142 0.4678 0.1145
0.9731 0.4681 0.1147
1.0000 0.4684 0.1150
0.0903 0.5221 0.1118
0.1492 0.5224 0.1120
0.2081 0.5226 0.1123
0.2671 0.5229 0.1125
0.3260 0.5231 0.1128
0.3849 0.5234 0.1130
0.4438 0.5237 0.1133
0.5027 0.5239 0.1135
0.5616 0.5242 0.1138
0.6205 0.5244 0.1140
0.6794 0.5247 0.1143
0.7383 0.5249 0.1146
0.7972 0.5252 0.1148
0.8561 0.5254 0.1151
0.9150 0.5257 0.1153
0.9739 0.5259 0.1156
1.0000 0.5262 0.1158
0.0912 0.5800 0.1126
0.1501 0.5802 0.1128
0.2090 0.5805 0.1131
0.2679 0.5807 0.1133
0.3268 0.5810 0.1136
0.3857 0.5812 0.1139
0.4446 0.5815 0.1141
0.5035 0.5818 0.1144
0.5624 0.5820 0.1146
0.6213 0.5823 0.1149
0.6802 0.5825 0.1151
0.7391 0.5828 0.1154
0.7981 0.5830 0.1156
0.8570 0.5833 0.1159
0.9159 0.5835 0.1161
0.9748 0.5838 0.1164
1.0000 0.5840 0.1167
0.0920 0.6378 0.1134
0.1509 0.6381 0.1137
0.2098 0.6383 0.1139
0.2687 0.6386 0.1142
0.3276 0.6388 0.1144
0.3865 0.6391 0.1147
0.4454 0.6393 0.1149
0.5044 0.6396 0.1152
0.5633 0.6399 0.1155
0.6222 0.6401 0.1157
0.6811 0.6404 0.1160
0.7400 0.6406 0.1162
0.7989 0.6409 0.1165
0.8578 0.6411 0.1167
0.9167 0.6414 0.1170
0.9756 0.6416 0.1172
1.0000 0.6419 0.1175
0.0928 0.6957 0.1142
0.1517 0.6959 0.1145
0.2106 0.6962 0.1148
0.2696 0.6964 0.1150
0.3285 0.6967 0.1153
0.3874 0.6969 0.1155
0.4463 0.6972 0.1158
0.5052 0.6974 0.1160
0.5641 0.6977 0.1163
0.6230 0.6980 0.1165
0.6819 0.6982 0.1168
0.7408 0.6985 0.1170
0.7997 0.6987 0.1173
0.8586 0.6990 0.1176
0.9175 0.6992 0.1178
0.9764 0.6995 0.1181
1.0000 0.6997 0.1183
0.0937 0.7535 0.1151
0.1526 0.7538 0.1153
0.2115 0.7540 0.1156
0.2704 0.7543 0.1158
0.3293 0.7545 0.1161
0.3882 0.7548 0.1164
0.4471 0.7550 0.1166
0.5060 0.7553 0.1169
0.5649 0.7555 0.1171
0.6238 0.7558 0.1174
0.6827 0.7561 0.1176
0.7416 0.7563 0.1179
0.8006 0.7566 0.1181
0.8595 0.7568 0.1184
0.9184 0.7571 0.1186
0.9773 0.7573 0.1189
1.0000 0.7576 0.1192
0.0945 0.8114 0.1159
0.1534 0.8116 0.1162
0.2123 0.8119 0.1164
0.2712 0.8121 0.1167
0.3301 0.8124 0.1169
0.3890 0.8126 0.1172
0.4479 0.8129 0.1174
0.5068 0.8131 0.1177
0.5658 0.8134 0.1179
0.6247 0.8136 0.1182
0.6836 0.8139 0.1185
0.7425 0.8142 0.1187
0.8014 0.8144 0.1190
0.8603 0.8147 0.1192
0.9192 0.8149 0.1195
0.9781 0.8152 0.1197
1.0000 0.8154 0.1200
0.0953 0.8692 0.1167
0.1542 0.8695 0.1170
0.2131 0.8697 0.1173
0.2720 0.8700 0.1175
0.3310 0.8702 0.1178
0.3899 0.8705 0.1180
0.4488 0.8707 0.1183
0.5077 0.8710 0.1185
0.5666 0.8712 0.1188
0.6255 0.8715 0.1190
0.6844 0.8717 0.1193
0.7433 0.8720 0.1195
0.8022 0.8723 0.1198
0.8611 0.8725 0.1201
0.9200 0.8728 0.1203
0.9789 0.8730 0.1206
1.0000 0.8733 0.1208
0.0962 0.9270 0.1176
0.1551 0.9273 0.1178
0.2140 0.9276 0.1181
0.2729 0.9278 0.1183
0.3318 0.9281 0.1186
0.3907 0.9283 0.1188
0.4496 0.9286 0.1191
0.5085 0.9288 0.1194
0.5674 0.9291 0.1196
0.6263 0.9293 0.1199
0.6852 0.9296 0.1201
0.7441 0.9298 0.1204
0.8030 0.9301 0.1206
0.8620 0.9304 0.1209
0.9209 0.9306 0.1211
0.9798 0.9309 0.1214
1.0000 0.9311 0.1216
0.0970 0.9849 0.1184
0.1559 0.9851 0.1187
0.2148 0.9854 0.1189
0.2737 0.9857 0.1192
0.3326 0.9859 0.1194
0.3915 0.9862 0.1197
0.4504 0.9864 0.1199
0.5093 0.9867 0.1202
0.5683 0.9869 0.1204
0.6272 0.9872 0.1207
0.6861 0.9874 0.1210
0.7450 0.9877 0.1212
0.8039 0.9879 0.1215
0.8628 0.9882 0.1217
0.9217 0.9884 0.1220
0.9806 0.9887 0.1222
1.0000 0.9890 0.1225
0.0838 0.0595 0.1605
0.1427 0.0597 0.1608
0.2016 0.0600 0.1610
0.2605 0.0602 0.1613
0.3194 0.0605 0.1615
0.3783 0.0607 0.1618
0.4372 0.0610 0.1620
0.4961 0.0612 0.1623
0.5550 0.0615 0.1625
0.6139 0.0617 0.1628
0.6728 0.0620 0.1630
0.7317 0.0623 0.1633
0.7906 0.0625 0.1636
0.8496 0.0628 0.1638
0.9085 0.0630 0.1641
0.9674 0.0633 0.1643
1.0000 0.0635 0.1646
0.0846 0.1173 0.1613
0.1435 0.1176 0.1616
0.2024 0.1178 0.1618
0.2613 0.1181 0.1621
0.3202 0.1183 0.1624
0.3791 0.1186 0.1626
0.4380 0.1188 0.1629
0.4969 0.1191 0.1631
0.5559 0.1193 0.1634
0.6148 0.1196 0.1636
0.6737 0.1198 0.1639
0.7326 0.1201 0.1641
0.7915 0.1204 0.1644
0.8504 0.1206 0.1646
0.9093 0.1209 0.1649
0.9682 0.1211 0.1651
1.0000 0.1214 0.1654
0.0854 0.1751 0.1622
0.1443 0.1754 0.1624
0.2032 0.1757 0.1627
0.2621 0.1759 0.1629
0.3211 0.1762 0.1632
0.3800 0.1764 0.1634
0.4389 0.1767 0.1637
0.4978 0.1769 0.1639
0.5567 0.1772 0.1642
0.6156 0.1774 0.1645
0.6745 0.1777 0.1647
0.7334 0.1779 0.1650
0.7923 0.1782 0.1652
0.8512 0.1785 0.1655
0.9101 0.1787 0.1657
0.9690 0.1790 0.1660
1.0000 0.1792 0.1662
0.0863 0.2330 0.1630
0.1452 0.2332 0.1633
0.2041 0.2335 0.1635
0.2630 0.2338 0.1638
0.3219 0.2340 0.1640
0.3808 0.2343 0.1643
0.4397 0.2345 0.1645
0.4986 0.2348 0.1648
0.5575 0.2350 0.1650
0.6164 0.2353 0.1653
0.6753 0.2355 0.1655
0.7342 0.2358 0.1658
0.7931 0.2360 0.1661
0.8521 0.2363 0.1663
0.9110 0.2366 0.1666
0.9699 0.2368 0.1668
1.0000 0.2371 0.1671
0.0871 0.2908 0.1638
0.1460 0.2911 0.1641
0.2049 0.2913 0.1643
0.2638 0.2916 0.1646
0.3227 0.2919 0.1648
0.3816 0.2921 0.1651
0.4405 0.2924 0.1654
0.4994 0.2926 0.1656
0.5583 0.2929 0.1659
0.6173 0.2931 0.1661
0.6762 0.2934 0.1664
0.7351 0.2936 0.1666
0.7940 0.2939 0.1669
0.8529 0.2941 0.1671
0.9118 0.2944 0.1674
0.9707 0.2947 0.1676
1.0000 0.2949 0.1679
0.0879 0.3487 0.1647
0.1468 0.3489 0.1649
0.2057 0.3492 0.1652
0.2646 0.3494 0.1654
0.3235 0.3497 0.1657
0.3825 0.3499 0.1659
0.4414 0.3502 0.1662
0.5003 0.3505 0.1664
0.5592 0.3507 0.1667
0.6181 0.3510 0.1670
0.6770 0.3512 0.1672
0.7359 0.3515 0.1675
0.7948 0.3517 0.1677
0.8537 0.3520 0.1680
0.9126 0.3522 0.1682
0.9715 0.3525 0.1685
1.0000 0.3527 0.1687
0.0888 0.4065 0.1655
0.1477 0.4068 0.1657
0.2066 0.4070 0.1660
0.2655 0.4073 0.1663
0.3244 0.4075 0.1665
0.3833 0.4078 0.1668
0.4422 0.4080 0.1670
0.5011 0.4083 0.1673
0.5600 0.4086 0.1675
0.6189 0.4088 0.1678
0.6778 0.4091 0.1680
0.7367 0.4093 0.1683
0.7956 0.4096 0.1685
0.8545 0.4098 0.1688
0.9135 0.4101 0.1691
0.9724 0.4103 0.1693
1.0000 0.4106 0.1696
0.0896 0.4644 0.1663
0.1485 0.4646 0.1666
0.2074 0.4649 0.1668
0.2663 0.4651 0.1671
0.3252 0.4654 0.1673
0.3841 0.4656 0.1676
0.4430 0.4659 0.1679
0.5019 0.4661 0.1681
0.5608 0.4664 0.1684
0.6198 0.4667 0.1686
0.6787 0.4669 0.1689
0.7376 0.4672 0.1691
0.7965 0.4674 0.1694
0.8554 0.4677 0.1696
0.9143 0.4679 0.1699
0.9732 0.4682 0.1701
1.0000 0.4684 0.1704
0.0904 0.5222 0.1672
0.1493 0.5225 0.1674
0.2082 0.5227 0.1677
0.2671 0.5230 0.1679
0.3260 0.5232 0.1682
0.3850 0.5235 0.1684
0.4439 0.5237 0.1687
0.5028 0.5240 0.1689
0.5617 0.5242 0.1692
0.6206 0.5245 0.1694
0.6795 0.5248 0.1697
0.7384 0.5250 0.1700
0.7973 0.5253 0.1702
0.8562 0.5255 0.1705
0.9151 0.5258 0.1707
0.9740 0.5260 0.1710
1.0000 0.5263 0.1712
0.0912 0.5801 0.1680
0.1502 0.5803 0.1682
0.2091 0.5806 0.1685
0.2680 0.5808 0.1688
0.3269 0.5811 0.1690
0.3858 0.5813 0.1693
0.4447 0.5816 0.1695
0.5036 0.5818 0.1698
0.5625 0.5821 0.1700
0.6214 0.5823 0.1703
0.6803 0.5826 0.1705
0.7392 0.5829 0.1708
0.7981 0.5831 0.1710
0.8570 0.5834 0.1713
0.9160 0.5836 0.1716
0.9749 0.5839 0.1718
1.0000 0.5841 0.1721
0.0921 0.6379 0.1688
0.1510 0.6382 0.1691
0.2099 0.6384 0.1693
0.2688 0.6387 0.1696
0.3277 0.6389 0.1698
0.3866 0.6392 0.1701
0.4455 0.6394 0.1703
0.5044 0.6397 0.1706
0.5633 0.6399 0.1709
0.6222 0.6402 0.1711
0.6812 0.6404 0.1714
0.7401 0.6407 0.1716
0.7990 0.6410 0.1719
0.8579 0.6412 0.1721
0.9168 0.6415 0.1724
0.9757 0.6417 0.1726
1.0000 0.6420 0.1729
0.0929 0.6957 0.1697
0.1518 0.6960 0.1699
0.2107 0.6963 0.1702
0.2696 0.6965 0.1704
0.3285 0.6968 0.1707
0.3874 0.6970 0.1709
0.4464 0.6973 0.1712
0.5053 0.6975 0.1714
0.5642 0.6978 0.1717
0.6231 0.6980 0.1719
0.6820 0.6983 0.1722
0.7409 0.6985 0.1725
0.7998 0.6988 0.1727
0.8587 0.6991 0.1730
0.9176 0.6993 0.1732
0.9765 0.6996 0.1735
1.0000 0.6998 0.1737
0.0937 0.7536 0.1705
0.1527 0.7538 0.1707
0.2116 0.7541 0.1710
0.2705 0.7544 0.1712
0.3294 0.7546 0.1715
0.3883 0.7549 0.1718
0.4472 0.7551 0.1720
0.5061 0.7554 0.1723
0.5650 0.7556 0.1725
0.6239 0.7559 0.1728
0.6828 0.7561 0.1730
0.7417 0.7564 0.1733
0.8006 0.7566 0.1735
0.8595 0.7569 0.1738
0.9184 0.7572 0.1740
0.9774 0.7574 0.1743
1.0000 0.7577 0.1746
0.0946 0.8114 0.1713
0.1535 0.8117 0.1716
0.2124 0.8119 0.1718
0.2713 0.8122 0.1721
0.3302 0.8125 0.1723
0.3891 0.8127 0.1726
0.4480 0.8130 0.1728
0.5069 0.8132 0.1731
0.5658 0.8135 0.1734
0.6247 0.8137 0.1736
0.6837 0.8140 0.1739
0.7426 0.8142 0.1741
0.8015 0.8145 0.1744
0.8604 0.8147 0.1746
0.9193 0.8150 0.1749
0.9782 0.8153 0.1751
1.0000 0.8155 0.1754
0.0954 0.8693 0.1722
0.1543 0.8695 0.1724
0.2132 0.8698 0.1727
0.2721 0.8700 0.1729
0.3310 0.8703 0.1732
0.3899 0.8706 0.1734
0.4489 0.8708 0.1737
0.5078 0.8711 0.1739
0.5667 0.8713 0.1742
0.6256 0.8716 0.1744
0.6845 0.8718 0.1747
0.7434 0.8721 0.1749
0.8023 0.8723 0.1752
0.8612 0.8726 0.1755
0.9201 0.8728 0.1757
0.9790 0.8731 0.1760
1.0000 0.8734 0.1762
0.0962 0.9271 0.1730
0.1551 0.9274 0.1732
0.2141 0.9276 0.1735
0.2730 0.9279 0.1737
0.3319 0.9281 0.1740
0.3908 0.9284 0.1743
0.4497 0.9287 0.1745
0.5086 0.9289 0.1748
0.5675 0.9292 0.1750
0.6264 0.9294 0.1753
0.6853 0.9297 0.1755
0.7442 0.9299 0.1758
0.8031 0.9302 0.1760
0.8620 0.9304 0.1763
0.9209 0.9307 0.1765
0.9799 0.9309 0.1768
1.0000 0.9312 0.1771
0.0971 0.9850 0.1738
0.1560 0.9852 0.1741
0.2149 0.9855 0.1743
0.2738 0.9857 0.1746
0.3327 0.9860 0.1748
0.3916 0.9862 0.1751
0.4505 0.9865 0.1753
0.5094 0.9867 0.1756
0.5683 0.9870 0.1759
0.6272 0.9873 0.1761
0.6861 0.9875 0.1764
0.7451 0.9878 0.1766
0.8040 0.9880 0.1769
0.8629 0.9883 0.1771
0.9218 0.9885 0.1774
0.9807 0.9888 0.1776
1.0000 0.9890 0.1779
0.0838 0.0595 0.2159
0.1427 0.0598 0.2162
0.2017 0.0600 0.2164
0.2606 0.0603 0.2167
0.3195 0.0606 0.2169
0.3784 0.0608 0.2172
0.4373 0.0611 0.2174
0.4962 0.0613 0.2177
0.5551 0.0616 0.2179
0.6140 0.0618 0.2182
0.6729 0.0621 0.2185
0.7318 0.0623 0.2187
0.7907 0.0626 0.2190
0.8496 0.0628 0.2192
0.9085 0.0631 0.2195
0.9675 0.0634 0.2197
1.0000 0.0636 0.2200
0.0847 0.1174 0.2167
0.1436 0.1176 0.2170
0.2025 0.1179 0.2172
0.2614 0.1181 0.2175
0.3203 0.1184 0.2178
0.3792 0.1187 0.2180
0.4381 0.1189 0.2183
0.4970 0.1192 0.2185
0.5559 0.1194 0.2188
0.6148 0.1197 0.2190
0.6737 0.1199 0.2193
0.7327 0.1202 0.2195
0.7916 0.1204 0.2198
0.8505 0.1207 0.2200
0.9094 0.1209 0.2203
0.9683 0.1212 0.2206
