public/luts/ink.cube
# edite look: Ink (CC0)
TITLE "Ink"
LUT_3D_SIZE 5
DOMAIN_MIN 0.0 0.0 0.0
DOMAIN_MAX 1.0 1.0 1.0
0.0000 0.0000 0.0000
0.0000 0.0000 0.0000
0.0000 0.0000 0.0000
0.0228 0.0228 0.0228
0.1112 0.1112 0.1112
0.0564 0.0564 0.0564
0.1415 0.1415 0.1415
0.2221 0.2221 0.2221
0.3001 0.3001 0.3001
0.3764 0.3764 0.3764
0.3281 0.3281 0.3281
0.4039 0.4039 0.4039
0.4784 0.4784 0.4784
0.5520 0.5520 0.5520
0.6247 0.6247 0.6247
0.5786 0.5786 0.5786
0.6510 0.6510 0.6510
0.7228 0.7228 0.7228
0.7939 0.7939 0.7939
0.8645 0.8645 0.8645
0.8196 0.8196 0.8196
0.8900 0.8900 0.8900
0.9599 0.9599 0.9599
1.0000 1.0000 1.0000
1.0000 1.0000 1.0000
0.0000 0.0000 0.0000
0.0000 0.0000 0.0000
0.0000 0.0000 0.0000
0.0542 0.0542 0.0542
0.1395 0.1395 0.1395
0.0861 0.0861 0.0861
0.1692 0.1692 0.1692
0.2488 0.2488 0.2488
0.3262 0.3262 0.3262
0.4020 0.4020 0.4020
0.3540 0.3540 0.3540
0.4293 0.4293 0.4293
0.5035 0.5035 0.5035
0.5768 0.5768 0.5768
0.6492 0.6492 0.6492
0.6033 0.6033 0.6033
0.6754 0.6754 0.6754
0.7470 0.7470 0.7470
0.8179 0.8179 0.8179
0.8883 0.8883 0.8883
0.8436 0.8436 0.8436
0.9138 0.9138 0.9138
0.9836 0.9836 0.9836
1.0000 1.0000 1.0000
1.0000 1.0000 1.0000
0.0000 0.0000 0.0000
0.0000 0.0000 0.0000
0.0000 0.0000 0.0000
0.0840 0.0840 0.0840
0.1672 0.1672 0.1672
0.1149 0.1149 0.1149
0.1966 0.1966 0.1966
0.2753 0.2753 0.2753
0.3521 0.3521 0.3521
0.4275 0.4275 0.4275
0.3797 0.3797 0.3797
0.4546 0.4546 0.4546
0.5285 0.5285 0.5285
0.6015 0.6015 0.6015
0.6737 0.6737 0.6737
0.6279 0.6279 0.6279
0.6998 0.6998 0.6998
0.7711 0.7711 0.7711
0.8419 0.8419 0.8419
0.9121 0.9121 0.9121
0.8675 0.8675 0.8675
0.9376 0.9376 0.9376
1.0000 1.0000 1.0000
1.0000 1.0000 1.0000
1.0000 1.0000 1.0000
0.0000 0.0000 0.0000
0.0000 0.0000 0.0000
0.0246 0.0246 0.0246
0.1128 0.1128 0.1128
0.1946 0.1946 0.1946
0.1430 0.1430 0.1430
0.2236 0.2236 0.2236
0.3016 0.3016 0.3016
0.3779 0.3779 0.3779
0.4528 0.4528 0.4528
0.4053 0.4053 0.4053
0.4798 0.4798 0.4798
0.5534 0.5534 0.5534
0.6261 0.6261 0.6261
0.6981 0.6981 0.6981
0.6524 0.6524 0.6524
0.7241 0.7241 0.7241
0.7952 0.7952 0.7952
0.8658 0.8658 0.8658
0.9359 0.9359 0.9359
0.8913 0.8913 0.8913
0.9612 0.9612 0.9612
1.0000 1.0000 1.0000
1.0000 1.0000 1.0000
1.0000 1.0000 1.0000
0.0000 0.0000 0.0000
0.0000 0.0000 0.0000
0.0559 0.0559 0.0559
0.1410 0.1410 0.1410
0.2216 0.2216 0.2216
0.1707 0.1707 0.1707
0.2503 0.2503 0.2503
0.3277 0.3277 0.3277
0.4035 0.4035 0.4035
0.4780 0.4780 0.4780
0.4307 0.4307 0.4307
0.5049 0.5049 0.5049
0.5782 0.5782 0.5782
0.6506 0.6506 0.6506
0.7224 0.7224 0.7224
0.6768 0.6768 0.6768
0.7483 0.7483 0.7483
0.8192 0.8192 0.8192
0.8896 0.8896 0.8896
0.9595 0.9595 0.9595
0.9151 0.9151 0.9151
0.9849 0.9849 0.9849
1.0000 1.0000 1.0000
1.0000 1.0000 1.0000
1.0000 1.0000 1.0000
