public/luts/ink.cube
# edite look: Ink (CC0)
TITLE "Ink"
LUT_3D_SIZE 9
DOMAIN_MIN 0.0 0.0 0.0
DOMAIN_MAX 1.0 1.0 1.0
0.0000 0.0000 0.0000
0.0000 0.0000 0.0000
0.0000 0.0000 0.0000
0.0000 0.0000 0.0000
0.0000 0.0000 0.0000
0.0000 0.0000 0.0000
0.0228 0.0228 0.0228
0.0684 0.0684 0.0684
0.1112 0.1112 0.1112
0.0000 0.0000 0.0000
0.0000 0.0000 0.0000
0.0000 0.0000 0.0000
0.0399 0.0399 0.0399
0.0842 0.0842 0.0842
0.1264 0.1264 0.1264
0.1675 0.1675 0.1675
0.2076 0.2076 0.2076
0.2471 0.2471 0.2471
0.0564 0.0564 0.0564
0.0998 0.0998 0.0998
0.1415 0.1415 0.1415
0.1822 0.1822 0.1822
0.2221 0.2221 0.2221
0.2614 0.2614 0.2614
0.3001 0.3001 0.3001
0.3385 0.3385 0.3385
0.3764 0.3764 0.3764
0.1968 0.1968 0.1968
0.2364 0.2364 0.2364
0.2755 0.2755 0.2755
0.3141 0.3141 0.3141
0.3523 0.3523 0.3523
0.3902 0.3902 0.3902
0.4277 0.4277 0.4277
0.4650 0.4650 0.4650
0.5019 0.5019 0.5019
0.3281 0.3281 0.3281
0.3662 0.3662 0.3662
0.4039 0.4039 0.4039
0.4413 0.4413 0.4413
0.4784 0.4784 0.4784
0.5153 0.5153 0.5153
0.5520 0.5520 0.5520
0.5885 0.5885 0.5885
0.6247 0.6247 0.6247
0.4549 0.4549 0.4549
0.4919 0.4919 0.4919
0.5287 0.5287 0.5287
0.5653 0.5653 0.5653
0.6017 0.6017 0.6017
0.6379 0.6379 0.6379
0.6739 0.6739 0.6739
0.7097 0.7097 0.7097
0.7454 0.7454 0.7454
0.5786 0.5786 0.5786
0.6149 0.6149 0.6149
0.6510 0.6510 0.6510
0.6870 0.6870 0.6870
0.7228 0.7228 0.7228
0.7584 0.7584 0.7584
0.7939 0.7939 0.7939
0.8292 0.8292 0.8292
0.8645 0.8645 0.8645
0.7000 0.7000 0.7000
0.7357 0.7357 0.7357
0.7713 0.7713 0.7713
0.8068 0.8068 0.8068
0.8421 0.8421 0.8421
0.8773 0.8773 0.8773
0.9123 0.9123 0.9123
0.9472 0.9472 0.9472
0.9821 0.9821 0.9821
0.8196 0.8196 0.8196
0.8549 0.8549 0.8549
0.8900 0.8900 0.8900
0.9250 0.9250 0.9250
0.9599 0.9599 0.9599
0.9947 0.9947 0.9947
1.0000 1.0000 1.0000
1.0000 1.0000 1.0000
1.0000 1.0000 1.0000
0.0000 0.0000 0.0000
0.0000 0.0000 0.0000
0.0000 0.0000 0.0000
0.0000 0.0000 0.0000
0.0000 0.0000 0.0000
0.0000 0.0000 0.0000
0.0388 0.0388 0.0388
0.0831 0.0831 0.0831
0.1254 0.1254 0.1254
0.0000 0.0000 0.0000
0.0000 0.0000 0.0000
0.0080 0.0080 0.0080
0.0553 0.0553 0.0553
0.0987 0.0987 0.0987
0.1405 0.1405 0.1405
0.1812 0.1812 0.1812
0.2211 0.2211 0.2211
0.2604 0.2604 0.2604
0.0713 0.0713 0.0713
0.1141 0.1141 0.1141
0.1554 0.1554 0.1554
0.1958 0.1958 0.1958
0.2355 0.2355 0.2355
0.2746 0.2746 0.2746
0.3132 0.3132 0.3132
0.3514 0.3514 0.3514
0.3893 0.3893 0.3893
0.2103 0.2103 0.2103
0.2498 0.2498 0.2498
0.2887 0.2887 0.2887
0.3272 0.3272 0.3272
0.3652 0.3652 0.3652
0.4030 0.4030 0.4030
0.4404 0.4404 0.4404
0.4775 0.4775 0.4775
0.5144 0.5144 0.5144
0.3411 0.3411 0.3411
0.3790 0.3790 0.3790
0.4166 0.4166 0.4166
0.4539 0.4539 0.4539
0.4910 0.4910 0.4910
0.5278 0.5278 0.5278
0.5644 0.5644 0.5644
0.6008 0.6008 0.6008
0.6370 0.6370 0.6370
0.4675 0.4675 0.4675
0.5044 0.5044 0.5044
0.5412 0.5412 0.5412
0.5777 0.5777 0.5777
0.6140 0.6140 0.6140
0.6501 0.6501 0.6501
0.6861 0.6861 0.6861
0.7219 0.7219 0.7219
0.7575 0.7575 0.7575
0.5909 0.5909 0.5909
0.6272 0.6272 0.6272
0.6632 0.6632 0.6632
0.6991 0.6991 0.6991
0.7349 0.7349 0.7349
0.7705 0.7705 0.7705
0.8059 0.8059 0.8059
0.8412 0.8412 0.8412
0.8764 0.8764 0.8764
0.7122 0.7122 0.7122
0.7478 0.7478 0.7478
0.7834 0.7834 0.7834
0.8188 0.8188 0.8188
0.8540 0.8540 0.8540
0.8892 0.8892 0.8892
0.9242 0.9242 0.9242
0.9591 0.9591 0.9591
0.9939 0.9939 0.9939
0.8316 0.8316 0.8316
0.8668 0.8668 0.8668
0.9019 0.9019 0.9019
0.9369 0.9369 0.9369
0.9718 0.9718 0.9718
1.0000 1.0000 1.0000
1.0000 1.0000 1.0000
1.0000 1.0000 1.0000
1.0000 1.0000 1.0000
0.0000 0.0000 0.0000
0.0000 0.0000 0.0000
0.0000 0.0000 0.0000
0.0000 0.0000 0.0000
0.0000 0.0000 0.0000
0.0067 0.0067 0.0067
0.0542 0.0542 0.0542
0.0977 0.0977 0.0977
0.1395 0.1395 0.1395
0.0000 0.0000 0.0000
0.0000 0.0000 0.0000
0.0249 0.0249 0.0249
0.0703 0.0703 0.0703
0.1130 0.1130 0.1130
0.1544 0.1544 0.1544
0.1948 0.1948 0.1948
0.2345 0.2345 0.2345
0.2736 0.2736 0.2736
0.0861 0.0861 0.0861
0.1282 0.1282 0.1282
0.1692 0.1692 0.1692
0.2094 0.2094 0.2094
0.2488 0.2488 0.2488
0.2877 0.2877 0.2877
0.3262 0.3262 0.3262
0.3643 0.3643 0.3643
0.4020 0.4020 0.4020
0.2238 0.2238 0.2238
0.2631 0.2631 0.2631
0.3018 0.3018 0.3018
0.3401 0.3401 0.3401
0.3781 0.3781 0.3781
0.4157 0.4157 0.4157
0.4530 0.4530 0.4530
0.4901 0.4901 0.4901
0.5269 0.5269 0.5269
0.3540 0.3540 0.3540
0.3918 0.3918 0.3918
0.4293 0.4293 0.4293
0.4666 0.4666 0.4666
0.5035 0.5035 0.5035
0.5403 0.5403 0.5403
0.5768 0.5768 0.5768
0.6131 0.6131 0.6131
0.6492 0.6492 0.6492
0.4800 0.4800 0.4800
0.5169 0.5169 0.5169
0.5536 0.5536 0.5536
0.5900 0.5900 0.5900
0.6263 0.6263 0.6263
0.6624 0.6624 0.6624
0.6983 0.6983 0.6983
0.7340 0.7340 0.7340
0.7696 0.7696 0.7696
0.6033 0.6033 0.6033
0.6394 0.6394 0.6394
0.6754 0.6754 0.6754
0.7113 0.7113 0.7113
0.7470 0.7470 0.7470
0.7825 0.7825 0.7825
0.8179 0.8179 0.8179
0.8532 0.8532 0.8532
0.8883 0.8883 0.8883
0.7243 0.7243 0.7243
0.7599 0.7599 0.7599
0.7954 0.7954 0.7954
0.8308 0.8308 0.8308
0.8660 0.8660 0.8660
0.9011 0.9011 0.9011
0.9360 0.9360 0.9360
0.9709 0.9709 0.9709
1.0000 1.0000 1.0000
0.8436 0.8436 0.8436
0.8788 0.8788 0.8788
0.9138 0.9138 0.9138
0.9488 0.9488 0.9488
0.9836 0.9836 0.9836
1.0000 1.0000 1.0000
1.0000 1.0000 1.0000
1.0000 1.0000 1.0000
1.0000 1.0000 1.0000
0.0000 0.0000 0.0000
0.0000 0.0000 0.0000
0.0000 0.0000 0.0000
0.0000 0.0000 0.0000
0.0000 0.0000 0.0000
0.0237 0.0237 0.0237
0.0692 0.0692 0.0692
0.1120 0.1120 0.1120
0.1534 0.1534 0.1534
0.0000 0.0000 0.0000
0.0000 0.0000 0.0000
0.0408 0.0408 0.0408
0.0850 0.0850 0.0850
0.1272 0.1272 0.1272
0.1682 0.1682 0.1682
0.2084 0.2084 0.2084
0.2479 0.2479 0.2479
0.2868 0.2868 0.2868
0.1005 0.1005 0.1005
0.1423 0.1423 0.1423
0.1829 0.1829 0.1829
0.2228 0.2228 0.2228
0.2621 0.2621 0.2621
0.3009 0.3009 0.3009
0.3392 0.3392 0.3392
0.3772 0.3772 0.3772
0.4148 0.4148 0.4148
0.2372 0.2372 0.2372
0.2763 0.2763 0.2763
0.3149 0.3149 0.3149
0.3531 0.3531 0.3531
0.3909 0.3909 0.3909
0.4284 0.4284 0.4284
0.4657 0.4657 0.4657
0.5026 0.5026 0.5026
0.5394 0.5394 0.5394
0.3669 0.3669 0.3669
0.4046 0.4046 0.4046
0.4420 0.4420 0.4420
0.4791 0.4791 0.4791
0.5160 0.5160 0.5160
0.5527 0.5527 0.5527
0.5891 0.5891 0.5891
0.6254 0.6254 0.6254
0.6615 0.6615 0.6615
0.4926 0.4926 0.4926
0.5294 0.5294 0.5294
0.5660 0.5660 0.5660
0.6024 0.6024 0.6024
0.6386 0.6386 0.6386
0.6746 0.6746 0.6746
0.7104 0.7104 0.7104
0.7461 0.7461 0.7461
0.7816 0.7816 0.7816
0.6156 0.6156 0.6156
0.6517 0.6517 0.6517
0.6876 0.6876 0.6876
0.7234 0.7234 0.7234
0.7591 0.7591 0.7591
0.7945 0.7945 0.7945
0.8299 0.8299 0.8299
0.8651 0.8651 0.8651
0.9002 0.9002 0.9002
0.7364 0.7364 0.7364
0.7720 0.7720 0.7720
0.8074 0.8074 0.8074
0.8427 0.8427 0.8427
0.8779 0.8779 0.8779
0.9130 0.9130 0.9130
0.9479 0.9479 0.9479
0.9827 0.9827 0.9827
1.0000 1.0000 1.0000
0.8556 0.8556 0.8556
0.8907 0.8907 0.8907
0.9257 0.9257 0.9257
0.9606 0.9606 0.9606
0.9954 0.9954 0.9954
1.0000 1.0000 1.0000
1.0000 1.0000 1.0000
1.0000 1.0000 1.0000
1.0000 1.0000 1.0000
0.0000 0.0000 0.0000
0.0000 0.0000 0.0000
0.0000 0.0000 0.0000
0.0000 0.0000 0.0000
0.0000 0.0000 0.0000
0.0396 0.0396 0.0396
0.0840 0.0840 0.0840
0.1262 0.1262 0.1262
0.1672 0.1672 0.1672
0.0000 0.0000 0.0000
0.0090 0.0090 0.0090
0.0561 0.0561 0.0561
0.0995 0.0995 0.0995
0.1413 0.1413 0.1413
0.1820 0.1820 0.1820
0.2219 0.2219 0.2219
0.2611 0.2611 0.2611
0.2999 0.2999 0.2999
0.1149 0.1149 0.1149
0.1562 0.1562 0.1562
0.1966 0.1966 0.1966
0.2362 0.2362 0.2362
0.2753 0.2753 0.2753
0.3139 0.3139 0.3139
0.3521 0.3521 0.3521
0.3900 0.3900 0.3900
0.4275 0.4275 0.4275
0.2505 0.2505 0.2505
0.2894 0.2894 0.2894
0.3279 0.3279 0.3279
0.3659 0.3659 0.3659
0.4037 0.4037 0.4037
0.4411 0.4411 0.4411
0.4782 0.4782 0.4782
0.5151 0.5151 0.5151
0.5518 0.5518 0.5518
0.3797 0.3797 0.3797
0.4173 0.4173 0.4173
0.4546 0.4546 0.4546
0.4917 0.4917 0.4917
0.5285 0.5285 0.5285
0.5651 0.5651 0.5651
0.6015 0.6015 0.6015
0.6377 0.6377 0.6377
0.6737 0.6737 0.6737
0.5051 0.5051 0.5051
0.5419 0.5419 0.5419
0.5784 0.5784 0.5784
0.6147 0.6147 0.6147
0.6508 0.6508 0.6508
0.6868 0.6868 0.6868
0.7226 0.7226 0.7226
0.7582 0.7582 0.7582
0.7937 0.7937 0.7937
0.6279 0.6279 0.6279
0.6639 0.6639 0.6639
0.6998 0.6998 0.6998
0.7355 0.7355 0.7355
0.7711 0.7711 0.7711
0.8066 0.8066 0.8066
0.8419 0.8419 0.8419
0.8771 0.8771 0.8771
0.9121 0.9121 0.9121
0.7485 0.7485 0.7485
0.7840 0.7840 0.7840
0.8194 0.8194 0.8194
0.8547 0.8547 0.8547
0.8898 0.8898 0.8898
0.9248 0.9248 0.9248
0.9597 0.9597 0.9597
0.9945 0.9945 0.9945
1.0000 1.0000 1.0000
0.8675 0.8675 0.8675
0.9026 0.9026 0.9026
0.9376 0.9376 0.9376
0.9724 0.9724 0.9724
1.0000 1.0000 1.0000
1.0000 1.0000 1.0000
1.0000 1.0000 1.0000
1.0000 1.0000 1.0000
1.0000 1.0000 1.0000
0.0000 0.0000 0.0000
0.0000 0.0000 0.0000
0.0000 0.0000 0.0000
0.0000 0.0000 0.0000
0.0077 0.0077 0.0077
0.0550 0.0550 0.0550
0.0985 0.0985 0.0985
0.1403 0.1403 0.1403
0.1810 0.1810 0.1810
0.0000 0.0000 0.0000
0.0258 0.0258 0.0258
0.0711 0.0711 0.0711
0.1138 0.1138 0.1138
0.1552 0.1552 0.1552
0.1956 0.1956 0.1956
0.2353 0.2353 0.2353
0.2744 0.2744 0.2744
0.3130 0.3130 0.3130
0.1290 0.1290 0.1290
0.1700 0.1700 0.1700
0.2101 0.2101 0.2101
0.2496 0.2496 0.2496
0.2885 0.2885 0.2885
0.3269 0.3269 0.3269
0.3650 0.3650 0.3650
0.4028 0.4028 0.4028
0.4402 0.4402 0.4402
0.2638 0.2638 0.2638
0.3025 0.3025 0.3025
0.3408 0.3408 0.3408
0.3788 0.3788 0.3788
0.4164 0.4164 0.4164
0.4537 0.4537 0.4537
0.4908 0.4908 0.4908
0.5276 0.5276 0.5276
0.5642 0.5642 0.5642
0.3925 0.3925 0.3925
0.4300 0.4300 0.4300
0.4673 0.4673 0.4673
0.5042 0.5042 0.5042
0.5410 0.5410 0.5410
0.5775 0.5775 0.5775
0.6138 0.6138 0.6138
0.6499 0.6499 0.6499
0.6859 0.6859 0.6859
0.5176 0.5176 0.5176
0.5543 0.5543 0.5543
0.5907 0.5907 0.5907
0.6270 0.6270 0.6270
0.6630 0.6630 0.6630
0.6989 0.6989 0.6989
0.7347 0.7347 0.7347
0.7703 0.7703 0.7703
0.8057 0.8057 0.8057
0.6401 0.6401 0.6401
0.6761 0.6761 0.6761
0.7120 0.7120 0.7120
0.7476 0.7476 0.7476
0.7832 0.7832 0.7832
0.8186 0.8186 0.8186
0.8538 0.8538 0.8538
0.8890 0.8890 0.8890
0.9240 0.9240 0.9240
0.7606 0.7606 0.7606
0.7961 0.7961 0.7961
0.8314 0.8314 0.8314
0.8666 0.8666 0.8666
0.9017 0.9017 0.9017
0.9367 0.9367 0.9367
0.9716 0.9716 0.9716
1.0000 1.0000 1.0000
1.0000 1.0000 1.0000
0.8794 0.8794 0.8794
0.9145 0.9145 0.9145
0.9494 0.9494 0.9494
0.9842 0.9842 0.9842
1.0000 1.0000 1.0000
1.0000 1.0000 1.0000
1.0000 1.0000 1.0000
1.0000 1.0000 1.0000
1.0000 1.0000 1.0000
0.0000 0.0000 0.0000
0.0000 0.0000 0.0000
0.0000 0.0000 0.0000
0.0000 0.0000 0.0000
0.0246 0.0246 0.0246
0.0700 0.0700 0.0700
0.1128 0.1128 0.1128
0.1542 0.1542 0.1542
0.1946 0.1946 0.1946
0.0000 0.0000 0.0000
0.0416 0.0416 0.0416
0.0858 0.0858 0.0858
0.1280 0.1280 0.1280
0.1690 0.1690 0.1690
0.2091 0.2091 0.2091
0.2486 0.2486 0.2486
0.2875 0.2875 0.2875
0.3260 0.3260 0.3260
0.1430 0.1430 0.1430
0.1837 0.1837 0.1837
0.2236 0.2236 0.2236
0.2628 0.2628 0.2628
0.3016 0.3016 0.3016
0.3399 0.3399 0.3399
0.3779 0.3779 0.3779
0.4155 0.4155 0.4155
0.4528 0.4528 0.4528
0.2770 0.2770 0.2770
0.3156 0.3156 0.3156
0.3538 0.3538 0.3538
0.3916 0.3916 0.3916
0.4291 0.4291 0.4291
0.4663 0.4663 0.4663
0.5033 0.5033 0.5033
0.5401 0.5401 0.5401
0.5766 0.5766 0.5766
0.4053 0.4053 0.4053
0.4427 0.4427 0.4427
0.4798 0.4798 0.4798
0.5167 0.5167 0.5167
0.5534 0.5534 0.5534
0.5898 0.5898 0.5898
0.6261 0.6261 0.6261
0.6622 0.6622 0.6622
0.6981 0.6981 0.6981
0.5301 0.5301 0.5301
0.5667 0.5667 0.5667
0.6031 0.6031 0.6031
0.6392 0.6392 0.6392
0.6752 0.6752 0.6752
0.7111 0.7111 0.7111
0.7468 0.7468 0.7468
0.7823 0.7823 0.7823
0.8177 0.8177 0.8177
0.6524 0.6524 0.6524
0.6883 0.6883 0.6883
0.7241 0.7241 0.7241
0.7597 0.7597 0.7597
0.7952 0.7952 0.7952
0.8306 0.8306 0.8306
0.8658 0.8658 0.8658
0.9009 0.9009 0.9009
0.9359 0.9359 0.9359
0.7727 0.7727 0.7727
0.8081 0.8081 0.8081
0.8434 0.8434 0.8434
0.8786 0.8786 0.8786
0.9136 0.9136 0.9136
0.9486 0.9486 0.9486
0.9834 0.9834 0.9834
1.0000 1.0000 1.0000
1.0000 1.0000 1.0000
0.8913 0.8913 0.8913
0.9264 0.9264 0.9264
0.9612 0.9612 0.9612
0.9960 0.9960 0.9960
1.0000 1.0000 1.0000
1.0000 1.0000 1.0000
1.0000 1.0000 1.0000
1.0000 1.0000 1.0000
1.0000 1.0000 1.0000
0.0000 0.0000 0.0000
0.0000 0.0000 0.0000
0.0000 0.0000 0.0000
0.0000 0.0000 0.0000
0.0405 0.0405 0.0405
0.0848 0.0848 0.0848
0.1270 0.1270 0.1270
0.1680 0.1680 0.1680
0.2082 0.2082 0.2082
0.0099 0.0099 0.0099
0.0570 0.0570 0.0570
0.1003 0.1003 0.1003
0.1420 0.1420 0.1420
0.1827 0.1827 0.1827
0.2226 0.2226 0.2226
0.2619 0.2619 0.2619
0.3006 0.3006 0.3006
0.3390 0.3390 0.3390
0.1569 0.1569 0.1569
0.1973 0.1973 0.1973
0.2370 0.2370 0.2370
0.2760 0.2760 0.2760
0.3146 0.3146 0.3146
0.3528 0.3528 0.3528
0.3907 0.3907 0.3907
0.4282 0.4282 0.4282
0.4654 0.4654 0.4654
0.2902 0.2902 0.2902
0.3286 0.3286 0.3286
0.3667 0.3667 0.3667
0.4044 0.4044 0.4044
0.4418 0.4418 0.4418
0.4789 0.4789 0.4789
0.5158 0.5158 0.5158
0.5525 0.5525 0.5525
0.5889 0.5889 0.5889
0.4180 0.4180 0.4180
0.4553 0.4553 0.4553
0.4924 0.4924 0.4924
0.5292 0.5292 0.5292
0.5658 0.5658 0.5658
0.6022 0.6022 0.6022
0.6384 0.6384 0.6384
0.6744 0.6744 0.6744
0.7102 0.7102 0.7102
0.5425 0.5425 0.5425
0.5791 0.5791 0.5791
0.6154 0.6154 0.6154
0.6515 0.6515 0.6515
0.6874 0.6874 0.6874
0.7232 0.7232 0.7232
0.7589 0.7589 0.7589
0.7943 0.7943 0.7943
0.8297 0.8297 0.8297
0.6646 0.6646 0.6646
0.7005 0.7005 0.7005
0.7362 0.7362 0.7362
0.7718 0.7718 0.7718
0.8072 0.8072 0.8072
0.8425 0.8425 0.8425
0.8777 0.8777 0.8777
0.9128 0.9128 0.9128
0.9477 0.9477 0.9477
0.7847 0.7847 0.7847
0.8201 0.8201 0.8201
0.8554 0.8554 0.8554
0.8905 0.8905 0.8905
0.9255 0.9255 0.9255
0.9604 0.9604 0.9604
0.9952 0.9952 0.9952
1.0000 1.0000 1.0000
1.0000 1.0000 1.0000
0.9032 0.9032 0.9032
0.9382 0.9382 0.9382
0.9731 0.9731 0.9731
1.0000 1.0000 1.0000
1.0000 1.0000 1.0000
1.0000 1.0000 1.0000
1.0000 1.0000 1.0000
1.0000 1.0000 1.0000
1.0000 1.0000 1.0000
0.0000 0.0000 0.0000
0.0000 0.0000 0.0000
0.0000 0.0000 0.0000
0.0087 0.0087 0.0087
0.0559 0.0559 0.0559
0.0993 0.0993 0.0993
0.1410 0.1410 0.1410
0.1817 0.1817 0.1817
0.2216 0.2216 0.2216
0.0267 0.0267 0.0267
0.0719 0.0719 0.0719
0.1146 0.1146 0.1146
0.1560 0.1560 0.1560
0.1963 0.1963 0.1963
0.2360 0.2360 0.2360
0.2751 0.2751 0.2751
0.3137 0.3137 0.3137
0.3519 0.3519 0.3519
0.1707 0.1707 0.1707
0.2108 0.2108 0.2108
0.2503 0.2503 0.2503
0.2892 0.2892 0.2892
0.3277 0.3277 0.3277
0.3657 0.3657 0.3657
0.4035 0.4035 0.4035
0.4409 0.4409 0.4409
0.4780 0.4780 0.4780
0.3033 0.3033 0.3033
0.3416 0.3416 0.3416
0.3795 0.3795 0.3795
0.4171 0.4171 0.4171
0.4544 0.4544 0.4544
0.4915 0.4915 0.4915
0.5283 0.5283 0.5283
0.5649 0.5649 0.5649
0.6013 0.6013 0.6013
0.4307 0.4307 0.4307
0.4680 0.4680 0.4680
0.5049 0.5049 0.5049
0.5416 0.5416 0.5416
0.5782 0.5782 0.5782
0.6145 0.6145 0.6145
0.6506 0.6506 0.6506
0.6866 0.6866 0.6866
0.7224 0.7224 0.7224
0.5550 0.5550 0.5550
0.5914 0.5914 0.5914
0.6277 0.6277 0.6277
0.6637 0.6637 0.6637
0.6996 0.6996 0.6996
0.7353 0.7353 0.7353
0.7709 0.7709 0.7709
0.8064 0.8064 0.8064
0.8417 0.8417 0.8417
0.6768 0.6768 0.6768
0.7126 0.7126 0.7126
0.7483 0.7483 0.7483
0.7838 0.7838 0.7838
0.8192 0.8192 0.8192
0.8545 0.8545 0.8545
0.8896 0.8896 0.8896
0.9246 0.9246 0.9246
0.9595 0.9595 0.9595
0.7967 0.7967 0.7967
0.8321 0.8321 0.8321
0.8673 0.8673 0.8673
0.9024 0.9024 0.9024
0.9374 0.9374 0.9374
0.9722 0.9722 0.9722
1.0000 1.0000 1.0000
1.0000 1.0000 1.0000
1.0000 1.0000 1.0000
0.9151 0.9151 0.9151
0.9501 0.9501 0.9501
0.9849 0.9849 0.9849
1.0000 1.0000 1.0000
1.0000 1.0000 1.0000
1.0000 1.0000 1.0000
1.0000 1.0000 1.0000
1.0000 1.0000 1.0000
1.0000 1.0000 1.0000
