public/luts/ink.cube
# edite look: Ink (CC0)
TITLE "Ink"
LUT_3D_SIZE 17
DOMAIN_MIN 0.0 0.0 0.0
DOMAIN_MAX 1.0 1.0 1.0
0.0000 0.0000 0.0000
0.0000 0.0000 0.0000
0.0000 0.0000 0.0000
0.0000 0.0000 0.0000
0.0000 0.0000 0.0000
0.0000 0.0000 0.0000
0.0000 0.0000 0.0000
0.0000 0.0000 0.0000
0.0000 0.0000 0.0000
0.0000 0.0000 0.0000
0.0000 0.0000 0.0000
0.0000 0.0000 0.0000
0.0228 0.0228 0.0228
0.0461 0.0461 0.0461
0.0684 0.0684 0.0684
0.0900 0.0900 0.0900
0.1112 0.1112 0.1112
0.0000 0.0000 0.0000
0.0000 0.0000 0.0000
0.0000 0.0000 0.0000
0.0000 0.0000 0.0000
0.0000 0.0000 0.0000
0.0000 0.0000 0.0000
0.0000 0.0000 0.0000
0.0000 0.0000 0.0000
0.0068 0.0068 0.0068
0.0315 0.0315 0.0315
0.0543 0.0543 0.0543
0.0763 0.0763 0.0763
0.0978 0.0978 0.0978
0.1189 0.1189 0.1189
0.1396 0.1396 0.1396
0.1601 0.1601 0.1601
0.1803 0.1803 0.1803
0.0000 0.0000 0.0000
0.0000 0.0000 0.0000
0.0000 0.0000 0.0000
0.0000 0.0000 0.0000
0.0000 0.0000 0.0000
0.0162 0.0162 0.0162
0.0399 0.0399 0.0399
0.0624 0.0624 0.0624
0.0842 0.0842 0.0842
0.1055 0.1055 0.1055
0.1264 0.1264 0.1264
0.1471 0.1471 0.1471
0.1675 0.1675 0.1675
0.1876 0.1876 0.1876
0.2076 0.2076 0.2076
0.2275 0.2275 0.2275
0.2471 0.2471 0.2471
0.0000 0.0000 0.0000
0.0000 0.0000 0.0000
0.0250 0.0250 0.0250
0.0482 0.0482 0.0482
0.0704 0.0704 0.0704
0.0920 0.0920 0.0920
0.1132 0.1132 0.1132
0.1340 0.1340 0.1340
0.1545 0.1545 0.1545
0.1748 0.1748 0.1748
0.1949 0.1949 0.1949
0.2149 0.2149 0.2149
0.2346 0.2346 0.2346
0.2543 0.2543 0.2543
0.2737 0.2737 0.2737
0.2931 0.2931 0.2931
0.3124 0.3124 0.3124
0.0564 0.0564 0.0564
0.0783 0.0783 0.0783
0.0998 0.0998 0.0998
0.1208 0.1208 0.1208
0.1415 0.1415 0.1415
0.1619 0.1619 0.1619
0.1822 0.1822 0.1822
0.2022 0.2022 0.2022
0.2221 0.2221 0.2221
0.2418 0.2418 0.2418
0.2614 0.2614 0.2614
0.2808 0.2808 0.2808
0.3001 0.3001 0.3001
0.3194 0.3194 0.3194
0.3385 0.3385 0.3385
0.3575 0.3575 0.3575
0.3764 0.3764 0.3764
0.1284 0.1284 0.1284
0.1490 0.1490 0.1490
0.1693 0.1693 0.1693
0.1895 0.1895 0.1895
0.2095 0.2095 0.2095
0.2293 0.2293 0.2293
0.2489 0.2489 0.2489
0.2685 0.2685 0.2685
0.2879 0.2879 0.2879
0.3071 0.3071 0.3071
0.3263 0.3263 0.3263
0.3454 0.3454 0.3454
0.3644 0.3644 0.3644
0.3833 0.3833 0.3833
0.4022 0.4022 0.4022
0.4209 0.4209 0.4209
0.4396 0.4396 0.4396
0.1968 0.1968 0.1968
0.2167 0.2167 0.2167
0.2364 0.2364 0.2364
0.2561 0.2561 0.2561
0.2755 0.2755 0.2755
0.2949 0.2949 0.2949
0.3141 0.3141 0.3141
0.3333 0.3333 0.3333
0.3523 0.3523 0.3523
0.3713 0.3713 0.3713
0.3902 0.3902 0.3902
0.4090 0.4090 0.4090
0.4277 0.4277 0.4277
0.4464 0.4464 0.4464
0.4650 0.4650 0.4650
0.4835 0.4835 0.4835
0.5019 0.5019 0.5019
0.2632 0.2632 0.2632
0.2826 0.2826 0.2826
0.3019 0.3019 0.3019
0.3211 0.3211 0.3211
0.3402 0.3402 0.3402
0.3593 0.3593 0.3593
0.3782 0.3782 0.3782
0.3970 0.3970 0.3970
0.4158 0.4158 0.4158
0.4345 0.4345 0.4345
0.4531 0.4531 0.4531
0.4717 0.4717 0.4717
0.4902 0.4902 0.4902
0.5086 0.5086 0.5086
0.5270 0.5270 0.5270
0.5454 0.5454 0.5454
0.5636 0.5636 0.5636
0.3281 0.3281 0.3281
0.3472 0.3472 0.3472
0.3662 0.3662 0.3662
0.3851 0.3851 0.3851
0.4039 0.4039 0.4039
0.4226 0.4226 0.4226
0.4413 0.4413 0.4413
0.4599 0.4599 0.4599
0.4784 0.4784 0.4784
0.4969 0.4969 0.4969
0.5153 0.5153 0.5153
0.5337 0.5337 0.5337
0.5520 0.5520 0.5520
0.5703 0.5703 0.5703
0.5885 0.5885 0.5885
0.6066 0.6066 0.6066
0.6247 0.6247 0.6247
0.3919 0.3919 0.3919
0.4107 0.4107 0.4107
0.4294 0.4294 0.4294
0.4481 0.4481 0.4481
0.4667 0.4667 0.4667
0.4852 0.4852 0.4852
0.5036 0.5036 0.5036
0.5220 0.5220 0.5220
0.5404 0.5404 0.5404
0.5587 0.5587 0.5587
0.5769 0.5769 0.5769
0.5951 0.5951 0.5951
0.6132 0.6132 0.6132
0.6313 0.6313 0.6313
0.6494 0.6494 0.6494
0.6674 0.6674 0.6674
0.6853 0.6853 0.6853
0.4549 0.4549 0.4549
0.4734 0.4734 0.4734
0.4919 0.4919 0.4919
0.5103 0.5103 0.5103
0.5287 0.5287 0.5287
0.5470 0.5470 0.5470
0.5653 0.5653 0.5653
0.5835 0.5835 0.5835
0.6017 0.6017 0.6017
0.6198 0.6198 0.6198
0.6379 0.6379 0.6379
0.6559 0.6559 0.6559
0.6739 0.6739 0.6739
0.6918 0.6918 0.6918
0.7097 0.7097 0.7097
0.7276 0.7276 0.7276
0.7454 0.7454 0.7454
0.5170 0.5170 0.5170
0.5354 0.5354 0.5354
0.5537 0.5537 0.5537
0.5719 0.5719 0.5719
0.5901 0.5901 0.5901
0.6083 0.6083 0.6083
0.6264 0.6264 0.6264
0.6444 0.6444 0.6444
0.6625 0.6625 0.6625
0.6804 0.6804 0.6804
0.6984 0.6984 0.6984
0.7163 0.7163 0.7163
0.7341 0.7341 0.7341
0.7519 0.7519 0.7519
0.7697 0.7697 0.7697
0.7874 0.7874 0.7874
0.8051 0.8051 0.8051
0.5786 0.5786 0.5786
0.5968 0.5968 0.5968
0.6149 0.6149 0.6149
0.6330 0.6330 0.6330
0.6510 0.6510 0.6510
0.6690 0.6690 0.6690
0.6870 0.6870 0.6870
0.7049 0.7049 0.7049
0.7228 0.7228 0.7228
0.7406 0.7406 0.7406
0.7584 0.7584 0.7584
0.7762 0.7762 0.7762
0.7939 0.7939 0.7939
0.8116 0.8116 0.8116
0.8292 0.8292 0.8292
0.8469 0.8469 0.8469
0.8645 0.8645 0.8645
0.6395 0.6395 0.6395
0.6576 0.6576 0.6576
0.6756 0.6756 0.6756
0.6935 0.6935 0.6935
0.7114 0.7114 0.7114
0.7293 0.7293 0.7293
0.7471 0.7471 0.7471
0.7649 0.7649 0.7649
0.7826 0.7826 0.7826
0.8003 0.8003 0.8003
0.8180 0.8180 0.8180
0.8357 0.8357 0.8357
0.8533 0.8533 0.8533
0.8709 0.8709 0.8709
0.8884 0.8884 0.8884
0.9059 0.9059 0.9059
0.9234 0.9234 0.9234
0.7000 0.7000 0.7000
0.7179 0.7179 0.7179
0.7357 0.7357 0.7357
0.7536 0.7536 0.7536
0.7713 0.7713 0.7713
0.7891 0.7891 0.7891
0.8068 0.8068 0.8068
0.8244 0.8244 0.8244
0.8421 0.8421 0.8421
0.8597 0.8597 0.8597
0.8773 0.8773 0.8773
0.8948 0.8948 0.8948
0.9123 0.9123 0.9123
0.9298 0.9298 0.9298
0.9472 0.9472 0.9472
0.9647 0.9647 0.9647
0.9821 0.9821 0.9821
0.7600 0.7600 0.7600
0.7778 0.7778 0.7778
0.7955 0.7955 0.7955
0.8132 0.8132 0.8132
0.8309 0.8309 0.8309
0.8485 0.8485 0.8485
0.8661 0.8661 0.8661
0.8836 0.8836 0.8836
0.9012 0.9012 0.9012
0.9187 0.9187 0.9187
0.9361 0.9361 0.9361
0.9536 0.9536 0.9536
0.9710 0.9710 0.9710
0.9884 0.9884 0.9884
1.0000 1.0000 1.0000
1.0000 1.0000 1.0000
1.0000 1.0000 1.0000
0.8196 0.8196 0.8196
0.8373 0.8373 0.8373
0.8549 0.8549 0.8549
0.8725 0.8725 0.8725
0.8900 0.8900 0.8900
0.9075 0.9075 0.9075
0.9250 0.9250 0.9250
0.9425 0.9425 0.9425
0.9599 0.9599 0.9599
0.9773 0.9773 0.9773
0.9947 0.9947 0.9947
1.0000 1.0000 1.0000
1.0000 1.0000 1.0000
1.0000 1.0000 1.0000
1.0000 1.0000 1.0000
1.0000 1.0000 1.0000
1.0000 1.0000 1.0000
0.0000 0.0000 0.0000
0.0000 0.0000 0.0000
0.0000 0.0000 0.0000
0.0000 0.0000 0.0000
0.0000 0.0000 0.0000
0.0000 0.0000 0.0000
0.0000 0.0000 0.0000
0.0000 0.0000 0.0000
0.0000 0.0000 0.0000
0.0000 0.0000 0.0000
0.0000 0.0000 0.0000
0.0062 0.0062 0.0062
0.0309 0.0309 0.0309
0.0538 0.0538 0.0538
0.0758 0.0758 0.0758
0.0973 0.0973 0.0973
0.1183 0.1183 0.1183
0.0000 0.0000 0.0000
0.0000 0.0000 0.0000
0.0000 0.0000 0.0000
0.0000 0.0000 0.0000
0.0000 0.0000 0.0000
0.0000 0.0000 0.0000
0.0000 0.0000 0.0000
0.0000 0.0000 0.0000
0.0156 0.0156 0.0156
0.0393 0.0393 0.0393
0.0619 0.0619 0.0619
0.0837 0.0837 0.0837
0.1050 0.1050 0.1050
0.1259 0.1259 0.1259
0.1466 0.1466 0.1466
0.1670 0.1670 0.1670
0.1872 0.1872 0.1872
0.0000 0.0000 0.0000
0.0000 0.0000 0.0000
0.0000 0.0000 0.0000
0.0000 0.0000 0.0000
0.0000 0.0000 0.0000
0.0244 0.0244 0.0244
0.0476 0.0476 0.0476
0.0699 0.0699 0.0699
0.0915 0.0915 0.0915
0.1127 0.1127 0.1127
0.1335 0.1335 0.1335
0.1540 0.1540 0.1540
0.1743 0.1743 0.1743
0.1945 0.1945 0.1945
0.2144 0.2144 0.2144
0.2341 0.2341 0.2341
0.2538 0.2538 0.2538
0.0000 0.0000 0.0000
0.0086 0.0086 0.0086
0.0330 0.0330 0.0330
0.0558 0.0558 0.0558
0.0778 0.0778 0.0778
0.0992 0.0992 0.0992
0.1203 0.1203 0.1203
0.1410 0.1410 0.1410
0.1615 0.1615 0.1615
0.1817 0.1817 0.1817
0.2017 0.2017 0.2017
0.2216 0.2216 0.2216
0.2413 0.2413 0.2413
0.2609 0.2609 0.2609
0.2803 0.2803 0.2803
0.2997 0.2997 0.2997
0.3189 0.3189 0.3189
0.0639 0.0639 0.0639
0.0857 0.0857 0.0857
0.1069 0.1069 0.1069
0.1278 0.1278 0.1278
0.1485 0.1485 0.1485
0.1688 0.1688 0.1688
0.1890 0.1890 0.1890
0.2090 0.2090 0.2090
0.2288 0.2288 0.2288
0.2485 0.2485 0.2485
0.2680 0.2680 0.2680
0.2874 0.2874 0.2874
0.3067 0.3067 0.3067
0.3259 0.3259 0.3259
0.3450 0.3450 0.3450
0.3639 0.3639 0.3639
0.3829 0.3829 0.3829
0.1354 0.1354 0.1354
0.1559 0.1559 0.1559
0.1762 0.1762 0.1762
0.1963 0.1963 0.1963
0.2162 0.2162 0.2162
0.2360 0.2360 0.2360
0.2556 0.2556 0.2556
0.2751 0.2751 0.2751
0.2944 0.2944 0.2944
0.3137 0.3137 0.3137
0.3328 0.3328 0.3328
0.3519 0.3519 0.3519
0.3708 0.3708 0.3708
0.3897 0.3897 0.3897
0.4085 0.4085 0.4085
0.4273 0.4273 0.4273
0.4459 0.4459 0.4459
0.2036 0.2036 0.2036
0.2234 0.2234 0.2234
0.2431 0.2431 0.2431
0.2627 0.2627 0.2627
0.2821 0.2821 0.2821
0.3014 0.3014 0.3014
0.3207 0.3207 0.3207
0.3398 0.3398 0.3398
0.3588 0.3588 0.3588
0.3777 0.3777 0.3777
0.3966 0.3966 0.3966
0.4154 0.4154 0.4154
0.4341 0.4341 0.4341
0.4527 0.4527 0.4527
0.4713 0.4713 0.4713
0.4898 0.4898 0.4898
0.5082 0.5082 0.5082
0.2698 0.2698 0.2698
0.2892 0.2892 0.2892
0.3085 0.3085 0.3085
0.3276 0.3276 0.3276
0.3467 0.3467 0.3467
0.3657 0.3657 0.3657
0.3846 0.3846 0.3846
0.4034 0.4034 0.4034
0.4222 0.4222 0.4222
0.4408 0.4408 0.4408
0.4595 0.4595 0.4595
0.4780 0.4780 0.4780
0.4965 0.4965 0.4965
0.5149 0.5149 0.5149
0.5333 0.5333 0.5333
0.5516 0.5516 0.5516
0.5698 0.5698 0.5698
0.3346 0.3346 0.3346
0.3536 0.3536 0.3536
0.3726 0.3726 0.3726
0.3915 0.3915 0.3915
0.4103 0.4103 0.4103
0.4290 0.4290 0.4290
0.4476 0.4476 0.4476
0.4662 0.4662 0.4662
0.4847 0.4847 0.4847
0.5032 0.5032 0.5032
0.5216 0.5216 0.5216
0.5399 0.5399 0.5399
0.5582 0.5582 0.5582
0.5764 0.5764 0.5764
0.5946 0.5946 0.5946
0.6128 0.6128 0.6128
0.6309 0.6309 0.6309
0.3983 0.3983 0.3983
0.4171 0.4171 0.4171
0.4358 0.4358 0.4358
0.4544 0.4544 0.4544
0.4730 0.4730 0.4730
0.4915 0.4915 0.4915
0.5099 0.5099 0.5099
0.5283 0.5283 0.5283
0.5466 0.5466 0.5466
0.5649 0.5649 0.5649
0.5831 0.5831 0.5831
0.6012 0.6012 0.6012
0.6194 0.6194 0.6194
0.6374 0.6374 0.6374
0.6555 0.6555 0.6555
0.6735 0.6735 0.6735
0.6914 0.6914 0.6914
0.4612 0.4612 0.4612
0.4797 0.4797 0.4797
0.4982 0.4982 0.4982
0.5166 0.5166 0.5166
0.5349 0.5349 0.5349
0.5532 0.5532 0.5532
0.5715 0.5715 0.5715
0.5897 0.5897 0.5897
0.6078 0.6078 0.6078
0.6259 0.6259 0.6259
0.6440 0.6440 0.6440
0.6620 0.6620 0.6620
0.6800 0.6800 0.6800
0.6979 0.6979 0.6979
0.7158 0.7158 0.7158
0.7337 0.7337 0.7337
0.7515 0.7515 0.7515
0.5233 0.5233 0.5233
0.5416 0.5416 0.5416
0.5599 0.5599 0.5599
0.5781 0.5781 0.5781
0.5963 0.5963 0.5963
0.6144 0.6144 0.6144
0.6325 0.6325 0.6325
0.6506 0.6506 0.6506
0.6686 0.6686 0.6686
0.6865 0.6865 0.6865
0.7044 0.7044 0.7044
0.7223 0.7223 0.7223
0.7402 0.7402 0.7402
0.7580 0.7580 0.7580
0.7757 0.7757 0.7757
0.7934 0.7934 0.7934
0.8111 0.8111 0.8111
0.5848 0.5848 0.5848
0.6029 0.6029 0.6029
0.6210 0.6210 0.6210
0.6391 0.6391 0.6391
0.6571 0.6571 0.6571
0.6751 0.6751 0.6751
0.6931 0.6931 0.6931
0.7110 0.7110 0.7110
0.7288 0.7288 0.7288
0.7466 0.7466 0.7466
0.7644 0.7644 0.7644
0.7822 0.7822 0.7822
0.7999 0.7999 0.7999
0.8176 0.8176 0.8176
0.8352 0.8352 0.8352
0.8528 0.8528 0.8528
0.8704 0.8704 0.8704
0.6457 0.6457 0.6457
0.6637 0.6637 0.6637
0.6816 0.6816 0.6816
0.6996 0.6996 0.6996
0.7175 0.7175 0.7175
0.7353 0.7353 0.7353
0.7531 0.7531 0.7531
0.7709 0.7709 0.7709
0.7886 0.7886 0.7886
0.8063 0.8063 0.8063
0.8240 0.8240 0.8240
0.8416 0.8416 0.8416
0.8592 0.8592 0.8592
0.8768 0.8768 0.8768
0.8944 0.8944 0.8944
0.9119 0.9119 0.9119
0.9294 0.9294 0.9294
0.7061 0.7061 0.7061
0.7240 0.7240 0.7240
0.7418 0.7418 0.7418
0.7596 0.7596 0.7596
0.7774 0.7774 0.7774
0.7951 0.7951 0.7951
0.8128 0.8128 0.8128
0.8304 0.8304 0.8304
0.8481 0.8481 0.8481
0.8657 0.8657 0.8657
0.8832 0.8832 0.8832
0.9007 0.9007 0.9007
0.9182 0.9182 0.9182
0.9357 0.9357 0.9357
0.9532 0.9532 0.9532
0.9706 0.9706 0.9706
0.9880 0.9880 0.9880
0.7661 0.7661 0.7661
0.7838 0.7838 0.7838
0.8015 0.8015 0.8015
0.8192 0.8192 0.8192
0.8369 0.8369 0.8369
0.8545 0.8545 0.8545
0.8720 0.8720 0.8720
0.8896 0.8896 0.8896
0.9071 0.9071 0.9071
0.9246 0.9246 0.9246
0.9421 0.9421 0.9421
0.9595 0.9595 0.9595
0.9769 0.9769 0.9769
0.9943 0.9943 0.9943
1.0000 1.0000 1.0000
1.0000 1.0000 1.0000
1.0000 1.0000 1.0000
0.8256 0.8256 0.8256
0.8433 0.8433 0.8433
0.8609 0.8609 0.8609
0.8784 0.8784 0.8784
0.8960 0.8960 0.8960
0.9135 0.9135 0.9135
0.9310 0.9310 0.9310
0.9484 0.9484 0.9484
0.9659 0.9659 0.9659
0.9832 0.9832 0.9832
1.0000 1.0000 1.0000
1.0000 1.0000 1.0000
1.0000 1.0000 1.0000
1.0000 1.0000 1.0000
1.0000 1.0000 1.0000
1.0000 1.0000 1.0000
1.0000 1.0000 1.0000
0.0000 0.0000 0.0000
0.0000 0.0000 0.0000
0.0000 0.0000 0.0000
0.0000 0.0000 0.0000
0.0000 0.0000 0.0000
0.0000 0.0000 0.0000
0.0000 0.0000 0.0000
0.0000 0.0000 0.0000
0.0000 0.0000 0.0000
0.0000 0.0000 0.0000
0.0000 0.0000 0.0000
0.0149 0.0149 0.0149
0.0388 0.0388 0.0388
0.0613 0.0613 0.0613
0.0831 0.0831 0.0831
0.1045 0.1045 0.1045
0.1254 0.1254 0.1254
0.0000 0.0000 0.0000
0.0000 0.0000 0.0000
0.0000 0.0000 0.0000
0.0000 0.0000 0.0000
0.0000 0.0000 0.0000
0.0000 0.0000 0.0000
0.0000 0.0000 0.0000
0.0000 0.0000 0.0000
0.0239 0.0239 0.0239
0.0471 0.0471 0.0471
0.0693 0.0693 0.0693
0.0910 0.0910 0.0910
0.1121 0.1121 0.1121
0.1330 0.1330 0.1330
0.1535 0.1535 0.1535
0.1738 0.1738 0.1738
0.1940 0.1940 0.1940
0.0000 0.0000 0.0000
0.0000 0.0000 0.0000
0.0000 0.0000 0.0000
0.0000 0.0000 0.0000
0.0080 0.0080 0.0080
0.0325 0.0325 0.0325
0.0553 0.0553 0.0553
0.0773 0.0773 0.0773
0.0987 0.0987 0.0987
0.1198 0.1198 0.1198
0.1405 0.1405 0.1405
0.1610 0.1610 0.1610
0.1812 0.1812 0.1812
0.2012 0.2012 0.2012
0.2211 0.2211 0.2211
0.2408 0.2408 0.2408
0.2604 0.2604 0.2604
0.0000 0.0000 0.0000
0.0172 0.0172 0.0172
0.0409 0.0409 0.0409
0.0634 0.0634 0.0634
0.0851 0.0851 0.0851
0.1064 0.1064 0.1064
0.1273 0.1273 0.1273
0.1480 0.1480 0.1480
0.1683 0.1683 0.1683
0.1885 0.1885 0.1885
0.2085 0.2085 0.2085
0.2283 0.2283 0.2283
0.2480 0.2480 0.2480
0.2675 0.2675 0.2675
0.2869 0.2869 0.2869
0.3062 0.3062 0.3062
0.3254 0.3254 0.3254
0.0713 0.0713 0.0713
0.0929 0.0929 0.0929
0.1141 0.1141 0.1141
0.1349 0.1349 0.1349
0.1554 0.1554 0.1554
0.1757 0.1757 0.1757
0.1958 0.1958 0.1958
0.2157 0.2157 0.2157
0.2355 0.2355 0.2355
0.2551 0.2551 0.2551
0.2746 0.2746 0.2746
0.2939 0.2939 0.2939
0.3132 0.3132 0.3132
0.3324 0.3324 0.3324
0.3514 0.3514 0.3514
0.3704 0.3704 0.3704
0.3893 0.3893 0.3893
0.1424 0.1424 0.1424
0.1628 0.1628 0.1628
0.1830 0.1830 0.1830
0.2031 0.2031 0.2031
0.2229 0.2229 0.2229
0.2426 0.2426 0.2426
0.2622 0.2622 0.2622
0.2816 0.2816 0.2816
0.3010 0.3010 0.3010
0.3202 0.3202 0.3202
0.3393 0.3393 0.3393
0.3583 0.3583 0.3583
0.3773 0.3773 0.3773
0.3961 0.3961 0.3961
0.4149 0.4149 0.4149
0.4336 0.4336 0.4336
0.4522 0.4522 0.4522
0.2103 0.2103 0.2103
0.2301 0.2301 0.2301
0.2498 0.2498 0.2498
0.2693 0.2693 0.2693
0.2887 0.2887 0.2887
0.3080 0.3080 0.3080
0.3272 0.3272 0.3272
0.3462 0.3462 0.3462
0.3652 0.3652 0.3652
0.3841 0.3841 0.3841
0.4030 0.4030 0.4030
0.4217 0.4217 0.4217
0.4404 0.4404 0.4404
0.4590 0.4590 0.4590
0.4775 0.4775 0.4775
0.4960 0.4960 0.4960
0.5144 0.5144 0.5144
0.2764 0.2764 0.2764
0.2957 0.2957 0.2957
0.3150 0.3150 0.3150
0.3341 0.3341 0.3341
0.3532 0.3532 0.3532
0.3721 0.3721 0.3721
0.3910 0.3910 0.3910
0.4098 0.4098 0.4098
0.4285 0.4285 0.4285
0.4472 0.4472 0.4472
0.4658 0.4658 0.4658
0.4843 0.4843 0.4843
0.5027 0.5027 0.5027
0.5211 0.5211 0.5211
0.5395 0.5395 0.5395
0.5578 0.5578 0.5578
0.5760 0.5760 0.5760
0.3411 0.3411 0.3411
0.3601 0.3601 0.3601
0.3790 0.3790 0.3790
0.3979 0.3979 0.3979
0.4166 0.4166 0.4166
0.4353 0.4353 0.4353
0.4539 0.4539 0.4539
0.4725 0.4725 0.4725
0.4910 0.4910 0.4910
0.5094 0.5094 0.5094
0.5278 0.5278 0.5278
0.5461 0.5461 0.5461
0.5644 0.5644 0.5644
0.5826 0.5826 0.5826
0.6008 0.6008 0.6008
0.6189 0.6189 0.6189
0.6370 0.6370 0.6370
0.4047 0.4047 0.4047
0.4234 0.4234 0.4234
0.4421 0.4421 0.4421
0.4607 0.4607 0.4607
0.4792 0.4792 0.4792
0.4977 0.4977 0.4977
0.5161 0.5161 0.5161
0.5345 0.5345 0.5345
0.5528 0.5528 0.5528
0.5711 0.5711 0.5711
0.5893 0.5893 0.5893
0.6074 0.6074 0.6074
0.6255 0.6255 0.6255
0.6436 0.6436 0.6436
0.6616 0.6616 0.6616
0.6796 0.6796 0.6796
0.6975 0.6975 0.6975
0.4675 0.4675 0.4675
0.4860 0.4860 0.4860
0.5044 0.5044 0.5044
0.5228 0.5228 0.5228
0.5412 0.5412 0.5412
0.5594 0.5594 0.5594
0.5777 0.5777 0.5777
0.5959 0.5959 0.5959
0.6140 0.6140 0.6140
0.6321 0.6321 0.6321
0.6501 0.6501 0.6501
0.6681 0.6681 0.6681
0.6861 0.6861 0.6861
0.7040 0.7040 0.7040
0.7219 0.7219 0.7219
0.7397 0.7397 0.7397
0.7575 0.7575 0.7575
0.5295 0.5295 0.5295
0.5478 0.5478 0.5478
0.5661 0.5661 0.5661
0.5843 0.5843 0.5843
0.6025 0.6025 0.6025
0.6206 0.6206 0.6206
0.6387 0.6387 0.6387
0.6567 0.6567 0.6567
0.6747 0.6747 0.6747
0.6926 0.6926 0.6926
0.7105 0.7105 0.7105
0.7284 0.7284 0.7284
0.7462 0.7462 0.7462
0.7640 0.7640 0.7640
0.7817 0.7817 0.7817
0.7995 0.7995 0.7995
0.8171 0.8171 0.8171
0.5909 0.5909 0.5909
0.6091 0.6091 0.6091
0.6272 0.6272 0.6272
0.6452 0.6452 0.6452
0.6632 0.6632 0.6632
0.6812 0.6812 0.6812
0.6991 0.6991 0.6991
0.7170 0.7170 0.7170
0.7349 0.7349 0.7349
0.7527 0.7527 0.7527
0.7705 0.7705 0.7705
0.7882 0.7882 0.7882
0.8059 0.8059 0.8059
0.8236 0.8236 0.8236
0.8412 0.8412 0.8412
0.8588 0.8588 0.8588
0.8764 0.8764 0.8764
0.6518 0.6518 0.6518
0.6698 0.6698 0.6698
0.6877 0.6877 0.6877
0.7057 0.7057 0.7057
0.7235 0.7235 0.7235
0.7414 0.7414 0.7414
0.7592 0.7592 0.7592
0.7769 0.7769 0.7769
0.7946 0.7946 0.7946
0.8123 0.8123 0.8123
0.8300 0.8300 0.8300
0.8476 0.8476 0.8476
0.8652 0.8652 0.8652
0.8828 0.8828 0.8828
0.9003 0.9003 0.9003
0.9178 0.9178 0.9178
0.9353 0.9353 0.9353
0.7122 0.7122 0.7122
0.7300 0.7300 0.7300
0.7478 0.7478 0.7478
0.7656 0.7656 0.7656
0.7834 0.7834 0.7834
0.8011 0.8011 0.8011
0.8188 0.8188 0.8188
0.8364 0.8364 0.8364
0.8540 0.8540 0.8540
0.8716 0.8716 0.8716
0.8892 0.8892 0.8892
0.9067 0.9067 0.9067
0.9242 0.9242 0.9242
0.9416 0.9416 0.9416
0.9591 0.9591 0.9591
0.9765 0.9765 0.9765
0.9939 0.9939 0.9939
0.7721 0.7721 0.7721
0.7898 0.7898 0.7898
0.8075 0.8075 0.8075
0.8252 0.8252 0.8252
0.8428 0.8428 0.8428
0.8604 0.8604 0.8604
0.8780 0.8780 0.8780
0.8956 0.8956 0.8956
0.9131 0.9131 0.9131
0.9305 0.9305 0.9305
0.9480 0.9480 0.9480
0.9654 0.9654 0.9654
0.9828 0.9828 0.9828
1.0000 1.0000 1.0000
1.0000 1.0000 1.0000
1.0000 1.0000 1.0000
1.0000 1.0000 1.0000
0.8316 0.8316 0.8316
0.8492 0.8492 0.8492
0.8668 0.8668 0.8668
0.8844 0.8844 0.8844
0.9019 0.9019 0.9019
0.9194 0.9194 0.9194
0.9369 0.9369 0.9369
0.9543 0.9543 0.9543
0.9718 0.9718 0.9718
0.9892 0.9892 0.9892
1.0000 1.0000 1.0000
1.0000 1.0000 1.0000
1.0000 1.0000 1.0000
1.0000 1.0000 1.0000
1.0000 1.0000 1.0000
1.0000 1.0000 1.0000
1.0000 1.0000 1.0000
0.0000 0.0000 0.0000
0.0000 0.0000 0.0000
0.0000 0.0000 0.0000
0.0000 0.0000 0.0000
0.0000 0.0000 0.0000
0.0000 0.0000 0.0000
0.0000 0.0000 0.0000
0.0000 0.0000 0.0000
0.0000 0.0000 0.0000
0.0000 0.0000 0.0000
0.0000 0.0000 0.0000
0.0233 0.0233 0.0233
0.0465 0.0465 0.0465
0.0688 0.0688 0.0688
0.0904 0.0904 0.0904
0.1116 0.1116 0.1116
0.1325 0.1325 0.1325
0.0000 0.0000 0.0000
0.0000 0.0000 0.0000
0.0000 0.0000 0.0000
0.0000 0.0000 0.0000
0.0000 0.0000 0.0000
0.0000 0.0000 0.0000
0.0000 0.0000 0.0000
0.0073 0.0073 0.0073
0.0319 0.0319 0.0319
0.0547 0.0547 0.0547
0.0767 0.0767 0.0767
0.0982 0.0982 0.0982
0.1192 0.1192 0.1192
0.1400 0.1400 0.1400
0.1605 0.1605 0.1605
0.1807 0.1807 0.1807
