public/luts/punch.cube
# edite look: Punch (CC0)
TITLE "Punch"
LUT_3D_SIZE 5
DOMAIN_MIN 0.0 0.0 0.0
DOMAIN_MAX 1.0 1.0 1.0
0.0000 0.0000 0.0000
0.3160 0.0000 0.0000
0.7020 0.0000 0.0000
1.0000 0.0000 0.0000
1.0000 0.0000 0.0000
0.0000 0.2515 0.0000
0.2243 0.2243 0.0000
0.6102 0.1970 0.0000
0.9962 0.1697 0.0000
1.0000 0.1425 0.0000
0.0000 0.5731 0.0000
0.1325 0.5458 0.0000
0.5185 0.5185 0.0000
0.9045 0.4913 0.0000
1.0000 0.4640 0.0000
0.0000 0.8946 0.0000
0.0408 0.8673 0.0000
0.4268 0.8400 0.0000
0.8128 0.8128 0.0000
1.0000 0.7855 0.0000
0.0000 1.0000 0.0000
0.0000 1.0000 0.0000
0.3351 1.0000 0.0000
0.7211 1.0000 0.0000
1.0000 1.0000 0.0000
0.0000 0.0000 0.3340
0.3067 0.0000 0.3067
0.6927 0.0000 0.2795
1.0000 0.0000 0.2522
1.0000 0.0000 0.2249
0.0000 0.2423 0.2423
0.2150 0.2150 0.2150
0.6010 0.1877 0.1877
0.9870 0.1605 0.1605
1.0000 0.1332 0.1332
0.0000 0.5638 0.1505
0.1233 0.5365 0.1233
0.5093 0.5093 0.0960
0.8952 0.4820 0.0687
1.0000 0.4547 0.0415
0.0000 0.8853 0.0588
0.0316 0.8581 0.0316
0.4175 0.8308 0.0043
0.8035 0.8035 0.0000
1.0000 0.7763 0.0000
0.0000 1.0000 0.0000
0.0000 1.0000 0.0000
0.3258 1.0000 0.0000
0.7118 1.0000 0.0000
1.0000 1.0000 0.0000
0.0000 0.0000 0.7380
0.2975 0.0000 0.7107
0.6834 0.0000 0.6834
1.0000 0.0000 0.6562
1.0000 0.0000 0.6289
0.0000 0.2330 0.6463
0.2057 0.2057 0.6190
0.5917 0.1785 0.5917
0.9777 0.1512 0.5645
1.0000 0.1239 0.5372
0.0000 0.5545 0.5545
0.1140 0.5273 0.5273
0.5000 0.5000 0.5000
0.8860 0.4727 0.4727
1.0000 0.4455 0.4455
0.0000 0.8761 0.4628
0.0223 0.8488 0.4355
0.4083 0.8215 0.4083
0.7943 0.7943 0.3810
1.0000 0.7670 0.3537
0.0000 1.0000 0.3711
0.0000 1.0000 0.3438
0.3166 1.0000 0.3166
0.7025 1.0000 0.2893
1.0000 1.0000 0.2620
0.0000 0.0000 1.0000
0.2882 0.0000 1.0000
0.6742 0.0000 1.0000
1.0000 0.0000 1.0000
1.0000 0.0000 1.0000
0.0000 0.2237 1.0000
0.1965 0.1965 1.0000
0.5825 0.1692 0.9957
0.9684 0.1419 0.9684
1.0000 0.1147 0.9412
0.0000 0.5453 0.9585
0.1048 0.5180 0.9313
0.4907 0.4907 0.9040
0.8767 0.4635 0.8767
1.0000 0.4362 0.8495
0.0000 0.8668 0.8668
0.0130 0.8395 0.8395
0.3990 0.8123 0.8123
0.7850 0.7850 0.7850
1.0000 0.7577 0.7577
0.0000 1.0000 0.7751
0.0000 1.0000 0.7478
0.3073 1.0000 0.7205
0.6933 1.0000 0.6933
1.0000 1.0000 0.6660
0.0000 0.0000 1.0000
0.2789 0.0000 1.0000
0.6649 0.0000 1.0000
1.0000 0.0000 1.0000
1.0000 0.0000 1.0000
0.0000 0.2145 1.0000
0.1872 0.1872 1.0000
0.5732 0.1600 1.0000
0.9592 0.1327 1.0000
1.0000 0.1054 1.0000
0.0000 0.5360 1.0000
0.0955 0.5087 1.0000
0.4815 0.4815 1.0000
0.8675 0.4542 1.0000
1.0000 0.4269 1.0000
0.0000 0.8575 1.0000
0.0038 0.8303 1.0000
0.3898 0.8030 1.0000
0.7757 0.7757 1.0000
1.0000 0.7485 1.0000
0.0000 1.0000 1.0000
0.0000 1.0000 1.0000
0.2980 1.0000 1.0000
0.6840 1.0000 1.0000
1.0000 1.0000 1.0000
