public/luts/punch.cube
# edite look: Punch (CC0)
TITLE "Punch"
LUT_3D_SIZE 17
DOMAIN_MIN 0.0 0.0 0.0
DOMAIN_MAX 1.0 1.0 1.0
0.0000 0.0000 0.0000
0.0265 0.0000 0.0000
0.1230 0.0000 0.0000
0.2195 0.0000 0.0000
0.3160 0.0000 0.0000
0.4125 0.0000 0.0000
0.5090 0.0000 0.0000
0.6055 0.0000 0.0000
0.7020 0.0000 0.0000
0.7985 0.0000 0.0000
0.8950 0.0000 0.0000
0.9915 0.0000 0.0000
1.0000 0.0000 0.0000
1.0000 0.0000 0.0000
1.0000 0.0000 0.0000
1.0000 0.0000 0.0000
1.0000 0.0000 0.0000
0.0000 0.0104 0.0000
0.0036 0.0036 0.0000
0.1001 0.0000 0.0000
0.1966 0.0000 0.0000
0.2931 0.0000 0.0000
0.3895 0.0000 0.0000
0.4860 0.0000 0.0000
0.5825 0.0000 0.0000
0.6790 0.0000 0.0000
0.7755 0.0000 0.0000
0.8720 0.0000 0.0000
0.9685 0.0000 0.0000
1.0000 0.0000 0.0000
1.0000 0.0000 0.0000
1.0000 0.0000 0.0000
1.0000 0.0000 0.0000
1.0000 0.0000 0.0000
0.0000 0.0908 0.0000
0.0000 0.0839 0.0000
0.0771 0.0771 0.0000
0.1736 0.0703 0.0000
0.2701 0.0635 0.0000
0.3666 0.0567 0.0000
0.4631 0.0499 0.0000
0.5596 0.0430 0.0000
0.6561 0.0362 0.0000
0.7526 0.0294 0.0000
0.8491 0.0226 0.0000
0.9456 0.0158 0.0000
1.0000 0.0090 0.0000
1.0000 0.0021 0.0000
1.0000 0.0000 0.0000
1.0000 0.0000 0.0000
1.0000 0.0000 0.0000
0.0000 0.1711 0.0000
0.0000 0.1643 0.0000
0.0542 0.1575 0.0000
0.1507 0.1507 0.0000
0.2472 0.1439 0.0000
0.3437 0.1371 0.0000
0.4402 0.1302 0.0000
0.5367 0.1234 0.0000
0.6332 0.1166 0.0000
0.7297 0.1098 0.0000
0.8262 0.1030 0.0000
0.9227 0.0962 0.0000
1.0000 0.0893 0.0000
1.0000 0.0825 0.0000
1.0000 0.0757 0.0000
1.0000 0.0689 0.0000
1.0000 0.0621 0.0000
0.0000 0.2515 0.0000
0.0000 0.2447 0.0000
0.0313 0.2379 0.0000
0.1278 0.2311 0.0000
0.2243 0.2243 0.0000
0.3208 0.2174 0.0000
0.4173 0.2106 0.0000
0.5137 0.2038 0.0000
0.6102 0.1970 0.0000
0.7067 0.1902 0.0000
0.8032 0.1834 0.0000
0.8997 0.1765 0.0000
0.9962 0.1697 0.0000
1.0000 0.1629 0.0000
1.0000 0.1561 0.0000
1.0000 0.1493 0.0000
1.0000 0.1425 0.0000
0.0000 0.3319 0.0000
0.0000 0.3251 0.0000
0.0083 0.3183 0.0000
0.1048 0.3115 0.0000
0.2013 0.3046 0.0000
0.2978 0.2978 0.0000
0.3943 0.2910 0.0000
0.4908 0.2842 0.0000
0.5873 0.2774 0.0000
0.6838 0.2706 0.0000
0.7803 0.2637 0.0000
0.8768 0.2569 0.0000
0.9733 0.2501 0.0000
1.0000 0.2433 0.0000
1.0000 0.2365 0.0000
1.0000 0.2297 0.0000
1.0000 0.2228 0.0000
0.0000 0.4123 0.0000
0.0000 0.4055 0.0000
0.0000 0.3987 0.0000
0.0819 0.3918 0.0000
0.1784 0.3850 0.0000
0.2749 0.3782 0.0000
0.3714 0.3714 0.0000
0.4679 0.3646 0.0000
0.5644 0.3578 0.0000
0.6609 0.3509 0.0000
0.7574 0.3441 0.0000
0.8539 0.3373 0.0000
0.9504 0.3305 0.0000
1.0000 0.3237 0.0000
1.0000 0.3169 0.0000
1.0000 0.3100 0.0000
1.0000 0.3032 0.0000
0.0000 0.4927 0.0000
0.0000 0.4859 0.0000
0.0000 0.4790 0.0000
0.0590 0.4722 0.0000
0.1555 0.4654 0.0000
0.2520 0.4586 0.0000
0.3485 0.4518 0.0000
0.4450 0.4450 0.0000
0.5415 0.4381 0.0000
0.6379 0.4313 0.0000
0.7344 0.4245 0.0000
0.8309 0.4177 0.0000
0.9274 0.4109 0.0000
1.0000 0.4041 0.0000
1.0000 0.3972 0.0000
1.0000 0.3904 0.0000
1.0000 0.3836 0.0000
0.0000 0.5731 0.0000
0.0000 0.5662 0.0000
0.0000 0.5594 0.0000
0.0360 0.5526 0.0000
0.1325 0.5458 0.0000
0.2290 0.5390 0.0000
0.3255 0.5322 0.0000
0.4220 0.5253 0.0000
0.5185 0.5185 0.0000
0.6150 0.5117 0.0000
0.7115 0.5049 0.0000
0.8080 0.4981 0.0000
0.9045 0.4913 0.0000
1.0000 0.4844 0.0000
1.0000 0.4776 0.0000
1.0000 0.4708 0.0000
1.0000 0.4640 0.0000
0.0000 0.6534 0.0000
0.0000 0.6466 0.0000
0.0000 0.6398 0.0000
0.0131 0.6330 0.0000
0.1096 0.6262 0.0000
0.2061 0.6194 0.0000
0.3026 0.6125 0.0000
0.3991 0.6057 0.0000
0.4956 0.5989 0.0000
0.5921 0.5921 0.0000
0.6886 0.5853 0.0000
0.7851 0.5785 0.0000
0.8816 0.5716 0.0000
0.9781 0.5648 0.0000
1.0000 0.5580 0.0000
1.0000 0.5512 0.0000
1.0000 0.5444 0.0000
0.0000 0.7338 0.0000
0.0000 0.7270 0.0000
0.0000 0.7202 0.0000
0.0000 0.7134 0.0000
0.0867 0.7065 0.0000
0.1832 0.6997 0.0000
0.2797 0.6929 0.0000
0.3762 0.6861 0.0000
0.4727 0.6793 0.0000
0.5692 0.6725 0.0000
0.6656 0.6656 0.0000
0.7621 0.6588 0.0000
0.8586 0.6520 0.0000
0.9551 0.6452 0.0000
1.0000 0.6384 0.0000
1.0000 0.6316 0.0000
1.0000 0.6248 0.0000
0.0000 0.8142 0.0000
0.0000 0.8074 0.0000
0.0000 0.8006 0.0000
0.0000 0.7937 0.0000
0.0637 0.7869 0.0000
0.1602 0.7801 0.0000
0.2567 0.7733 0.0000
0.3532 0.7665 0.0000
0.4497 0.7597 0.0000
0.5462 0.7528 0.0000
0.6427 0.7460 0.0000
0.7392 0.7392 0.0000
0.8357 0.7324 0.0000
0.9322 0.7256 0.0000
1.0000 0.7188 0.0000
1.0000 0.7119 0.0000
1.0000 0.7051 0.0000
0.0000 0.8946 0.0000
0.0000 0.8878 0.0000
0.0000 0.8809 0.0000
0.0000 0.8741 0.0000
0.0408 0.8673 0.0000
0.1373 0.8605 0.0000
0.2338 0.8537 0.0000
0.3303 0.8469 0.0000
0.4268 0.8400 0.0000
0.5233 0.8332 0.0000
0.6198 0.8264 0.0000
0.7163 0.8196 0.0000
0.8128 0.8128 0.0000
0.9093 0.8060 0.0000
1.0000 0.7991 0.0000
1.0000 0.7923 0.0000
1.0000 0.7855 0.0000
0.0000 0.9750 0.0000
0.0000 0.9681 0.0000
0.0000 0.9613 0.0000
0.0000 0.9545 0.0000
0.0179 0.9477 0.0000
0.1144 0.9409 0.0000
0.2109 0.9341 0.0000
0.3074 0.9272 0.0000
0.4039 0.9204 0.0000
0.5004 0.9136 0.0000
0.5969 0.9068 0.0000
0.6934 0.9000 0.0000
0.7898 0.8932 0.0000
0.8863 0.8863 0.0000
0.9828 0.8795 0.0000
1.0000 0.8727 0.0000
1.0000 0.8659 0.0000
0.0000 1.0000 0.0000
0.0000 1.0000 0.0000
0.0000 1.0000 0.0000
0.0000 1.0000 0.0000
0.0000 1.0000 0.0000
0.0914 1.0000 0.0000
0.1879 1.0000 0.0000
0.2844 1.0000 0.0000
0.3809 1.0000 0.0000
0.4774 0.9940 0.0000
0.5739 0.9872 0.0000
0.6704 0.9804 0.0000
0.7669 0.9735 0.0000
0.8634 0.9667 0.0000
0.9599 0.9599 0.0000
1.0000 0.9531 0.0000
1.0000 0.9463 0.0000
0.0000 1.0000 0.0000
0.0000 1.0000 0.0000
0.0000 1.0000 0.0000
0.0000 1.0000 0.0000
0.0000 1.0000 0.0000
0.0685 1.0000 0.0000
0.1650 1.0000 0.0000
0.2615 1.0000 0.0000
0.3580 1.0000 0.0000
0.4545 1.0000 0.0000
0.5510 1.0000 0.0000
0.6475 1.0000 0.0000
0.7440 1.0000 0.0000
0.8405 1.0000 0.0000
0.9370 1.0000 0.0000
1.0000 1.0000 0.0000
1.0000 1.0000 0.0000
0.0000 1.0000 0.0000
0.0000 1.0000 0.0000
0.0000 1.0000 0.0000
0.0000 1.0000 0.0000
0.0000 1.0000 0.0000
0.0456 1.0000 0.0000
0.1421 1.0000 0.0000
0.2386 1.0000 0.0000
0.3351 1.0000 0.0000
0.4316 1.0000 0.0000
0.5281 1.0000 0.0000
0.6246 1.0000 0.0000
0.7211 1.0000 0.0000
0.8176 1.0000 0.0000
0.9140 1.0000 0.0000
1.0000 1.0000 0.0000
1.0000 1.0000 0.0000
0.0000 0.0000 0.0310
0.0242 0.0000 0.0242
0.1207 0.0000 0.0174
0.2172 0.0000 0.0105
0.3137 0.0000 0.0037
0.4102 0.0000 0.0000
0.5067 0.0000 0.0000
0.6032 0.0000 0.0000
0.6997 0.0000 0.0000
0.7961 0.0000 0.0000
0.8926 0.0000 0.0000
0.9891 0.0000 0.0000
1.0000 0.0000 0.0000
1.0000 0.0000 0.0000
1.0000 0.0000 0.0000
1.0000 0.0000 0.0000
1.0000 0.0000 0.0000
0.0000 0.0081 0.0081
0.0013 0.0013 0.0013
0.0977 0.0000 0.0000
0.1942 0.0000 0.0000
0.2907 0.0000 0.0000
0.3872 0.0000 0.0000
0.4837 0.0000 0.0000
0.5802 0.0000 0.0000
0.6767 0.0000 0.0000
0.7732 0.0000 0.0000
0.8697 0.0000 0.0000
0.9662 0.0000 0.0000
1.0000 0.0000 0.0000
1.0000 0.0000 0.0000
1.0000 0.0000 0.0000
1.0000 0.0000 0.0000
1.0000 0.0000 0.0000
0.0000 0.0884 0.0000
0.0000 0.0816 0.0000
0.0748 0.0748 0.0000
0.1713 0.0680 0.0000
0.2678 0.0612 0.0000
0.3643 0.0544 0.0000
0.4608 0.0475 0.0000
0.5573 0.0407 0.0000
0.6538 0.0339 0.0000
0.7503 0.0271 0.0000
0.8468 0.0203 0.0000
0.9433 0.0135 0.0000
1.0000 0.0067 0.0000
1.0000 0.0000 0.0000
1.0000 0.0000 0.0000
1.0000 0.0000 0.0000
1.0000 0.0000 0.0000
0.0000 0.1688 0.0000
0.0000 0.1620 0.0000
0.0519 0.1552 0.0000
0.1484 0.1484 0.0000
0.2449 0.1416 0.0000
0.3414 0.1347 0.0000
0.4379 0.1279 0.0000
0.5344 0.1211 0.0000
0.6309 0.1143 0.0000
0.7274 0.1075 0.0000
0.8239 0.1007 0.0000
0.9203 0.0938 0.0000
1.0000 0.0870 0.0000
1.0000 0.0802 0.0000
1.0000 0.0734 0.0000
1.0000 0.0666 0.0000
1.0000 0.0598 0.0000
0.0000 0.2492 0.0000
0.0000 0.2424 0.0000
0.0290 0.2356 0.0000
0.1254 0.2288 0.0000
0.2219 0.2219 0.0000
0.3184 0.2151 0.0000
0.4149 0.2083 0.0000
0.5114 0.2015 0.0000
0.6079 0.1947 0.0000
0.7044 0.1879 0.0000
0.8009 0.1810 0.0000
0.8974 0.1742 0.0000
0.9939 0.1674 0.0000
1.0000 0.1606 0.0000
1.0000 0.1538 0.0000
1.0000 0.1470 0.0000
1.0000 0.1401 0.0000
0.0000 0.3296 0.0000
0.0000 0.3228 0.0000
0.0060 0.3160 0.0000
0.1025 0.3091 0.0000
0.1990 0.3023 0.0000
0.2955 0.2955 0.0000
0.3920 0.2887 0.0000
0.4885 0.2819 0.0000
0.5850 0.2751 0.0000
0.6815 0.2682 0.0000
0.7780 0.2614 0.0000
0.8745 0.2546 0.0000
0.9710 0.2478 0.0000
1.0000 0.2410 0.0000
1.0000 0.2342 0.0000
1.0000 0.2273 0.0000
1.0000 0.2205 0.0000
0.0000 0.4100 0.0000
0.0000 0.4032 0.0000
0.0000 0.3963 0.0000
0.0796 0.3895 0.0000
0.1761 0.3827 0.0000
0.2726 0.3759 0.0000
0.3691 0.3691 0.0000
0.4656 0.3623 0.0000
0.5621 0.3554 0.0000
0.6586 0.3486 0.0000
0.7551 0.3418 0.0000
0.8516 0.3350 0.0000
0.9481 0.3282 0.0000
1.0000 0.3214 0.0000
1.0000 0.3145 0.0000
1.0000 0.3077 0.0000
1.0000 0.3009 0.0000
0.0000 0.4904 0.0000
0.0000 0.4835 0.0000
0.0000 0.4767 0.0000
0.0567 0.4699 0.0000
0.1532 0.4631 0.0000
0.2496 0.4563 0.0000
0.3461 0.4495 0.0000
0.4426 0.4426 0.0000
0.5391 0.4358 0.0000
0.6356 0.4290 0.0000
0.7321 0.4222 0.0000
0.8286 0.4154 0.0000
0.9251 0.4086 0.0000
1.0000 0.4017 0.0000
1.0000 0.3949 0.0000
1.0000 0.3881 0.0000
1.0000 0.3813 0.0000
0.0000 0.5707 0.0000
0.0000 0.5639 0.0000
0.0000 0.5571 0.0000
0.0337 0.5503 0.0000
0.1302 0.5435 0.0000
0.2267 0.5367 0.0000
0.3232 0.5298 0.0000
0.4197 0.5230 0.0000
0.5162 0.5162 0.0000
0.6127 0.5094 0.0000
0.7092 0.5026 0.0000
0.8057 0.4958 0.0000
0.9022 0.4889 0.0000
0.9987 0.4821 0.0000
1.0000 0.4753 0.0000
1.0000 0.4685 0.0000
1.0000 0.4617 0.0000
0.0000 0.6511 0.0000
0.0000 0.6443 0.0000
0.0000 0.6375 0.0000
0.0108 0.6307 0.0000
0.1073 0.6239 0.0000
0.2038 0.6170 0.0000
0.3003 0.6102 0.0000
0.3968 0.6034 0.0000
0.4933 0.5966 0.0000
0.5898 0.5898 0.0000
0.6863 0.5830 0.0000
0.7828 0.5761 0.0000
0.8793 0.5693 0.0000
0.9758 0.5625 0.0000
1.0000 0.5557 0.0000
1.0000 0.5489 0.0000
1.0000 0.5421 0.0000
0.0000 0.7315 0.0000
0.0000 0.7247 0.0000
0.0000 0.7179 0.0000
0.0000 0.7110 0.0000
0.0844 0.7042 0.0000
0.1809 0.6974 0.0000
0.2774 0.6906 0.0000
0.3738 0.6838 0.0000
0.4703 0.6770 0.0000
0.5668 0.6702 0.0000
0.6633 0.6633 0.0000
0.7598 0.6565 0.0000
0.8563 0.6497 0.0000
0.9528 0.6429 0.0000
1.0000 0.6361 0.0000
1.0000 0.6293 0.0000
1.0000 0.6224 0.0000
0.0000 0.8119 0.0000
0.0000 0.8051 0.0000
0.0000 0.7982 0.0000
0.0000 0.7914 0.0000
0.0614 0.7846 0.0000
0.1579 0.7778 0.0000
0.2544 0.7710 0.0000
0.3509 0.7642 0.0000
0.4474 0.7573 0.0000
0.5439 0.7505 0.0000
0.6404 0.7437 0.0000
0.7369 0.7369 0.0000
0.8334 0.7301 0.0000
0.9299 0.7233 0.0000
1.0000 0.7164 0.0000
1.0000 0.7096 0.0000
1.0000 0.7028 0.0000
0.0000 0.8923 0.0000
0.0000 0.8854 0.0000
0.0000 0.8786 0.0000
0.0000 0.8718 0.0000
0.0385 0.8650 0.0000
0.1350 0.8582 0.0000
0.2315 0.8514 0.0000
0.3280 0.8445 0.0000
0.4245 0.8377 0.0000
0.5210 0.8309 0.0000
0.6175 0.8241 0.0000
0.7140 0.8173 0.0000
0.8105 0.8105 0.0000
0.9070 0.8036 0.0000
1.0000 0.7968 0.0000
1.0000 0.7900 0.0000
1.0000 0.7832 0.0000
0.0000 0.9726 0.0000
0.0000 0.9658 0.0000
0.0000 0.9590 0.0000
0.0000 0.9522 0.0000
0.0156 0.9454 0.0000
0.1121 0.9386 0.0000
0.2086 0.9317 0.0000
0.3051 0.9249 0.0000
0.4015 0.9181 0.0000
0.4980 0.9113 0.0000
0.5945 0.9045 0.0000
0.6910 0.8977 0.0000
0.7875 0.8908 0.0000
0.8840 0.8840 0.0000
0.9805 0.8772 0.0000
1.0000 0.8704 0.0000
1.0000 0.8636 0.0000
0.0000 1.0000 0.0000
0.0000 1.0000 0.0000
0.0000 1.0000 0.0000
0.0000 1.0000 0.0000
0.0000 1.0000 0.0000
0.0891 1.0000 0.0000
0.1856 1.0000 0.0000
0.2821 1.0000 0.0000
0.3786 0.9985 0.0000
0.4751 0.9917 0.0000
0.5716 0.9849 0.0000
0.6681 0.9780 0.0000
0.7646 0.9712 0.0000
0.8611 0.9644 0.0000
0.9576 0.9576 0.0000
1.0000 0.9508 0.0000
1.0000 0.9440 0.0000
0.0000 1.0000 0.0000
0.0000 1.0000 0.0000
0.0000 1.0000 0.0000
0.0000 1.0000 0.0000
0.0000 1.0000 0.0000
0.0662 1.0000 0.0000
0.1627 1.0000 0.0000
0.2592 1.0000 0.0000
0.3557 1.0000 0.0000
0.4522 1.0000 0.0000
0.5487 1.0000 0.0000
0.6452 1.0000 0.0000
0.7417 1.0000 0.0000
0.8382 1.0000 0.0000
0.9347 1.0000 0.0000
1.0000 1.0000 0.0000
1.0000 1.0000 0.0000
0.0000 1.0000 0.0000
0.0000 1.0000 0.0000
0.0000 1.0000 0.0000
0.0000 1.0000 0.0000
0.0000 1.0000 0.0000
0.0433 1.0000 0.0000
0.1398 1.0000 0.0000
0.2363 1.0000 0.0000
0.3328 1.0000 0.0000
0.4293 1.0000 0.0000
0.5257 1.0000 0.0000
0.6222 1.0000 0.0000
0.7187 1.0000 0.0000
0.8152 1.0000 0.0000
0.9117 1.0000 0.0000
1.0000 1.0000 0.0000
1.0000 1.0000 0.0000
0.0000 0.0000 0.1320
0.0219 0.0000 0.1252
0.1184 0.0000 0.1184
0.2149 0.0000 0.1115
0.3114 0.0000 0.1047
0.4079 0.0000 0.0979
0.5043 0.0000 0.0911
0.6008 0.0000 0.0843
0.6973 0.0000 0.0775
0.7938 0.0000 0.0706
0.8903 0.0000 0.0638
0.9868 0.0000 0.0570
1.0000 0.0000 0.0502
1.0000 0.0000 0.0434
1.0000 0.0000 0.0366
1.0000 0.0000 0.0297
1.0000 0.0000 0.0229
0.0000 0.0058 0.1091
0.0000 0.0000 0.1022
0.0954 0.0000 0.0954
0.1919 0.0000 0.0886
0.2884 0.0000 0.0818
0.3849 0.0000 0.0750
0.4814 0.0000 0.0682
0.5779 0.0000 0.0613
0.6744 0.0000 0.0545
0.7709 0.0000 0.0477
0.8674 0.0000 0.0409
0.9639 0.0000 0.0341
1.0000 0.0000 0.0273
1.0000 0.0000 0.0204
1.0000 0.0000 0.0136
1.0000 0.0000 0.0068
1.0000 0.0000 0.0000
0.0000 0.0861 0.0861
0.0000 0.0793 0.0793
0.0725 0.0725 0.0725
0.1690 0.0657 0.0657
0.2655 0.0589 0.0589
0.3620 0.0521 0.0521
0.4585 0.0452 0.0452
0.5550 0.0384 0.0384
0.6515 0.0316 0.0316
0.7480 0.0248 0.0248
0.8445 0.0180 0.0180
0.9410 0.0112 0.0112
1.0000 0.0043 0.0043
1.0000 0.0000 0.0000
1.0000 0.0000 0.0000
1.0000 0.0000 0.0000
1.0000 0.0000 0.0000
0.0000 0.1665 0.0632
0.0000 0.1597 0.0564
0.0496 0.1529 0.0496
0.1461 0.1461 0.0428
0.2426 0.1392 0.0359
0.3391 0.1324 0.0291
0.4356 0.1256 0.0223
0.5320 0.1188 0.0155
0.6285 0.1120 0.0087
0.7250 0.1052 0.0019
0.8215 0.0983 0.0000
0.9180 0.0915 0.0000
1.0000 0.0847 0.0000
1.0000 0.0779 0.0000
1.0000 0.0711 0.0000
1.0000 0.0643 0.0000
1.0000 0.0575 0.0000
0.0000 0.2469 0.0403
0.0000 0.2401 0.0335
0.0266 0.2333 0.0266
0.1231 0.2264 0.0198
0.2196 0.2196 0.0130
0.3161 0.2128 0.0062
0.4126 0.2060 0.0000
0.5091 0.1992 0.0000
0.6056 0.1924 0.0000
0.7021 0.1855 0.0000
0.7986 0.1787 0.0000
0.8951 0.1719 0.0000
0.9916 0.1651 0.0000
1.0000 0.1583 0.0000
1.0000 0.1515 0.0000
1.0000 0.1446 0.0000
1.0000 0.1378 0.0000
0.0000 0.3273 0.0173
0.0000 0.3205 0.0105
0.0037 0.3136 0.0037
0.1002 0.3068 0.0000
0.1967 0.3000 0.0000
0.2932 0.2932 0.0000
0.3897 0.2864 0.0000
0.4862 0.2796 0.0000
0.5827 0.2727 0.0000
0.6792 0.2659 0.0000
0.7757 0.2591 0.0000
0.8722 0.2523 0.0000
0.9687 0.2455 0.0000
1.0000 0.2387 0.0000
1.0000 0.2318 0.0000
1.0000 0.2250 0.0000
1.0000 0.2182 0.0000
0.0000 0.4077 0.0000
0.0000 0.4008 0.0000
0.0000 0.3940 0.0000
0.0773 0.3872 0.0000
0.1738 0.3804 0.0000
0.2703 0.3736 0.0000
0.3668 0.3668 0.0000
0.4633 0.3599 0.0000
0.5598 0.3531 0.0000
0.6562 0.3463 0.0000
0.7527 0.3395 0.0000
0.8492 0.3327 0.0000
0.9457 0.3259 0.0000
1.0000 0.3190 0.0000
1.0000 0.3122 0.0000
1.0000 0.3054 0.0000
1.0000 0.2986 0.0000
0.0000 0.4880 0.0000
0.0000 0.4812 0.0000
0.0000 0.4744 0.0000
0.0543 0.4676 0.0000
0.1508 0.4608 0.0000
0.2473 0.4540 0.0000
0.3438 0.4471 0.0000
0.4403 0.4403 0.0000
0.5368 0.4335 0.0000
0.6333 0.4267 0.0000
0.7298 0.4199 0.0000
0.8263 0.4131 0.0000
0.9228 0.4062 0.0000
1.0000 0.3994 0.0000
1.0000 0.3926 0.0000
1.0000 0.3858 0.0000
1.0000 0.3790 0.0000
0.0000 0.5684 0.0000
0.0000 0.5616 0.0000
0.0000 0.5548 0.0000
0.0314 0.5480 0.0000
0.1279 0.5412 0.0000
0.2244 0.5343 0.0000
0.3209 0.5275 0.0000
0.4174 0.5207 0.0000
0.5139 0.5139 0.0000
0.6104 0.5071 0.0000
0.7069 0.5003 0.0000
0.8034 0.4934 0.0000
0.8999 0.4866 0.0000
0.9964 0.4798 0.0000
1.0000 0.4730 0.0000
1.0000 0.4662 0.0000
1.0000 0.4594 0.0000
0.0000 0.6488 0.0000
0.0000 0.6420 0.0000
0.0000 0.6352 0.0000
0.0085 0.6284 0.0000
0.1050 0.6215 0.0000
0.2015 0.6147 0.0000
0.2980 0.6079 0.0000
0.3945 0.6011 0.0000
0.4910 0.5943 0.0000
0.5875 0.5875 0.0000
0.6840 0.5806 0.0000
0.7804 0.5738 0.0000
0.8769 0.5670 0.0000
0.9734 0.5602 0.0000
1.0000 0.5534 0.0000
1.0000 0.5466 0.0000
1.0000 0.5397 0.0000
0.0000 0.7292 0.0000
0.0000 0.7224 0.0000
0.0000 0.7156 0.0000
0.0000 0.7087 0.0000
0.0820 0.7019 0.0000
0.1785 0.6951 0.0000
0.2750 0.6883 0.0000
0.3715 0.6815 0.0000
0.4680 0.6747 0.0000
0.5645 0.6678 0.0000
0.6610 0.6610 0.0000
0.7575 0.6542 0.0000
0.8540 0.6474 0.0000
0.9505 0.6406 0.0000
1.0000 0.6338 0.0000
1.0000 0.6269 0.0000
1.0000 0.6201 0.0000
0.0000 0.8096 0.0000
0.0000 0.8027 0.0000
0.0000 0.7959 0.0000
0.0000 0.7891 0.0000
0.0591 0.7823 0.0000
0.1556 0.7755 0.0000
0.2521 0.7687 0.0000
0.3486 0.7619 0.0000
0.4451 0.7550 0.0000
0.5416 0.7482 0.0000
0.6381 0.7414 0.0000
0.7346 0.7346 0.0000
0.8311 0.7278 0.0000
0.9276 0.7210 0.0000
1.0000 0.7141 0.0000
1.0000 0.7073 0.0000
1.0000 0.7005 0.0000
0.0000 0.8899 0.0000
0.0000 0.8831 0.0000
0.0000 0.8763 0.0000
0.0000 0.8695 0.0000
0.0362 0.8627 0.0000
0.1327 0.8559 0.0000
0.2292 0.8490 0.0000
0.3257 0.8422 0.0000
0.4222 0.8354 0.0000
0.5187 0.8286 0.0000
0.6152 0.8218 0.0000
0.7117 0.8150 0.0000
0.8081 0.8081 0.0000
0.9046 0.8013 0.0000
1.0000 0.7945 0.0000
1.0000 0.7877 0.0000
1.0000 0.7809 0.0000
0.0000 0.9703 0.0000
0.0000 0.9635 0.0000
0.0000 0.9567 0.0000
0.0000 0.9499 0.0000
0.0132 0.9431 0.0000
0.1097 0.9362 0.0000
0.2062 0.9294 0.0000
0.3027 0.9226 0.0000
0.3992 0.9158 0.0000
0.4957 0.9090 0.0000
0.5922 0.9022 0.0000
0.6887 0.8953 0.0000
0.7852 0.8885 0.0000
0.8817 0.8817 0.0000
0.9782 0.8749 0.0000
1.0000 0.8681 0.0000
1.0000 0.8613 0.0000
0.0000 1.0000 0.0000
0.0000 1.0000 0.0000
0.0000 1.0000 0.0000
0.0000 1.0000 0.0000
0.0000 1.0000 0.0000
0.0868 1.0000 0.0000
0.1833 1.0000 0.0000
0.2798 1.0000 0.0000
0.3763 0.9962 0.0000
0.4728 0.9894 0.0000
0.5693 0.9825 0.0000
0.6658 0.9757 0.0000
0.7623 0.9689 0.0000
0.8588 0.9621 0.0000
0.9553 0.9553 0.0000
1.0000 0.9485 0.0000
1.0000 0.9416 0.0000
0.0000 1.0000 0.0000
0.0000 1.0000 0.0000
0.0000 1.0000 0.0000
0.0000 1.0000 0.0000
0.0000 1.0000 0.0000
0.0639 1.0000 0.0000
0.1604 1.0000 0.0000
0.2569 1.0000 0.0000
0.3534 1.0000 0.0000
0.4499 1.0000 0.0000
0.5464 1.0000 0.0000
0.6429 1.0000 0.0000
0.7394 1.0000 0.0000
0.8359 1.0000 0.0000
0.9323 1.0000 0.0000
1.0000 1.0000 0.0000
1.0000 1.0000 0.0000
0.0000 1.0000 0.0000
0.0000 1.0000 0.0000
0.0000 1.0000 0.0000
0.0000 1.0000 0.0000
0.0000 1.0000 0.0000
0.0410 1.0000 0.0000
0.1374 1.0000 0.0000
0.2339 1.0000 0.0000
0.3304 1.0000 0.0000
0.4269 1.0000 0.0000
0.5234 1.0000 0.0000
0.6199 1.0000 0.0000
0.7164 1.0000 0.0000
0.8129 1.0000 0.0000
0.9094 1.0000 0.0000
1.0000 1.0000 0.0000
1.0000 1.0000 0.0000
0.0000 0.0000 0.2330
0.0196 0.0000 0.2262
0.1160 0.0000 0.2194
0.2125 0.0000 0.2125
0.3090 0.0000 0.2057
0.4055 0.0000 0.1989
0.5020 0.0000 0.1921
0.5985 0.0000 0.1853
0.6950 0.0000 0.1785
0.7915 0.0000 0.1716
0.8880 0.0000 0.1648
0.9845 0.0000 0.1580
1.0000 0.0000 0.1512
1.0000 0.0000 0.1444
1.0000 0.0000 0.1376
1.0000 0.0000 0.1307
1.0000 0.0000 0.1239
0.0000 0.0034 0.2101
0.0000 0.0000 0.2032
0.0931 0.0000 0.1964
0.1896 0.0000 0.1896
0.2861 0.0000 0.1828
0.3826 0.0000 0.1760
0.4791 0.0000 0.1692
0.5756 0.0000 0.1623
0.6721 0.0000 0.1555
0.7686 0.0000 0.1487
0.8651 0.0000 0.1419
0.9616 0.0000 0.1351
1.0000 0.0000 0.1283
1.0000 0.0000 0.1214
1.0000 0.0000 0.1146
1.0000 0.0000 0.1078
