public/luts/punch.cube
# edite look: Punch (CC0)
TITLE "Punch"
LUT_3D_SIZE 9
DOMAIN_MIN 0.0 0.0 0.0
DOMAIN_MAX 1.0 1.0 1.0
0.0000 0.0000 0.0000
0.1230 0.0000 0.0000
0.3160 0.0000 0.0000
0.5090 0.0000 0.0000
0.7020 0.0000 0.0000
0.8950 0.0000 0.0000
1.0000 0.0000 0.0000
1.0000 0.0000 0.0000
1.0000 0.0000 0.0000
0.0000 0.0908 0.0000
0.0771 0.0771 0.0000
0.2701 0.0635 0.0000
0.4631 0.0499 0.0000
0.6561 0.0362 0.0000
0.8491 0.0226 0.0000
1.0000 0.0090 0.0000
1.0000 0.0000 0.0000
1.0000 0.0000 0.0000
0.0000 0.2515 0.0000
0.0313 0.2379 0.0000
0.2243 0.2243 0.0000
0.4173 0.2106 0.0000
0.6102 0.1970 0.0000
0.8032 0.1834 0.0000
0.9962 0.1697 0.0000
1.0000 0.1561 0.0000
1.0000 0.1425 0.0000
0.0000 0.4123 0.0000
0.0000 0.3987 0.0000
0.1784 0.3850 0.0000
0.3714 0.3714 0.0000
0.5644 0.3578 0.0000
0.7574 0.3441 0.0000
0.9504 0.3305 0.0000
1.0000 0.3169 0.0000
1.0000 0.3032 0.0000
0.0000 0.5731 0.0000
0.0000 0.5594 0.0000
0.1325 0.5458 0.0000
0.3255 0.5322 0.0000
0.5185 0.5185 0.0000
0.7115 0.5049 0.0000
0.9045 0.4913 0.0000
1.0000 0.4776 0.0000
1.0000 0.4640 0.0000
0.0000 0.7338 0.0000
0.0000 0.7202 0.0000
0.0867 0.7065 0.0000
0.2797 0.6929 0.0000
0.4727 0.6793 0.0000
0.6656 0.6656 0.0000
0.8586 0.6520 0.0000
1.0000 0.6384 0.0000
1.0000 0.6248 0.0000
0.0000 0.8946 0.0000
0.0000 0.8809 0.0000
0.0408 0.8673 0.0000
0.2338 0.8537 0.0000
0.4268 0.8400 0.0000
0.6198 0.8264 0.0000
0.8128 0.8128 0.0000
1.0000 0.7991 0.0000
1.0000 0.7855 0.0000
0.0000 1.0000 0.0000
0.0000 1.0000 0.0000
0.0000 1.0000 0.0000
0.1879 1.0000 0.0000
0.3809 1.0000 0.0000
0.5739 0.9872 0.0000
0.7669 0.9735 0.0000
0.9599 0.9599 0.0000
1.0000 0.9463 0.0000
0.0000 1.0000 0.0000
0.0000 1.0000 0.0000
0.0000 1.0000 0.0000
0.1421 1.0000 0.0000
0.3351 1.0000 0.0000
0.5281 1.0000 0.0000
0.7211 1.0000 0.0000
0.9140 1.0000 0.0000
1.0000 1.0000 0.0000
0.0000 0.0000 0.1320
0.1184 0.0000 0.1184
0.3114 0.0000 0.1047
0.5043 0.0000 0.0911
0.6973 0.0000 0.0775
0.8903 0.0000 0.0638
1.0000 0.0000 0.0502
1.0000 0.0000 0.0366
1.0000 0.0000 0.0229
0.0000 0.0861 0.0861
0.0725 0.0725 0.0725
0.2655 0.0589 0.0589
0.4585 0.0452 0.0452
0.6515 0.0316 0.0316
0.8445 0.0180 0.0180
1.0000 0.0043 0.0043
1.0000 0.0000 0.0000
1.0000 0.0000 0.0000
0.0000 0.2469 0.0403
0.0266 0.2333 0.0266
0.2196 0.2196 0.0130
0.4126 0.2060 0.0000
0.6056 0.1924 0.0000
0.7986 0.1787 0.0000
0.9916 0.1651 0.0000
1.0000 0.1515 0.0000
1.0000 0.1378 0.0000
0.0000 0.4077 0.0000
0.0000 0.3940 0.0000
0.1738 0.3804 0.0000
0.3668 0.3668 0.0000
0.5598 0.3531 0.0000
0.7527 0.3395 0.0000
0.9457 0.3259 0.0000
1.0000 0.3122 0.0000
1.0000 0.2986 0.0000
0.0000 0.5684 0.0000
0.0000 0.5548 0.0000
0.1279 0.5412 0.0000
0.3209 0.5275 0.0000
0.5139 0.5139 0.0000
0.7069 0.5003 0.0000
0.8999 0.4866 0.0000
1.0000 0.4730 0.0000
1.0000 0.4594 0.0000
0.0000 0.7292 0.0000
0.0000 0.7156 0.0000
0.0820 0.7019 0.0000
0.2750 0.6883 0.0000
0.4680 0.6747 0.0000
0.6610 0.6610 0.0000
0.8540 0.6474 0.0000
1.0000 0.6338 0.0000
1.0000 0.6201 0.0000
0.0000 0.8899 0.0000
0.0000 0.8763 0.0000
0.0362 0.8627 0.0000
0.2292 0.8490 0.0000
0.4222 0.8354 0.0000
0.6152 0.8218 0.0000
0.8081 0.8081 0.0000
1.0000 0.7945 0.0000
1.0000 0.7809 0.0000
0.0000 1.0000 0.0000
0.0000 1.0000 0.0000
0.0000 1.0000 0.0000
0.1833 1.0000 0.0000
0.3763 0.9962 0.0000
0.5693 0.9825 0.0000
0.7623 0.9689 0.0000
0.9553 0.9553 0.0000
1.0000 0.9416 0.0000
0.0000 1.0000 0.0000
0.0000 1.0000 0.0000
0.0000 1.0000 0.0000
0.1374 1.0000 0.0000
0.3304 1.0000 0.0000
0.5234 1.0000 0.0000
0.7164 1.0000 0.0000
0.9094 1.0000 0.0000
1.0000 1.0000 0.0000
0.0000 0.0000 0.3340
0.1137 0.0000 0.3204
0.3067 0.0000 0.3067
0.4997 0.0000 0.2931
0.6927 0.0000 0.2795
0.8857 0.0000 0.2658
1.0000 0.0000 0.2522
1.0000 0.0000 0.2386
1.0000 0.0000 0.2249
0.0000 0.0815 0.2881
0.0679 0.0679 0.2745
0.2609 0.0542 0.2609
0.4539 0.0406 0.2472
0.6468 0.0270 0.2336
0.8398 0.0133 0.2200
1.0000 0.0000 0.2063
1.0000 0.0000 0.1927
1.0000 0.0000 0.1791
0.0000 0.2423 0.2423
0.0220 0.2286 0.2286
0.2150 0.2150 0.2150
0.4080 0.2014 0.2014
0.6010 0.1877 0.1877
0.7940 0.1741 0.1741
0.9870 0.1605 0.1605
1.0000 0.1468 0.1468
1.0000 0.1332 0.1332
0.0000 0.4030 0.1964
0.0000 0.3894 0.1828
0.1691 0.3758 0.1691
0.3621 0.3621 0.1555
0.5551 0.3485 0.1419
0.7481 0.3349 0.1282
0.9411 0.3212 0.1146
1.0000 0.3076 0.1010
1.0000 0.2940 0.0873
0.0000 0.5638 0.1505
0.0000 0.5502 0.1369
0.1233 0.5365 0.1233
0.3163 0.5229 0.1096
0.5093 0.5093 0.0960
0.7023 0.4956 0.0824
0.8952 0.4820 0.0687
1.0000 0.4684 0.0551
1.0000 0.4547 0.0415
0.0000 0.7246 0.1047
0.0000 0.7109 0.0910
0.0774 0.6973 0.0774
0.2704 0.6837 0.0638
0.4634 0.6700 0.0501
0.6564 0.6564 0.0365
0.8494 0.6428 0.0229
1.0000 0.6291 0.0092
1.0000 0.6155 0.0000
0.0000 0.8853 0.0588
0.0000 0.8717 0.0452
0.0316 0.8581 0.0316
0.2245 0.8444 0.0179
0.4175 0.8308 0.0043
0.6105 0.8172 0.0000
0.8035 0.8035 0.0000
0.9965 0.7899 0.0000
1.0000 0.7763 0.0000
0.0000 1.0000 0.0130
0.0000 1.0000 0.0000
0.0000 1.0000 0.0000
0.1787 1.0000 0.0000
0.3717 0.9915 0.0000
0.5647 0.9779 0.0000
0.7577 0.9643 0.0000
0.9506 0.9506 0.0000
1.0000 0.9370 0.0000
0.0000 1.0000 0.0000
0.0000 1.0000 0.0000
0.0000 1.0000 0.0000
0.1328 1.0000 0.0000
0.3258 1.0000 0.0000
0.5188 1.0000 0.0000
0.7118 1.0000 0.0000
0.9048 1.0000 0.0000
1.0000 1.0000 0.0000
0.0000 0.0000 0.5360
0.1091 0.0000 0.5224
0.3021 0.0000 0.5087
0.4951 0.0000 0.4951
0.6881 0.0000 0.4815
0.8811 0.0000 0.4678
1.0000 0.0000 0.4542
1.0000 0.0000 0.4406
1.0000 0.0000 0.4269
0.0000 0.0769 0.4901
0.0632 0.0632 0.4765
0.2562 0.0496 0.4629
0.4492 0.0360 0.4492
0.6422 0.0223 0.4356
0.8352 0.0087 0.4220
1.0000 0.0000 0.4083
1.0000 0.0000 0.3947
1.0000 0.0000 0.3811
0.0000 0.2376 0.4443
0.0174 0.2240 0.4306
0.2104 0.2104 0.4170
0.4034 0.1967 0.4034
0.5964 0.1831 0.3897
0.7893 0.1695 0.3761
0.9823 0.1558 0.3625
1.0000 0.1422 0.3488
1.0000 0.1286 0.3352
0.0000 0.3984 0.3984
0.0000 0.3848 0.3848
0.1645 0.3711 0.3711
0.3575 0.3575 0.3575
0.5505 0.3439 0.3439
0.7435 0.3302 0.3302
0.9365 0.3166 0.3166
1.0000 0.3030 0.3030
1.0000 0.2893 0.2893
0.0000 0.5592 0.3525
0.0000 0.5455 0.3389
0.1186 0.5319 0.3253
0.3116 0.5183 0.3116
0.5046 0.5046 0.2980
0.6976 0.4910 0.2844
0.8906 0.4774 0.2707
1.0000 0.4637 0.2571
1.0000 0.4501 0.2435
0.0000 0.7199 0.3067
0.0000 0.7063 0.2930
0.0728 0.6927 0.2794
0.2658 0.6790 0.2658
0.4588 0.6654 0.2521
0.6518 0.6518 0.2385
0.8448 0.6381 0.2249
1.0000 0.6245 0.2112
1.0000 0.6109 0.1976
0.0000 0.8807 0.2608
0.0000 0.8671 0.2472
0.0269 0.8534 0.2335
0.2199 0.8398 0.2199
0.4129 0.8262 0.2063
0.6059 0.8125 0.1926
0.7989 0.7989 0.1790
0.9919 0.7853 0.1654
1.0000 0.7716 0.1517
0.0000 1.0000 0.2150
0.0000 1.0000 0.2013
0.0000 1.0000 0.1877
0.1741 1.0000 0.1741
0.3670 0.9869 0.1604
0.5600 0.9733 0.1468
0.7530 0.9597 0.1332
0.9460 0.9460 0.1195
1.0000 0.9324 0.1059
0.0000 1.0000 0.1691
0.0000 1.0000 0.1555
0.0000 1.0000 0.1418
0.1282 1.0000 0.1282
0.3212 1.0000 0.1146
0.5142 1.0000 0.1009
0.7072 1.0000 0.0873
0.9002 1.0000 0.0737
1.0000 1.0000 0.0600
0.0000 0.0000 0.7380
0.1045 0.0000 0.7243
0.2975 0.0000 0.7107
0.4905 0.0000 0.6971
0.6834 0.0000 0.6834
0.8764 0.0000 0.6698
1.0000 0.0000 0.6562
1.0000 0.0000 0.6425
1.0000 0.0000 0.6289
0.0000 0.0722 0.6921
0.0586 0.0586 0.6785
0.2516 0.0450 0.6649
0.4446 0.0313 0.6512
0.6376 0.0177 0.6376
0.8306 0.0041 0.6240
1.0000 0.0000 0.6103
1.0000 0.0000 0.5967
1.0000 0.0000 0.5831
0.0000 0.2330 0.6463
0.0127 0.2194 0.6326
0.2057 0.2057 0.6190
0.3987 0.1921 0.6054
0.5917 0.1785 0.5917
0.7847 0.1648 0.5781
0.9777 0.1512 0.5645
1.0000 0.1376 0.5508
1.0000 0.1239 0.5372
0.0000 0.3938 0.6004
0.0000 0.3801 0.5868
0.1599 0.3665 0.5731
0.3529 0.3529 0.5595
0.5459 0.3392 0.5459
0.7389 0.3256 0.5322
0.9318 0.3120 0.5186
1.0000 0.2983 0.5050
1.0000 0.2847 0.4913
0.0000 0.5545 0.5545
0.0000 0.5409 0.5409
0.1140 0.5273 0.5273
0.3070 0.5136 0.5136
0.5000 0.5000 0.5000
0.6930 0.4864 0.4864
0.8860 0.4727 0.4727
1.0000 0.4591 0.4591
1.0000 0.4455 0.4455
0.0000 0.7153 0.5087
0.0000 0.7017 0.4950
0.0682 0.6880 0.4814
0.2611 0.6744 0.4678
0.4541 0.6608 0.4541
0.6471 0.6471 0.4405
0.8401 0.6335 0.4269
1.0000 0.6199 0.4132
1.0000 0.6062 0.3996
0.0000 0.8761 0.4628
0.0000 0.8624 0.4492
0.0223 0.8488 0.4355
0.2153 0.8352 0.4219
0.4083 0.8215 0.4083
0.6013 0.8079 0.3946
0.7943 0.7943 0.3810
0.9873 0.7806 0.3674
1.0000 0.7670 0.3537
0.0000 1.0000 0.4169
0.0000 1.0000 0.4033
0.0000 1.0000 0.3897
0.1694 0.9959 0.3760
0.3624 0.9823 0.3624
0.5554 0.9687 0.3488
0.7484 0.9550 0.3351
0.9414 0.9414 0.3215
1.0000 0.9278 0.3079
0.0000 1.0000 0.3711
0.0000 1.0000 0.3575
0.0000 1.0000 0.3438
0.1236 1.0000 0.3302
0.3166 1.0000 0.3166
0.5095 1.0000 0.3029
0.7025 1.0000 0.2893
0.8955 1.0000 0.2757
1.0000 1.0000 0.2620
0.0000 0.0000 0.9400
0.0998 0.0000 0.9263
0.2928 0.0000 0.9127
0.4858 0.0000 0.8991
0.6788 0.0000 0.8854
0.8718 0.0000 0.8718
1.0000 0.0000 0.8582
1.0000 0.0000 0.8445
1.0000 0.0000 0.8309
0.0000 0.0676 0.8941
0.0540 0.0540 0.8805
0.2470 0.0403 0.8668
0.4400 0.0267 0.8532
0.6330 0.0131 0.8396
0.8259 0.0000 0.8259
1.0000 0.0000 0.8123
1.0000 0.0000 0.7987
1.0000 0.0000 0.7850
0.0000 0.2284 0.8483
0.0081 0.2147 0.8346
0.2011 0.2011 0.8210
0.3941 0.1875 0.8074
0.5871 0.1738 0.7937
0.7801 0.1602 0.7801
0.9731 0.1466 0.7665
1.0000 0.1329 0.7528
1.0000 0.1193 0.7392
0.0000 0.3891 0.8024
0.0000 0.3755 0.7888
0.1552 0.3619 0.7751
0.3482 0.3482 0.7615
0.5412 0.3346 0.7479
0.7342 0.3210 0.7342
0.9272 0.3073 0.7206
1.0000 0.2937 0.7070
1.0000 0.2801 0.6933
0.0000 0.5499 0.7565
0.0000 0.5363 0.7429
0.1094 0.5226 0.7293
0.3024 0.5090 0.7156
0.4954 0.4954 0.7020
0.6884 0.4817 0.6884
0.8814 0.4681 0.6747
1.0000 0.4545 0.6611
1.0000 0.4408 0.6475
0.0000 0.7107 0.7107
0.0000 0.6970 0.6970
0.0635 0.6834 0.6834
0.2565 0.6698 0.6698
0.4495 0.6561 0.6561
0.6425 0.6425 0.6425
0.8355 0.6289 0.6289
1.0000 0.6152 0.6152
1.0000 0.6016 0.6016
0.0000 0.8714 0.6648
0.0000 0.8578 0.6512
0.0177 0.8442 0.6375
0.2107 0.8305 0.6239
0.4036 0.8169 0.6103
0.5966 0.8033 0.5966
0.7896 0.7896 0.5830
0.9826 0.7760 0.5694
1.0000 0.7624 0.5557
0.0000 1.0000 0.6189
0.0000 1.0000 0.6053
0.0000 1.0000 0.5917
0.1648 0.9913 0.5780
0.3578 0.9777 0.5644
0.5508 0.9640 0.5508
0.7438 0.9504 0.5371
0.9368 0.9368 0.5235
1.0000 0.9231 0.5099
0.0000 1.0000 0.5731
0.0000 1.0000 0.5594
0.0000 1.0000 0.5458
0.1189 1.0000 0.5322
0.3119 1.0000 0.5185
0.5049 1.0000 0.5049
0.6979 1.0000 0.4913
0.8909 1.0000 0.4776
1.0000 1.0000 0.4640
0.0000 0.0000 1.0000
0.0952 0.0000 1.0000
0.2882 0.0000 1.0000
0.4812 0.0000 1.0000
0.6742 0.0000 1.0000
0.8672 0.0000 1.0000
1.0000 0.0000 1.0000
1.0000 0.0000 1.0000
1.0000 0.0000 1.0000
0.0000 0.0630 1.0000
0.0494 0.0494 1.0000
0.2423 0.0357 1.0000
0.4353 0.0221 1.0000
0.6283 0.0085 1.0000
0.8213 0.0000 1.0000
1.0000 0.0000 1.0000
1.0000 0.0000 1.0000
1.0000 0.0000 0.9870
0.0000 0.2237 1.0000
0.0035 0.2101 1.0000
0.1965 0.1965 1.0000
0.3895 0.1828 1.0000
0.5825 0.1692 0.9957
0.7755 0.1556 0.9821
0.9684 0.1419 0.9684
1.0000 0.1283 0.9548
1.0000 0.1147 0.9412
0.0000 0.3845 1.0000
0.0000 0.3709 0.9908
0.1506 0.3572 0.9771
0.3436 0.3436 0.9635
0.5366 0.3300 0.9499
0.7296 0.3163 0.9362
0.9226 0.3027 0.9226
1.0000 0.2891 0.9090
1.0000 0.2754 0.8953
0.0000 0.5453 0.9585
0.0000 0.5316 0.9449
0.1048 0.5180 0.9313
0.2977 0.5044 0.9176
0.4907 0.4907 0.9040
0.6837 0.4771 0.8904
0.8767 0.4635 0.8767
1.0000 0.4498 0.8631
1.0000 0.4362 0.8495
0.0000 0.7060 0.9127
0.0000 0.6924 0.8990
0.0589 0.6788 0.8854
0.2519 0.6651 0.8718
0.4449 0.6515 0.8581
0.6379 0.6379 0.8445
0.8309 0.6242 0.8309
1.0000 0.6106 0.8172
1.0000 0.5970 0.8036
0.0000 0.8668 0.8668
0.0000 0.8532 0.8532
0.0130 0.8395 0.8395
0.2060 0.8259 0.8259
0.3990 0.8123 0.8123
0.5920 0.7986 0.7986
0.7850 0.7850 0.7850
0.9780 0.7714 0.7714
1.0000 0.7577 0.7577
0.0000 1.0000 0.8209
0.0000 1.0000 0.8073
0.0000 1.0000 0.7937
0.1602 0.9867 0.7800
0.3532 0.9730 0.7664
0.5461 0.9594 0.7528
0.7391 0.9458 0.7391
0.9321 0.9321 0.7255
1.0000 0.9185 0.7119
0.0000 1.0000 0.7751
0.0000 1.0000 0.7614
0.0000 1.0000 0.7478
0.1143 1.0000 0.7342
0.3073 1.0000 0.7205
0.5003 1.0000 0.7069
0.6933 1.0000 0.6933
0.8863 1.0000 0.6796
1.0000 1.0000 0.6660
0.0000 0.0000 1.0000
0.0906 0.0000 1.0000
0.2836 0.0000 1.0000
0.4766 0.0000 1.0000
0.6696 0.0000 1.0000
0.8626 0.0000 1.0000
1.0000 0.0000 1.0000
1.0000 0.0000 1.0000
1.0000 0.0000 1.0000
0.0000 0.0584 1.0000
0.0447 0.0447 1.0000
0.2377 0.0311 1.0000
0.4307 0.0175 1.0000
0.6237 0.0038 1.0000
0.8167 0.0000 1.0000
1.0000 0.0000 1.0000
1.0000 0.0000 1.0000
1.0000 0.0000 1.0000
0.0000 0.2191 1.0000
0.0000 0.2055 1.0000
0.1919 0.1919 1.0000
0.3848 0.1782 1.0000
0.5778 0.1646 1.0000
0.7708 0.1510 1.0000
0.9638 0.1373 1.0000
1.0000 0.1237 1.0000
1.0000 0.1101 1.0000
0.0000 0.3799 1.0000
0.0000 0.3662 1.0000
0.1460 0.3526 1.0000
0.3390 0.3390 1.0000
0.5320 0.3253 1.0000
0.7250 0.3117 1.0000
0.9180 0.2981 1.0000
1.0000 0.2844 1.0000
1.0000 0.2708 1.0000
0.0000 0.5406 1.0000
0.0000 0.5270 1.0000
0.1001 0.5134 1.0000
0.2931 0.4997 1.0000
0.4861 0.4861 1.0000
0.6791 0.4725 1.0000
0.8721 0.4588 1.0000
1.0000 0.4452 1.0000
1.0000 0.4316 1.0000
0.0000 0.7014 1.0000
0.0000 0.6878 1.0000
0.0543 0.6741 1.0000
0.2473 0.6605 1.0000
0.4402 0.6469 1.0000
0.6332 0.6332 1.0000
0.8262 0.6196 1.0000
1.0000 0.6060 1.0000
1.0000 0.5923 1.0000
0.0000 0.8622 1.0000
0.0000 0.8485 1.0000
0.0084 0.8349 1.0000
0.2014 0.8213 1.0000
0.3944 0.8076 1.0000
0.5874 0.7940 1.0000
0.7804 0.7804 0.9870
0.9734 0.7667 0.9734
1.0000 0.7531 0.9597
0.0000 1.0000 1.0000
0.0000 1.0000 1.0000
0.0000 0.9957 0.9957
0.1555 0.9820 0.9820
0.3485 0.9684 0.9684
0.5415 0.9548 0.9548
0.7345 0.9411 0.9411
0.9275 0.9275 0.9275
1.0000 0.9139 0.9139
0.0000 1.0000 0.9771
0.0000 1.0000 0.9634
0.0000 1.0000 0.9498
0.1097 1.0000 0.9362
0.3027 1.0000 0.9225
0.4957 1.0000 0.9089
0.6886 1.0000 0.8953
0.8816 1.0000 0.8816
1.0000 1.0000 0.8680
0.0000 0.0000 1.0000
0.0860 0.0000 1.0000
0.2789 0.0000 1.0000
0.4719 0.0000 1.0000
0.6649 0.0000 1.0000
0.8579 0.0000 1.0000
1.0000 0.0000 1.0000
1.0000 0.0000 1.0000
1.0000 0.0000 1.0000
0.0000 0.0537 1.0000
0.0401 0.0401 1.0000
0.2331 0.0265 1.0000
0.4261 0.0128 1.0000
0.6191 0.0000 1.0000
0.8121 0.0000 1.0000
1.0000 0.0000 1.0000
1.0000 0.0000 1.0000
1.0000 0.0000 1.0000
0.0000 0.2145 1.0000
0.0000 0.2009 1.0000
0.1872 0.1872 1.0000
0.3802 0.1736 1.0000
0.5732 0.1600 1.0000
0.7662 0.1463 1.0000
0.9592 0.1327 1.0000
1.0000 0.1191 1.0000
1.0000 0.1054 1.0000
0.0000 0.3752 1.0000
0.0000 0.3616 1.0000
0.1414 0.3480 1.0000
0.3344 0.3344 1.0000
0.5273 0.3207 1.0000
0.7203 0.3071 1.0000
0.9133 0.2935 1.0000
1.0000 0.2798 1.0000
1.0000 0.2662 1.0000
0.0000 0.5360 1.0000
0.0000 0.5224 1.0000
0.0955 0.5087 1.0000
0.2885 0.4951 1.0000
0.4815 0.4815 1.0000
0.6745 0.4678 1.0000
0.8675 0.4542 1.0000
1.0000 0.4406 1.0000
1.0000 0.4269 1.0000
0.0000 0.6968 1.0000
0.0000 0.6831 1.0000
0.0496 0.6695 1.0000
0.2426 0.6559 1.0000
0.4356 0.6422 1.0000
0.6286 0.6286 1.0000
0.8216 0.6150 1.0000
1.0000 0.6013 1.0000
1.0000 0.5877 1.0000
0.0000 0.8575 1.0000
0.0000 0.8439 1.0000
0.0038 0.8303 1.0000
0.1968 0.8166 1.0000
0.3898 0.8030 1.0000
0.5827 0.7894 1.0000
0.7757 0.7757 1.0000
0.9687 0.7621 1.0000
1.0000 0.7485 1.0000
0.0000 1.0000 1.0000
0.0000 1.0000 1.0000
0.0000 0.9910 1.0000
0.1509 0.9774 1.0000
0.3439 0.9638 1.0000
0.5369 0.9501 1.0000
0.7299 0.9365 1.0000
0.9229 0.9229 1.0000
1.0000 0.9092 1.0000
0.0000 1.0000 1.0000
0.0000 1.0000 1.0000
0.0000 1.0000 1.0000
0.1050 1.0000 1.0000
0.2980 1.0000 1.0000
0.4910 1.0000 1.0000
0.6840 1.0000 1.0000
0.8770 1.0000 1.0000
1.0000 1.0000 1.0000
