public/luts/rosy.cube
# edite look: Rosy (CC0)
TITLE "Rosy"
LUT_3D_SIZE 5
DOMAIN_MIN 0.0 0.0 0.0
DOMAIN_MAX 1.0 1.0 1.0
0.0209 0.0000 0.0000
0.2985 0.0000 0.0000
0.5760 0.0000 0.0000
0.8535 0.0000 0.0000
1.0000 0.0000 0.0000
0.0103 0.2515 0.0000
0.2878 0.2481 0.0000
0.5654 0.2447 0.0000
0.8429 0.2413 0.0000
1.0000 0.2380 0.0000
0.0000 0.5032 0.0000
0.2772 0.4998 0.0000
0.5547 0.4964 0.0000
0.8323 0.4931 0.0000
1.0000 0.4897 0.0000
0.0000 0.7549 0.0000
0.2666 0.7516 0.0000
0.5441 0.7482 0.0000
0.8216 0.7448 0.0000
1.0000 0.7414 0.0000
0.0000 1.0000 0.0000
0.2560 1.0000 0.0000
0.5335 0.9999 0.0000
0.8110 0.9965 0.0000
1.0000 0.9931 0.0000
0.0199 0.0000 0.2610
0.2974 0.0000 0.2576
0.5749 0.0000 0.2543
0.8524 0.0000 0.2509
1.0000 0.0000 0.2475
0.0093 0.2504 0.2504
0.2868 0.2470 0.2470
0.5643 0.2436 0.2436
0.8418 0.2403 0.2403
1.0000 0.2369 0.2369
0.0000 0.5021 0.2398
0.2762 0.4988 0.2364
0.5537 0.4954 0.2330
0.8312 0.4920 0.2296
1.0000 0.4886 0.2263
0.0000 0.7539 0.2292
0.2655 0.7505 0.2258
0.5430 0.7471 0.2224
0.8206 0.7437 0.2190
1.0000 0.7403 0.2156
0.0000 1.0000 0.2185
0.2549 1.0000 0.2152
0.5324 0.9988 0.2118
0.8099 0.9954 0.2084
1.0000 0.9921 0.2050
0.0188 0.0000 0.5223
0.2963 0.0000 0.5189
0.5738 0.0000 0.5155
0.8514 0.0000 0.5122
1.0000 0.0000 0.5088
0.0082 0.2493 0.5117
0.2857 0.2459 0.5083
0.5632 0.2426 0.5049
0.8407 0.2392 0.5015
1.0000 0.2358 0.4982
0.0000 0.5011 0.5011
0.2751 0.4977 0.4977
0.5526 0.4943 0.4943
0.8301 0.4909 0.4909
1.0000 0.4875 0.4875
0.0000 0.7528 0.4904
0.2645 0.7494 0.4871
0.5420 0.7460 0.4837
0.8195 0.7426 0.4803
1.0000 0.7393 0.4769
0.0000 1.0000 0.4798
0.2538 1.0000 0.4764
0.5314 0.9978 0.4731
0.8089 0.9944 0.4697
1.0000 0.9910 0.4663
0.0177 0.0000 0.7836
0.2952 0.0000 0.7802
0.5728 0.0000 0.7768
0.8503 0.0000 0.7734
1.0000 0.0000 0.7701
0.0071 0.2483 0.7730
0.2846 0.2449 0.7696
0.5621 0.2415 0.7662
0.8397 0.2381 0.7628
1.0000 0.2347 0.7594
0.0000 0.5000 0.7623
0.2740 0.4966 0.7590
0.5515 0.4932 0.7556
0.8290 0.4898 0.7522
1.0000 0.4865 0.7488
0.0000 0.7517 0.7517
0.2634 0.7483 0.7483
0.5409 0.7450 0.7450
0.8184 0.7416 0.7416
1.0000 0.7382 0.7382
0.0000 1.0000 0.7411
0.2528 1.0000 0.7377
0.5303 0.9967 0.7343
0.8078 0.9933 0.7310
1.0000 0.9899 0.7276
0.0167 0.0000 1.0000
0.2942 0.0000 1.0000
0.5717 0.0000 1.0000
0.8492 0.0000 1.0000
1.0000 0.0000 1.0000
0.0060 0.2472 1.0000
0.2836 0.2438 1.0000
0.5611 0.2404 1.0000
0.8386 0.2370 1.0000
1.0000 0.2337 1.0000
0.0000 0.4989 1.0000
0.2729 0.4955 1.0000
0.5505 0.4922 1.0000
0.8280 0.4888 1.0000
1.0000 0.4854 1.0000
0.0000 0.7506 1.0000
0.2623 0.7473 1.0000
0.5398 0.7439 1.0000
0.8174 0.7405 1.0000
1.0000 0.7371 0.9995
0.0000 1.0000 1.0000
0.2517 0.9990 0.9990
0.5292 0.9956 0.9956
0.8067 0.9922 0.9922
1.0000 0.9889 0.9889
