public/luts/rosy.cube
# edite look: Rosy (CC0)
TITLE "Rosy"
LUT_3D_SIZE 9
DOMAIN_MIN 0.0 0.0 0.0
DOMAIN_MAX 1.0 1.0 1.0
0.0209 0.0000 0.0000
0.1597 0.0000 0.0000
0.2985 0.0000 0.0000
0.4372 0.0000 0.0000
0.5760 0.0000 0.0000
0.7147 0.0000 0.0000
0.8535 0.0000 0.0000
0.9923 0.0000 0.0000
1.0000 0.0000 0.0000
0.0156 0.1256 0.0000
0.1544 0.1239 0.0000
0.2932 0.1222 0.0000
0.4319 0.1205 0.0000
0.5707 0.1188 0.0000
0.7094 0.1172 0.0000
0.8482 0.1155 0.0000
0.9870 0.1138 0.0000
1.0000 0.1121 0.0000
0.0103 0.2515 0.0000
0.1491 0.2498 0.0000
0.2878 0.2481 0.0000
0.4266 0.2464 0.0000
0.5654 0.2447 0.0000
0.7041 0.2430 0.0000
0.8429 0.2413 0.0000
0.9816 0.2396 0.0000
1.0000 0.2380 0.0000
0.0050 0.3773 0.0000
0.1438 0.3756 0.0000
0.2825 0.3740 0.0000
0.4213 0.3723 0.0000
0.5601 0.3706 0.0000
0.6988 0.3689 0.0000
0.8376 0.3672 0.0000
0.9763 0.3655 0.0000
1.0000 0.3638 0.0000
0.0000 0.5032 0.0000
0.1385 0.5015 0.0000
0.2772 0.4998 0.0000
0.4160 0.4981 0.0000
0.5547 0.4964 0.0000
0.6935 0.4948 0.0000
0.8323 0.4931 0.0000
0.9710 0.4914 0.0000
1.0000 0.4897 0.0000
0.0000 0.6291 0.0000
0.1332 0.6274 0.0000
0.2719 0.6257 0.0000
0.4107 0.6240 0.0000
0.5494 0.6223 0.0000
0.6882 0.6206 0.0000
0.8270 0.6189 0.0000
0.9657 0.6172 0.0000
1.0000 0.6155 0.0000
0.0000 0.7549 0.0000
0.1278 0.7532 0.0000
0.2666 0.7516 0.0000
0.4054 0.7499 0.0000
0.5441 0.7482 0.0000
0.6829 0.7465 0.0000
0.8216 0.7448 0.0000
0.9604 0.7431 0.0000
1.0000 0.7414 0.0000
0.0000 0.8808 0.0000
0.1225 0.8791 0.0000
0.2613 0.8774 0.0000
0.4001 0.8757 0.0000
0.5388 0.8740 0.0000
0.6776 0.8723 0.0000
0.8163 0.8707 0.0000
0.9551 0.8690 0.0000
1.0000 0.8673 0.0000
0.0000 1.0000 0.0000
0.1172 1.0000 0.0000
0.2560 1.0000 0.0000
0.3947 1.0000 0.0000
0.5335 0.9999 0.0000
0.6723 0.9982 0.0000
0.8110 0.9965 0.0000
0.9498 0.9948 0.0000
1.0000 0.9931 0.0000
0.0204 0.0000 0.1304
0.1592 0.0000 0.1287
0.2979 0.0000 0.1270
0.4367 0.0000 0.1253
0.5754 0.0000 0.1236
0.7142 0.0000 0.1219
0.8530 0.0000 0.1202
0.9917 0.0000 0.1186
1.0000 0.0000 0.1169
0.0151 0.1251 0.1251
0.1539 0.1234 0.1234
0.2926 0.1217 0.1217
0.4314 0.1200 0.1200
0.5701 0.1183 0.1183
0.7089 0.1166 0.1166
0.8477 0.1149 0.1149
0.9864 0.1132 0.1132
1.0000 0.1116 0.1116
0.0098 0.2509 0.1198
0.1485 0.2492 0.1181
0.2873 0.2476 0.1164
0.4261 0.2459 0.1147
0.5648 0.2442 0.1130
0.7036 0.2425 0.1113
0.8423 0.2408 0.1096
0.9811 0.2391 0.1079
1.0000 0.2374 0.1062
0.0045 0.3768 0.1145
0.1432 0.3751 0.1128
0.2820 0.3734 0.1111
0.4208 0.3717 0.1094
0.5595 0.3700 0.1077
0.6983 0.3684 0.1060
0.8370 0.3667 0.1043
0.9758 0.3650 0.1026
1.0000 0.3633 0.1009
0.0000 0.5027 0.1091
0.1379 0.5010 0.1075
0.2767 0.4993 0.1058
0.4154 0.4976 0.1041
0.5542 0.4959 0.1024
0.6930 0.4942 0.1007
0.8317 0.4925 0.0990
0.9705 0.4908 0.0973
1.0000 0.4891 0.0956
0.0000 0.6285 0.1038
0.1326 0.6268 0.1021
0.2714 0.6252 0.1005
0.4101 0.6235 0.0988
0.5489 0.6218 0.0971
0.6877 0.6201 0.0954
0.8264 0.6184 0.0937
0.9652 0.6167 0.0920
1.0000 0.6150 0.0903
0.0000 0.7544 0.0985
0.1273 0.7527 0.0968
0.2661 0.7510 0.0951
0.4048 0.7493 0.0935
0.5436 0.7476 0.0918
0.6823 0.7459 0.0901
0.8211 0.7443 0.0884
0.9599 0.7426 0.0867
1.0000 0.7409 0.0850
0.0000 0.8803 0.0932
0.1220 0.8786 0.0915
0.2608 0.8769 0.0898
0.3995 0.8752 0.0881
0.5383 0.8735 0.0865
0.6770 0.8718 0.0848
0.8158 0.8701 0.0831
0.9546 0.8684 0.0814
1.0000 0.8667 0.0797
0.0000 1.0000 0.0879
0.1167 1.0000 0.0862
0.2554 1.0000 0.0845
0.3942 1.0000 0.0828
0.5330 0.9994 0.0811
0.6717 0.9977 0.0795
0.8105 0.9960 0.0778
0.9492 0.9943 0.0761
1.0000 0.9926 0.0744
0.0199 0.0000 0.2610
0.1586 0.0000 0.2593
0.2974 0.0000 0.2576
0.4362 0.0000 0.2560
0.5749 0.0000 0.2543
0.7137 0.0000 0.2526
0.8524 0.0000 0.2509
0.9912 0.0000 0.2492
1.0000 0.0000 0.2475
0.0146 0.1245 0.2557
0.1533 0.1228 0.2540
0.2921 0.1212 0.2523
0.4308 0.1195 0.2506
0.5696 0.1178 0.2490
0.7084 0.1161 0.2473
0.8471 0.1144 0.2456
0.9859 0.1127 0.2439
1.0000 0.1110 0.2422
0.0093 0.2504 0.2504
0.1480 0.2487 0.2487
0.2868 0.2470 0.2470
0.4255 0.2453 0.2453
0.5643 0.2436 0.2436
0.7031 0.2420 0.2420
0.8418 0.2403 0.2403
0.9806 0.2386 0.2386
1.0000 0.2369 0.2369
0.0039 0.3763 0.2451
0.1427 0.3746 0.2434
0.2815 0.3729 0.2417
0.4202 0.3712 0.2400
0.5590 0.3695 0.2383
0.6977 0.3678 0.2366
0.8365 0.3661 0.2350
0.9753 0.3644 0.2333
1.0000 0.3627 0.2316
0.0000 0.5021 0.2398
0.1374 0.5004 0.2381
0.2762 0.4988 0.2364
0.4149 0.4971 0.2347
0.5537 0.4954 0.2330
0.6924 0.4937 0.2313
0.8312 0.4920 0.2296
0.9700 0.4903 0.2280
1.0000 0.4886 0.2263
0.0000 0.6280 0.2345
0.1321 0.6263 0.2328
0.2708 0.6246 0.2311
0.4096 0.6229 0.2294
0.5484 0.6212 0.2277
0.6871 0.6195 0.2260
0.8259 0.6179 0.2243
0.9646 0.6162 0.2226
1.0000 0.6145 0.2209
0.0000 0.7539 0.2292
0.1268 0.7522 0.2275
0.2655 0.7505 0.2258
0.4043 0.7488 0.2241
0.5430 0.7471 0.2224
0.6818 0.7454 0.2207
0.8206 0.7437 0.2190
0.9593 0.7420 0.2173
1.0000 0.7403 0.2156
0.0000 0.8797 0.2239
0.1215 0.8780 0.2222
0.2602 0.8763 0.2205
0.3990 0.8747 0.2188
0.5377 0.8730 0.2171
0.6765 0.8713 0.2154
0.8153 0.8696 0.2137
0.9540 0.8679 0.2120
1.0000 0.8662 0.2103
0.0000 1.0000 0.2185
0.1161 1.0000 0.2168
0.2549 1.0000 0.2152
0.3937 1.0000 0.2135
0.5324 0.9988 0.2118
0.6712 0.9971 0.2101
0.8099 0.9954 0.2084
0.9487 0.9938 0.2067
1.0000 0.9921 0.2050
0.0193 0.0000 0.3917
0.1581 0.0000 0.3900
0.2969 0.0000 0.3883
0.4356 0.0000 0.3866
0.5744 0.0000 0.3849
0.7131 0.0000 0.3832
0.8519 0.0000 0.3815
0.9907 0.0000 0.3798
1.0000 0.0000 0.3781
0.0140 0.1240 0.3864
0.1528 0.1223 0.3847
0.2915 0.1206 0.3830
0.4303 0.1189 0.3813
0.5691 0.1172 0.3796
0.7078 0.1156 0.3779
0.8466 0.1139 0.3762
0.9853 0.1122 0.3745
1.0000 0.1105 0.3728
0.0087 0.2499 0.3810
0.1475 0.2482 0.3794
0.2862 0.2465 0.3777
0.4250 0.2448 0.3760
0.5638 0.2431 0.3743
0.7025 0.2414 0.3726
0.8413 0.2397 0.3709
0.9800 0.2380 0.3692
1.0000 0.2363 0.3675
0.0034 0.3757 0.3757
0.1422 0.3740 0.3740
0.2809 0.3724 0.3724
0.4197 0.3707 0.3707
0.5584 0.3690 0.3690
0.6972 0.3673 0.3673
0.8360 0.3656 0.3656
0.9747 0.3639 0.3639
1.0000 0.3622 0.3622
0.0000 0.5016 0.3704
0.1369 0.4999 0.3687
0.2756 0.4982 0.3670
0.4144 0.4965 0.3653
0.5531 0.4948 0.3637
0.6919 0.4931 0.3620
0.8307 0.4915 0.3603
0.9694 0.4898 0.3586
1.0000 0.4881 0.3569
0.0000 0.6275 0.3651
0.1315 0.6258 0.3634
0.2703 0.6241 0.3617
0.4091 0.6224 0.3600
0.5478 0.6207 0.3583
0.6866 0.6190 0.3567
0.8253 0.6173 0.3550
0.9641 0.6156 0.3533
1.0000 0.6139 0.3516
0.0000 0.7533 0.3598
0.1262 0.7516 0.3581
0.2650 0.7499 0.3564
0.4038 0.7483 0.3547
0.5425 0.7466 0.3530
0.6813 0.7449 0.3513
0.8200 0.7432 0.3497
0.9588 0.7415 0.3480
1.0000 0.7398 0.3463
0.0000 0.8792 0.3545
0.1209 0.8775 0.3528
0.2597 0.8758 0.3511
0.3984 0.8741 0.3494
0.5372 0.8724 0.3477
0.6760 0.8707 0.3460
0.8147 0.8690 0.3443
0.9535 0.8674 0.3427
1.0000 0.8657 0.3410
0.0000 1.0000 0.3492
0.1156 1.0000 0.3475
0.2544 1.0000 0.3458
0.3931 1.0000 0.3441
0.5319 0.9983 0.3424
0.6707 0.9966 0.3407
0.8094 0.9949 0.3390
0.9482 0.9932 0.3373
1.0000 0.9915 0.3357
0.0188 0.0000 0.5223
0.1576 0.0000 0.5206
0.2963 0.0000 0.5189
0.4351 0.0000 0.5172
0.5738 0.0000 0.5155
0.7126 0.0000 0.5138
0.8514 0.0000 0.5122
0.9901 0.0000 0.5105
1.0000 0.0000 0.5088
0.0135 0.1235 0.5170
0.1523 0.1218 0.5153
0.2910 0.1201 0.5136
0.4298 0.1184 0.5119
0.5685 0.1167 0.5102
0.7073 0.1150 0.5085
0.8460 0.1133 0.5068
0.9848 0.1116 0.5052
1.0000 0.1099 0.5035
0.0082 0.2493 0.5117
0.1469 0.2476 0.5100
0.2857 0.2459 0.5083
0.4245 0.2443 0.5066
0.5632 0.2426 0.5049
0.7020 0.2409 0.5032
0.8407 0.2392 0.5015
0.9795 0.2375 0.4998
1.0000 0.2358 0.4982
0.0029 0.3752 0.5064
0.1416 0.3735 0.5047
0.2804 0.3718 0.5030
0.4191 0.3701 0.5013
0.5579 0.3684 0.4996
0.6967 0.3667 0.4979
0.8354 0.3651 0.4962
0.9742 0.3634 0.4945
1.0000 0.3617 0.4928
0.0000 0.5011 0.5011
0.1363 0.4994 0.4994
0.2751 0.4977 0.4977
0.4138 0.4960 0.4960
0.5526 0.4943 0.4943
0.6914 0.4926 0.4926
0.8301 0.4909 0.4909
0.9689 0.4892 0.4892
1.0000 0.4875 0.4875
0.0000 0.6269 0.4957
0.1310 0.6252 0.4941
0.2698 0.6235 0.4924
0.4085 0.6219 0.4907
0.5473 0.6202 0.4890
0.6860 0.6185 0.4873
0.8248 0.6168 0.4856
0.9636 0.6151 0.4839
1.0000 0.6134 0.4822
0.0000 0.7528 0.4904
0.1257 0.7511 0.4887
0.2645 0.7494 0.4871
0.4032 0.7477 0.4854
0.5420 0.7460 0.4837
0.6807 0.7443 0.4820
0.8195 0.7426 0.4803
0.9583 0.7410 0.4786
1.0000 0.7393 0.4769
0.0000 0.8787 0.4851
0.1204 0.8770 0.4834
0.2591 0.8753 0.4817
0.3979 0.8736 0.4801
0.5367 0.8719 0.4784
0.6754 0.8702 0.4767
0.8142 0.8685 0.4750
0.9529 0.8668 0.4733
1.0000 0.8651 0.4716
0.0000 1.0000 0.4798
0.1151 1.0000 0.4781
0.2538 1.0000 0.4764
0.3926 0.9994 0.4747
0.5314 0.9978 0.4731
0.6701 0.9961 0.4714
0.8089 0.9944 0.4697
0.9476 0.9927 0.4680
1.0000 0.9910 0.4663
0.0183 0.0000 0.6529
0.1570 0.0000 0.6512
0.2958 0.0000 0.6496
0.4345 0.0000 0.6479
0.5733 0.0000 0.6462
0.7121 0.0000 0.6445
0.8508 0.0000 0.6428
0.9896 0.0000 0.6411
1.0000 0.0000 0.6394
0.0130 0.1229 0.6476
0.1517 0.1212 0.6459
0.2905 0.1195 0.6442
0.4292 0.1179 0.6426
0.5680 0.1162 0.6409
0.7068 0.1145 0.6392
0.8455 0.1128 0.6375
0.9843 0.1111 0.6358
1.0000 0.1094 0.6341
0.0076 0.2488 0.6423
0.1464 0.2471 0.6406
0.2852 0.2454 0.6389
0.4239 0.2437 0.6372
0.5627 0.2420 0.6356
0.7014 0.2403 0.6339
0.8402 0.2387 0.6322
0.9790 0.2370 0.6305
1.0000 0.2353 0.6288
0.0023 0.3747 0.6370
0.1411 0.3730 0.6353
0.2799 0.3713 0.6336
0.4186 0.3696 0.6319
0.5574 0.3679 0.6302
0.6961 0.3662 0.6286
0.8349 0.3645 0.6269
0.9737 0.3628 0.6252
1.0000 0.3611 0.6235
0.0000 0.5005 0.6317
0.1358 0.4988 0.6300
0.2745 0.4971 0.6283
0.4133 0.4955 0.6266
0.5521 0.4938 0.6249
0.6908 0.4921 0.6232
0.8296 0.4904 0.6216
0.9683 0.4887 0.6199
1.0000 0.4870 0.6182
0.0000 0.6264 0.6264
0.1305 0.6247 0.6247
0.2692 0.6230 0.6230
0.4080 0.6213 0.6213
0.5468 0.6196 0.6196
0.6855 0.6179 0.6179
0.8243 0.6162 0.6162
0.9630 0.6146 0.6146
1.0000 0.6129 0.6129
0.0000 0.7523 0.6211
0.1252 0.7506 0.6194
0.2639 0.7489 0.6177
0.4027 0.7472 0.6160
0.5414 0.7455 0.6143
0.6802 0.7438 0.6126
0.8190 0.7421 0.6109
0.9577 0.7404 0.6092
1.0000 0.7387 0.6076
0.0000 0.8781 0.6158
0.1199 0.8764 0.6141
0.2586 0.8747 0.6124
0.3974 0.8730 0.6107
0.5361 0.8714 0.6090
0.6749 0.8697 0.6073
0.8137 0.8680 0.6056
0.9524 0.8663 0.6039
1.0000 0.8646 0.6022
0.0000 1.0000 0.6105
0.1145 1.0000 0.6088
0.2533 1.0000 0.6071
0.3921 0.9989 0.6054
0.5308 0.9972 0.6037
0.6696 0.9955 0.6020
0.8083 0.9938 0.6003
0.9471 0.9922 0.5986
1.0000 0.9905 0.5969
0.0177 0.0000 0.7836
0.1565 0.0000 0.7819
0.2952 0.0000 0.7802
0.4340 0.0000 0.7785
0.5728 0.0000 0.7768
0.7115 0.0000 0.7751
0.8503 0.0000 0.7734
0.9890 0.0000 0.7717
1.0000 0.0000 0.7701
0.0124 0.1224 0.7783
0.1512 0.1207 0.7766
0.2899 0.1190 0.7749
0.4287 0.1173 0.7732
0.5675 0.1156 0.7715
0.7062 0.1139 0.7698
0.8450 0.1123 0.7681
0.9837 0.1106 0.7664
1.0000 0.1089 0.7647
0.0071 0.2483 0.7730
0.1459 0.2466 0.7713
0.2846 0.2449 0.7696
0.4234 0.2432 0.7679
0.5621 0.2415 0.7662
0.7009 0.2398 0.7645
0.8397 0.2381 0.7628
0.9784 0.2364 0.7611
1.0000 0.2347 0.7594
0.0018 0.3741 0.7676
0.1406 0.3724 0.7660
0.2793 0.3707 0.7643
0.4181 0.3691 0.7626
0.5568 0.3674 0.7609
0.6956 0.3657 0.7592
0.8344 0.3640 0.7575
0.9731 0.3623 0.7558
1.0000 0.3606 0.7541
0.0000 0.5000 0.7623
0.1352 0.4983 0.7606
0.2740 0.4966 0.7590
0.4128 0.4949 0.7573
0.5515 0.4932 0.7556
0.6903 0.4915 0.7539
0.8290 0.4898 0.7522
0.9678 0.4882 0.7505
1.0000 0.4865 0.7488
0.0000 0.6259 0.7570
0.1299 0.6242 0.7553
0.2687 0.6225 0.7536
0.4075 0.6208 0.7520
0.5462 0.6191 0.7503
0.6850 0.6174 0.7486
0.8237 0.6157 0.7469
0.9625 0.6140 0.7452
1.0000 0.6123 0.7435
0.0000 0.7517 0.7517
0.1246 0.7500 0.7500
0.2634 0.7483 0.7483
0.4021 0.7466 0.7466
0.5409 0.7450 0.7450
0.6797 0.7433 0.7433
0.8184 0.7416 0.7416
0.9572 0.7399 0.7399
1.0000 0.7382 0.7382
0.0000 0.8776 0.7464
0.1193 0.8759 0.7447
0.2581 0.8742 0.7430
0.3968 0.8725 0.7413
0.5356 0.8708 0.7396
0.6744 0.8691 0.7380
0.8131 0.8674 0.7363
0.9519 0.8657 0.7346
1.0000 0.8641 0.7329
0.0000 1.0000 0.7411
0.1140 1.0000 0.7394
0.2528 1.0000 0.7377
0.3915 0.9984 0.7360
0.5303 0.9967 0.7343
0.6690 0.9950 0.7326
0.8078 0.9933 0.7310
0.9466 0.9916 0.7293
1.0000 0.9899 0.7276
0.0172 0.0000 0.9142
0.1560 0.0000 0.9125
0.2947 0.0000 0.9108
0.4335 0.0000 0.9091
0.5722 0.0000 0.9075
0.7110 0.0000 0.9058
0.8498 0.0000 0.9041
0.9885 0.0000 0.9024
1.0000 0.0000 0.9007
0.0119 0.1219 0.9089
0.1506 0.1202 0.9072
0.2894 0.1185 0.9055
0.4282 0.1168 0.9038
0.5669 0.1151 0.9021
0.7057 0.1134 0.9005
0.8444 0.1117 0.8988
0.9832 0.1100 0.8971
1.0000 0.1083 0.8954
0.0066 0.2477 0.9036
0.1453 0.2460 0.9019
0.2841 0.2443 0.9002
0.4229 0.2427 0.8985
0.5616 0.2410 0.8968
0.7004 0.2393 0.8951
0.8391 0.2376 0.8935
0.9779 0.2359 0.8918
1.0000 0.2342 0.8901
0.0013 0.3736 0.8983
0.1400 0.3719 0.8966
0.2788 0.3702 0.8949
0.4175 0.3685 0.8932
0.5563 0.3668 0.8915
0.6951 0.3651 0.8898
0.8338 0.3634 0.8881
0.9726 0.3618 0.8865
1.0000 0.3601 0.8848
0.0000 0.4995 0.8930
0.1347 0.4978 0.8913
0.2735 0.4961 0.8896
0.4122 0.4944 0.8879
0.5510 0.4927 0.8862
0.6897 0.4910 0.8845
0.8285 0.4893 0.8828
0.9673 0.4876 0.8811
1.0000 0.4859 0.8795
0.0000 0.6253 0.8877
0.1294 0.6236 0.8860
0.2682 0.6219 0.8843
0.4069 0.6202 0.8826
0.5457 0.6186 0.8809
0.6844 0.6169 0.8792
0.8232 0.6152 0.8775
0.9620 0.6135 0.8758
1.0000 0.6118 0.8741
0.0000 0.7512 0.8824
0.1241 0.7495 0.8807
0.2628 0.7478 0.8790
0.4016 0.7461 0.8773
0.5404 0.7444 0.8756
0.6791 0.7427 0.8739
0.8179 0.7410 0.8722
0.9566 0.7393 0.8705
1.0000 0.7377 0.8688
0.0000 0.8770 0.8770
0.1188 0.8754 0.8754
0.2575 0.8737 0.8737
0.3963 0.8720 0.8720
0.5351 0.8703 0.8703
0.6738 0.8686 0.8686
0.8126 0.8669 0.8669
0.9513 0.8652 0.8652
1.0000 0.8635 0.8635
0.0000 1.0000 0.8717
0.1135 1.0000 0.8700
0.2522 0.9995 0.8684
0.3910 0.9978 0.8667
0.5297 0.9961 0.8650
0.6685 0.9945 0.8633
0.8073 0.9928 0.8616
0.9460 0.9911 0.8599
1.0000 0.9894 0.8582
0.0167 0.0000 1.0000
0.1554 0.0000 1.0000
0.2942 0.0000 1.0000
0.4329 0.0000 1.0000
0.5717 0.0000 1.0000
0.7105 0.0000 1.0000
0.8492 0.0000 1.0000
0.9880 0.0000 1.0000
1.0000 0.0000 1.0000
0.0113 0.1213 1.0000
0.1501 0.1196 1.0000
0.2889 0.1179 1.0000
0.4276 0.1163 1.0000
0.5664 0.1146 1.0000
0.7051 0.1129 1.0000
0.8439 0.1112 1.0000
0.9827 0.1095 1.0000
1.0000 0.1078 1.0000
0.0060 0.2472 1.0000
0.1448 0.2455 1.0000
0.2836 0.2438 1.0000
0.4223 0.2421 1.0000
0.5611 0.2404 1.0000
0.6998 0.2387 1.0000
0.8386 0.2370 1.0000
0.9774 0.2354 1.0000
1.0000 0.2337 1.0000
0.0007 0.3731 1.0000
0.1395 0.3714 1.0000
0.2782 0.3697 1.0000
0.4170 0.3680 1.0000
0.5558 0.3663 1.0000
0.6945 0.3646 1.0000
0.8333 0.3629 1.0000
0.9720 0.3612 1.0000
1.0000 0.3595 1.0000
0.0000 0.4989 1.0000
0.1342 0.4972 1.0000
0.2729 0.4955 1.0000
0.4117 0.4938 1.0000
0.5505 0.4922 1.0000
0.6892 0.4905 1.0000
0.8280 0.4888 1.0000
0.9667 0.4871 1.0000
1.0000 0.4854 1.0000
0.0000 0.6248 1.0000
0.1289 0.6231 1.0000
0.2676 0.6214 1.0000
0.4064 0.6197 1.0000
0.5451 0.6180 1.0000
0.6839 0.6163 1.0000
0.8227 0.6146 1.0000
0.9614 0.6129 1.0000
1.0000 0.6113 1.0000
0.0000 0.7506 1.0000
0.1236 0.7490 1.0000
0.2623 0.7473 1.0000
0.4011 0.7456 1.0000
0.5398 0.7439 1.0000
0.6786 0.7422 1.0000
0.8174 0.7405 1.0000
0.9561 0.7388 1.0000
1.0000 0.7371 0.9995
0.0000 0.8765 1.0000
0.1182 0.8748 1.0000
0.2570 0.8731 1.0000
0.3958 0.8714 1.0000
0.5345 0.8697 1.0000
0.6733 0.8681 0.9992
0.8120 0.8664 0.9975
0.9508 0.8647 0.9959
1.0000 0.8630 0.9942
0.0000 1.0000 1.0000
0.1129 1.0000 1.0000
0.2517 0.9990 0.9990
0.3905 0.9973 0.9973
0.5292 0.9956 0.9956
0.6680 0.9939 0.9939
0.8067 0.9922 0.9922
0.9455 0.9905 0.9905
1.0000 0.9889 0.9889
