public/luts/rosy.cube
# edite look: Rosy (CC0)
TITLE "Rosy"
LUT_3D_SIZE 17
DOMAIN_MIN 0.0 0.0 0.0
DOMAIN_MAX 1.0 1.0 1.0
0.0209 0.0000 0.0000
0.0903 0.0000 0.0000
0.1597 0.0000 0.0000
0.2291 0.0000 0.0000
0.2985 0.0000 0.0000
0.3678 0.0000 0.0000
0.4372 0.0000 0.0000
0.5066 0.0000 0.0000
0.5760 0.0000 0.0000
0.6454 0.0000 0.0000
0.7147 0.0000 0.0000
0.7841 0.0000 0.0000
0.8535 0.0000 0.0000
0.9229 0.0000 0.0000
0.9923 0.0000 0.0000
1.0000 0.0000 0.0000
1.0000 0.0000 0.0000
0.0183 0.0627 0.0000
0.0877 0.0618 0.0000
0.1570 0.0610 0.0000
0.2264 0.0601 0.0000
0.2958 0.0593 0.0000
0.3652 0.0585 0.0000
0.4346 0.0576 0.0000
0.5039 0.0568 0.0000
0.5733 0.0559 0.0000
0.6427 0.0551 0.0000
0.7121 0.0542 0.0000
0.7815 0.0534 0.0000
0.8508 0.0525 0.0000
0.9202 0.0517 0.0000
0.9896 0.0508 0.0000
1.0000 0.0500 0.0000
1.0000 0.0492 0.0000
0.0156 0.1256 0.0000
0.0850 0.1248 0.0000
0.1544 0.1239 0.0000
0.2238 0.1231 0.0000
0.2932 0.1222 0.0000
0.3625 0.1214 0.0000
0.4319 0.1205 0.0000
0.5013 0.1197 0.0000
0.5707 0.1188 0.0000
0.6401 0.1180 0.0000
0.7094 0.1172 0.0000
0.7788 0.1163 0.0000
0.8482 0.1155 0.0000
0.9176 0.1146 0.0000
0.9870 0.1138 0.0000
1.0000 0.1129 0.0000
1.0000 0.1121 0.0000
0.0130 0.1885 0.0000
0.0824 0.1877 0.0000
0.1517 0.1869 0.0000
0.2211 0.1860 0.0000
0.2905 0.1852 0.0000
0.3599 0.1843 0.0000
0.4293 0.1835 0.0000
0.4986 0.1826 0.0000
0.5680 0.1818 0.0000
0.6374 0.1809 0.0000
0.7068 0.1801 0.0000
0.7762 0.1792 0.0000
0.8455 0.1784 0.0000
0.9149 0.1776 0.0000
0.9843 0.1767 0.0000
1.0000 0.1759 0.0000
1.0000 0.1750 0.0000
0.0103 0.2515 0.0000
0.0797 0.2506 0.0000
0.1491 0.2498 0.0000
0.2185 0.2489 0.0000
0.2878 0.2481 0.0000
0.3572 0.2472 0.0000
0.4266 0.2464 0.0000
0.4960 0.2456 0.0000
0.5654 0.2447 0.0000
0.6347 0.2439 0.0000
0.7041 0.2430 0.0000
0.7735 0.2422 0.0000
0.8429 0.2413 0.0000
0.9123 0.2405 0.0000
0.9816 0.2396 0.0000
1.0000 0.2388 0.0000
1.0000 0.2380 0.0000
0.0077 0.3144 0.0000
0.0770 0.3136 0.0000
0.1464 0.3127 0.0000
0.2158 0.3119 0.0000
0.2852 0.3110 0.0000
0.3546 0.3102 0.0000
0.4239 0.3093 0.0000
0.4933 0.3085 0.0000
0.5627 0.3076 0.0000
0.6321 0.3068 0.0000
0.7015 0.3060 0.0000
0.7708 0.3051 0.0000
0.8402 0.3043 0.0000
0.9096 0.3034 0.0000
0.9790 0.3026 0.0000
1.0000 0.3017 0.0000
1.0000 0.3009 0.0000
0.0050 0.3773 0.0000
0.0744 0.3765 0.0000
0.1438 0.3756 0.0000
0.2132 0.3748 0.0000
0.2825 0.3740 0.0000
0.3519 0.3731 0.0000
0.4213 0.3723 0.0000
0.4907 0.3714 0.0000
0.5601 0.3706 0.0000
0.6294 0.3697 0.0000
0.6988 0.3689 0.0000
0.7682 0.3680 0.0000
0.8376 0.3672 0.0000
0.9070 0.3664 0.0000
0.9763 0.3655 0.0000
1.0000 0.3647 0.0000
1.0000 0.3638 0.0000
0.0024 0.4403 0.0000
0.0717 0.4394 0.0000
0.1411 0.4386 0.0000
0.2105 0.4377 0.0000
0.2799 0.4369 0.0000
0.3493 0.4360 0.0000
0.4186 0.4352 0.0000
0.4880 0.4344 0.0000
0.5574 0.4335 0.0000
0.6268 0.4327 0.0000
0.6962 0.4318 0.0000
0.7655 0.4310 0.0000
0.8349 0.4301 0.0000
0.9043 0.4293 0.0000
0.9737 0.4284 0.0000
1.0000 0.4276 0.0000
1.0000 0.4267 0.0000
0.0000 0.5032 0.0000
0.0691 0.5024 0.0000
0.1385 0.5015 0.0000
0.2078 0.5007 0.0000
0.2772 0.4998 0.0000
0.3466 0.4990 0.0000
0.4160 0.4981 0.0000
0.4854 0.4973 0.0000
0.5547 0.4964 0.0000
0.6241 0.4956 0.0000
0.6935 0.4948 0.0000
0.7629 0.4939 0.0000
0.8323 0.4931 0.0000
0.9016 0.4922 0.0000
0.9710 0.4914 0.0000
1.0000 0.4905 0.0000
1.0000 0.4897 0.0000
0.0000 0.5661 0.0000
0.0664 0.5653 0.0000
0.1358 0.5644 0.0000
0.2052 0.5636 0.0000
0.2746 0.5628 0.0000
0.3439 0.5619 0.0000
0.4133 0.5611 0.0000
0.4827 0.5602 0.0000
0.5521 0.5594 0.0000
0.6215 0.5585 0.0000
0.6908 0.5577 0.0000
0.7602 0.5568 0.0000
0.8296 0.5560 0.0000
0.8990 0.5551 0.0000
0.9684 0.5543 0.0000
1.0000 0.5535 0.0000
1.0000 0.5526 0.0000
0.0000 0.6291 0.0000
0.0638 0.6282 0.0000
0.1332 0.6274 0.0000
0.2025 0.6265 0.0000
0.2719 0.6257 0.0000
0.3413 0.6248 0.0000
0.4107 0.6240 0.0000
0.4801 0.6232 0.0000
0.5494 0.6223 0.0000
0.6188 0.6215 0.0000
0.6882 0.6206 0.0000
0.7576 0.6198 0.0000
0.8270 0.6189 0.0000
0.8963 0.6181 0.0000
0.9657 0.6172 0.0000
1.0000 0.6164 0.0000
1.0000 0.6155 0.0000
0.0000 0.6920 0.0000
0.0611 0.6912 0.0000
0.1305 0.6903 0.0000
0.1999 0.6895 0.0000
0.2693 0.6886 0.0000
0.3386 0.6878 0.0000
0.4080 0.6869 0.0000
0.4774 0.6861 0.0000
0.5468 0.6852 0.0000
0.6162 0.6844 0.0000
0.6855 0.6835 0.0000
0.7549 0.6827 0.0000
0.8243 0.6819 0.0000
0.8937 0.6810 0.0000
0.9631 0.6802 0.0000
1.0000 0.6793 0.0000
1.0000 0.6785 0.0000
0.0000 0.7549 0.0000
0.0585 0.7541 0.0000
0.1278 0.7532 0.0000
0.1972 0.7524 0.0000
0.2666 0.7516 0.0000
0.3360 0.7507 0.0000
0.4054 0.7499 0.0000
0.4747 0.7490 0.0000
0.5441 0.7482 0.0000
0.6135 0.7473 0.0000
0.6829 0.7465 0.0000
0.7523 0.7456 0.0000
0.8216 0.7448 0.0000
0.8910 0.7439 0.0000
0.9604 0.7431 0.0000
1.0000 0.7423 0.0000
1.0000 0.7414 0.0000
0.0000 0.8179 0.0000
0.0558 0.8170 0.0000
0.1252 0.8162 0.0000
0.1946 0.8153 0.0000
0.2639 0.8145 0.0000
0.3333 0.8136 0.0000
0.4027 0.8128 0.0000
0.4721 0.8119 0.0000
0.5415 0.8111 0.0000
0.6108 0.8103 0.0000
0.6802 0.8094 0.0000
0.7496 0.8086 0.0000
0.8190 0.8077 0.0000
0.8884 0.8069 0.0000
0.9577 0.8060 0.0000
1.0000 0.8052 0.0000
1.0000 0.8043 0.0000
0.0000 0.8808 0.0000
0.0532 0.8800 0.0000
0.1225 0.8791 0.0000
0.1919 0.8783 0.0000
0.2613 0.8774 0.0000
0.3307 0.8766 0.0000
0.4001 0.8757 0.0000
0.4694 0.8749 0.0000
0.5388 0.8740 0.0000
0.6082 0.8732 0.0000
0.6776 0.8723 0.0000
0.7470 0.8715 0.0000
0.8163 0.8707 0.0000
0.8857 0.8698 0.0000
0.9551 0.8690 0.0000
1.0000 0.8681 0.0000
1.0000 0.8673 0.0000
0.0000 0.9437 0.0000
0.0505 0.9429 0.0000
0.1199 0.9420 0.0000
0.1893 0.9412 0.0000
0.2586 0.9403 0.0000
0.3280 0.9395 0.0000
0.3974 0.9387 0.0000
0.4668 0.9378 0.0000
0.5362 0.9370 0.0000
0.6055 0.9361 0.0000
0.6749 0.9353 0.0000
0.7443 0.9344 0.0000
0.8137 0.9336 0.0000
0.8831 0.9327 0.0000
0.9524 0.9319 0.0000
1.0000 0.9311 0.0000
1.0000 0.9302 0.0000
0.0000 1.0000 0.0000
0.0478 1.0000 0.0000
0.1172 1.0000 0.0000
0.1866 1.0000 0.0000
0.2560 1.0000 0.0000
0.3254 1.0000 0.0000
0.3947 1.0000 0.0000
0.4641 1.0000 0.0000
0.5335 0.9999 0.0000
0.6029 0.9991 0.0000
0.6723 0.9982 0.0000
0.7416 0.9974 0.0000
0.8110 0.9965 0.0000
0.8804 0.9957 0.0000
0.9498 0.9948 0.0000
1.0000 0.9940 0.0000
1.0000 0.9931 0.0000
0.0207 0.0000 0.0651
0.0901 0.0000 0.0642
0.1594 0.0000 0.0634
0.2288 0.0000 0.0625
0.2982 0.0000 0.0617
0.3676 0.0000 0.0608
0.4370 0.0000 0.0600
0.5063 0.0000 0.0591
0.5757 0.0000 0.0583
0.6451 0.0000 0.0575
0.7145 0.0000 0.0566
0.7839 0.0000 0.0558
0.8532 0.0000 0.0549
0.9226 0.0000 0.0541
0.9920 0.0000 0.0532
1.0000 0.0000 0.0524
1.0000 0.0000 0.0515
0.0180 0.0624 0.0624
0.0874 0.0616 0.0616
0.1568 0.0607 0.0607
0.2262 0.0599 0.0599
0.2955 0.0590 0.0590
0.3649 0.0582 0.0582
0.4343 0.0573 0.0573
0.5037 0.0565 0.0565
0.5731 0.0556 0.0556
0.6424 0.0548 0.0548
0.7118 0.0540 0.0540
0.7812 0.0531 0.0531
0.8506 0.0523 0.0523
0.9200 0.0514 0.0514
0.9893 0.0506 0.0506
1.0000 0.0497 0.0497
1.0000 0.0489 0.0489
0.0154 0.1253 0.0598
0.0847 0.1245 0.0589
0.1541 0.1237 0.0581
0.2235 0.1228 0.0572
0.2929 0.1220 0.0564
0.3623 0.1211 0.0555
0.4316 0.1203 0.0547
0.5010 0.1194 0.0538
0.5704 0.1186 0.0530
0.6398 0.1177 0.0521
0.7092 0.1169 0.0513
0.7785 0.1160 0.0505
0.8479 0.1152 0.0496
0.9173 0.1144 0.0488
0.9867 0.1135 0.0479
1.0000 0.1127 0.0471
1.0000 0.1118 0.0462
0.0127 0.1883 0.0571
0.0821 0.1874 0.0563
0.1515 0.1866 0.0554
0.2209 0.1857 0.0546
0.2902 0.1849 0.0537
0.3596 0.1840 0.0529
0.4290 0.1832 0.0520
0.4984 0.1824 0.0512
0.5678 0.1815 0.0503
0.6371 0.1807 0.0495
0.7065 0.1798 0.0486
0.7759 0.1790 0.0478
0.8453 0.1781 0.0470
0.9147 0.1773 0.0461
0.9840 0.1764 0.0453
1.0000 0.1756 0.0444
1.0000 0.1748 0.0436
0.0101 0.2512 0.0544
0.0794 0.2504 0.0536
0.1488 0.2495 0.0528
0.2182 0.2487 0.0519
0.2876 0.2478 0.0511
0.3570 0.2470 0.0502
0.4263 0.2461 0.0494
0.4957 0.2453 0.0485
0.5651 0.2444 0.0477
0.6345 0.2436 0.0468
0.7039 0.2428 0.0460
0.7732 0.2419 0.0451
0.8426 0.2411 0.0443
0.9120 0.2402 0.0435
0.9814 0.2394 0.0426
1.0000 0.2385 0.0418
1.0000 0.2377 0.0409
0.0074 0.3141 0.0518
0.0768 0.3133 0.0509
0.1462 0.3124 0.0501
0.2155 0.3116 0.0493
0.2849 0.3108 0.0484
0.3543 0.3099 0.0476
0.4237 0.3091 0.0467
0.4931 0.3082 0.0459
0.5624 0.3074 0.0450
0.6318 0.3065 0.0442
0.7012 0.3057 0.0433
0.7706 0.3048 0.0425
0.8400 0.3040 0.0416
0.9093 0.3032 0.0408
0.9787 0.3023 0.0400
1.0000 0.3015 0.0391
1.0000 0.3006 0.0383
0.0047 0.3771 0.0491
0.0741 0.3762 0.0483
0.1435 0.3754 0.0474
0.2129 0.3745 0.0466
0.2823 0.3737 0.0458
0.3516 0.3728 0.0449
0.4210 0.3720 0.0441
0.4904 0.3712 0.0432
0.5598 0.3703 0.0424
0.6292 0.3695 0.0415
0.6985 0.3686 0.0407
0.7679 0.3678 0.0398
0.8373 0.3669 0.0390
0.9067 0.3661 0.0381
0.9761 0.3652 0.0373
1.0000 0.3644 0.0365
1.0000 0.3635 0.0356
0.0021 0.4400 0.0465
0.0715 0.4392 0.0456
0.1409 0.4383 0.0448
0.2102 0.4375 0.0439
0.2796 0.4366 0.0431
0.3490 0.4358 0.0423
0.4184 0.4349 0.0414
0.4877 0.4341 0.0406
0.5571 0.4332 0.0397
0.6265 0.4324 0.0389
0.6959 0.4316 0.0380
0.7653 0.4307 0.0372
0.8346 0.4299 0.0363
0.9040 0.4290 0.0355
0.9734 0.4282 0.0346
1.0000 0.4273 0.0338
1.0000 0.4265 0.0330
0.0000 0.5029 0.0438
0.0688 0.5021 0.0430
0.1382 0.5012 0.0421
0.2076 0.5004 0.0413
0.2770 0.4996 0.0404
0.3463 0.4987 0.0396
0.4157 0.4979 0.0388
0.4851 0.4970 0.0379
0.5545 0.4962 0.0371
0.6239 0.4953 0.0362
0.6932 0.4945 0.0354
0.7626 0.4936 0.0345
0.8320 0.4928 0.0337
0.9014 0.4919 0.0328
0.9708 0.4911 0.0320
1.0000 0.4903 0.0311
1.0000 0.4894 0.0303
0.0000 0.5659 0.0412
0.0662 0.5650 0.0403
0.1355 0.5642 0.0395
0.2049 0.5633 0.0386
0.2743 0.5625 0.0378
0.3437 0.5616 0.0369
0.4131 0.5608 0.0361
0.4824 0.5600 0.0353
0.5518 0.5591 0.0344
0.6212 0.5583 0.0336
0.6906 0.5574 0.0327
0.7600 0.5566 0.0319
0.8293 0.5557 0.0310
0.8987 0.5549 0.0302
0.9681 0.5540 0.0293
1.0000 0.5532 0.0285
1.0000 0.5523 0.0276
0.0000 0.6288 0.0385
0.0635 0.6280 0.0377
0.1329 0.6271 0.0368
0.2023 0.6263 0.0360
0.2716 0.6254 0.0351
0.3410 0.6246 0.0343
0.4104 0.6237 0.0334
0.4798 0.6229 0.0326
0.5492 0.6220 0.0318
0.6185 0.6212 0.0309
0.6879 0.6203 0.0301
0.7573 0.6195 0.0292
0.8267 0.6187 0.0284
0.8961 0.6178 0.0275
0.9654 0.6170 0.0267
1.0000 0.6161 0.0258
1.0000 0.6153 0.0250
0.0000 0.6917 0.0359
0.0608 0.6909 0.0350
0.1302 0.6900 0.0342
0.1996 0.6892 0.0333
0.2690 0.6884 0.0325
0.3384 0.6875 0.0316
0.4077 0.6867 0.0308
0.4771 0.6858 0.0299
0.5465 0.6850 0.0291
0.6159 0.6841 0.0283
0.6853 0.6833 0.0274
0.7546 0.6824 0.0266
0.8240 0.6816 0.0257
0.8934 0.6807 0.0249
0.9628 0.6799 0.0240
1.0000 0.6791 0.0232
1.0000 0.6782 0.0223
0.0000 0.7547 0.0332
0.0582 0.7538 0.0324
0.1276 0.7530 0.0315
0.1970 0.7521 0.0307
0.2663 0.7513 0.0298
0.3357 0.7504 0.0290
0.4051 0.7496 0.0281
0.4745 0.7487 0.0273
0.5439 0.7479 0.0264
0.6132 0.7471 0.0256
0.6826 0.7462 0.0248
0.7520 0.7454 0.0239
0.8214 0.7445 0.0231
0.8908 0.7437 0.0222
0.9601 0.7428 0.0214
1.0000 0.7420 0.0205
1.0000 0.7411 0.0197
0.0000 0.8176 0.0305
0.0555 0.8168 0.0297
0.1249 0.8159 0.0289
0.1943 0.8151 0.0280
0.2637 0.8142 0.0272
0.3331 0.8134 0.0263
0.4024 0.8125 0.0255
0.4718 0.8117 0.0246
0.5412 0.8108 0.0238
0.6106 0.8100 0.0229
0.6800 0.8091 0.0221
0.7493 0.8083 0.0213
0.8187 0.8075 0.0204
0.8881 0.8066 0.0196
0.9575 0.8058 0.0187
1.0000 0.8049 0.0179
1.0000 0.8041 0.0170
0.0000 0.8805 0.0279
0.0529 0.8797 0.0270
0.1223 0.8788 0.0262
0.1916 0.8780 0.0254
0.2610 0.8771 0.0245
0.3304 0.8763 0.0237
0.3998 0.8755 0.0228
0.4692 0.8746 0.0220
0.5385 0.8738 0.0211
0.6079 0.8729 0.0203
0.6773 0.8721 0.0194
0.7467 0.8712 0.0186
0.8161 0.8704 0.0178
0.8854 0.8695 0.0169
0.9548 0.8687 0.0161
1.0000 0.8679 0.0152
1.0000 0.8670 0.0144
0.0000 0.9435 0.0252
0.0502 0.9426 0.0244
0.1196 0.9418 0.0235
0.1890 0.9409 0.0227
0.2584 0.9401 0.0219
0.3277 0.9392 0.0210
0.3971 0.9384 0.0202
0.4665 0.9375 0.0193
0.5359 0.9367 0.0185
0.6053 0.9359 0.0176
0.6746 0.9350 0.0168
0.7440 0.9342 0.0159
0.8134 0.9333 0.0151
0.8828 0.9325 0.0143
0.9522 0.9316 0.0134
1.0000 0.9308 0.0126
1.0000 0.9299 0.0117
0.0000 1.0000 0.0226
0.0476 1.0000 0.0217
0.1170 1.0000 0.0209
0.1863 1.0000 0.0200
0.2557 1.0000 0.0192
0.3251 1.0000 0.0184
0.3945 1.0000 0.0175
0.4639 1.0000 0.0167
0.5332 0.9996 0.0158
0.6026 0.9988 0.0150
0.6720 0.9979 0.0141
0.7414 0.9971 0.0133
0.8108 0.9963 0.0124
0.8801 0.9954 0.0116
0.9495 0.9946 0.0108
1.0000 0.9937 0.0099
1.0000 0.9929 0.0091
0.0204 0.0000 0.1304
0.0898 0.0000 0.1295
0.1592 0.0000 0.1287
0.2285 0.0000 0.1278
0.2979 0.0000 0.1270
0.3673 0.0000 0.1262
0.4367 0.0000 0.1253
0.5061 0.0000 0.1245
0.5754 0.0000 0.1236
0.6448 0.0000 0.1228
0.7142 0.0000 0.1219
0.7836 0.0000 0.1211
0.8530 0.0000 0.1202
0.9223 0.0000 0.1194
0.9917 0.0000 0.1186
1.0000 0.0000 0.1177
1.0000 0.0000 0.1169
0.0178 0.0621 0.1277
0.0871 0.0613 0.1269
0.1565 0.0605 0.1260
0.2259 0.0596 0.1252
0.2953 0.0588 0.1243
0.3647 0.0579 0.1235
0.4340 0.0571 0.1227
0.5034 0.0562 0.1218
0.5728 0.0554 0.1210
0.6422 0.0545 0.1201
0.7116 0.0537 0.1193
0.7809 0.0528 0.1184
0.8503 0.0520 0.1176
0.9197 0.0512 0.1167
0.9891 0.0503 0.1159
1.0000 0.0495 0.1151
1.0000 0.0486 0.1142
0.0151 0.1251 0.1251
0.0845 0.1242 0.1242
0.1539 0.1234 0.1234
0.2232 0.1225 0.1225
0.2926 0.1217 0.1217
0.3620 0.1208 0.1208
0.4314 0.1200 0.1200
0.5008 0.1192 0.1192
0.5701 0.1183 0.1183
0.6395 0.1175 0.1175
0.7089 0.1166 0.1166
0.7783 0.1158 0.1158
0.8477 0.1149 0.1149
0.9170 0.1141 0.1141
0.9864 0.1132 0.1132
1.0000 0.1124 0.1124
1.0000 0.1116 0.1116
0.0124 0.1880 0.1224
0.0818 0.1872 0.1216
0.1512 0.1863 0.1207
0.2206 0.1855 0.1199
0.2900 0.1846 0.1190
0.3593 0.1838 0.1182
0.4287 0.1829 0.1173
0.4981 0.1821 0.1165
0.5675 0.1812 0.1157
0.6369 0.1804 0.1148
0.7062 0.1796 0.1140
0.7756 0.1787 0.1131
0.8450 0.1779 0.1123
0.9144 0.1770 0.1114
0.9838 0.1762 0.1106
1.0000 0.1753 0.1097
1.0000 0.1745 0.1089
0.0098 0.2509 0.1198
0.0792 0.2501 0.1189
0.1485 0.2492 0.1181
0.2179 0.2484 0.1172
0.2873 0.2476 0.1164
0.3567 0.2467 0.1155
0.4261 0.2459 0.1147
0.4954 0.2450 0.1138
0.5648 0.2442 0.1130
0.6342 0.2433 0.1122
0.7036 0.2425 0.1113
0.7730 0.2416 0.1105
0.8423 0.2408 0.1096
0.9117 0.2400 0.1088
0.9811 0.2391 0.1079
1.0000 0.2383 0.1071
1.0000 0.2374 0.1062
0.0071 0.3139 0.1171
0.0765 0.3130 0.1163
0.1459 0.3122 0.1154
0.2153 0.3113 0.1146
0.2847 0.3105 0.1137
0.3540 0.3096 0.1129
0.4234 0.3088 0.1120
0.4928 0.3080 0.1112
0.5622 0.3071 0.1103
0.6316 0.3063 0.1095
0.7009 0.3054 0.1087
0.7703 0.3046 0.1078
0.8397 0.3037 0.1070
0.9091 0.3029 0.1061
0.9785 0.3020 0.1053
1.0000 0.3012 0.1044
1.0000 0.3003 0.1036
0.0045 0.3768 0.1145
0.0739 0.3760 0.1136
0.1432 0.3751 0.1128
0.2126 0.3743 0.1119
0.2820 0.3734 0.1111
0.3514 0.3726 0.1102
0.4208 0.3717 0.1094
0.4901 0.3709 0.1085
0.5595 0.3700 0.1077
0.6289 0.3692 0.1068
0.6983 0.3684 0.1060
0.7677 0.3675 0.1052
0.8370 0.3667 0.1043
0.9064 0.3658 0.1035
0.9758 0.3650 0.1026
1.0000 0.3641 0.1018
1.0000 0.3633 0.1009
0.0018 0.4397 0.1118
0.0712 0.4389 0.1110
0.1406 0.4380 0.1101
0.2100 0.4372 0.1093
0.2793 0.4364 0.1084
0.3487 0.4355 0.1076
0.4181 0.4347 0.1067
0.4875 0.4338 0.1059
0.5569 0.4330 0.1050
0.6262 0.4321 0.1042
0.6956 0.4313 0.1033
0.7650 0.4304 0.1025
0.8344 0.4296 0.1017
0.9038 0.4287 0.1008
0.9731 0.4279 0.1000
1.0000 0.4271 0.0991
1.0000 0.4262 0.0983
0.0000 0.5027 0.1091
0.0685 0.5018 0.1083
0.1379 0.5010 0.1075
0.2073 0.5001 0.1066
0.2767 0.4993 0.1058
0.3461 0.4984 0.1049
0.4154 0.4976 0.1041
0.4848 0.4968 0.1032
0.5542 0.4959 0.1024
0.6236 0.4951 0.1015
0.6930 0.4942 0.1007
0.7623 0.4934 0.0998
0.8317 0.4925 0.0990
0.9011 0.4917 0.0982
0.9705 0.4908 0.0973
1.0000 0.4900 0.0965
1.0000 0.4891 0.0956
0.0000 0.5656 0.1065
0.0659 0.5648 0.1056
0.1353 0.5639 0.1048
0.2047 0.5631 0.1040
0.2740 0.5622 0.1031
0.3434 0.5614 0.1023
0.4128 0.5605 0.1014
0.4822 0.5597 0.1006
0.5516 0.5588 0.0997
0.6209 0.5580 0.0989
0.6903 0.5571 0.0980
0.7597 0.5563 0.0972
0.8291 0.5555 0.0963
0.8985 0.5546 0.0955
0.9678 0.5538 0.0947
1.0000 0.5529 0.0938
1.0000 0.5521 0.0930
0.0000 0.6285 0.1038
0.0632 0.6277 0.1030
0.1326 0.6268 0.1021
0.2020 0.6260 0.1013
0.2714 0.6252 0.1005
0.3408 0.6243 0.0996
0.4101 0.6235 0.0988
0.4795 0.6226 0.0979
0.5489 0.6218 0.0971
0.6183 0.6209 0.0962
0.6877 0.6201 0.0954
0.7570 0.6192 0.0945
0.8264 0.6184 0.0937
0.8958 0.6175 0.0928
0.9652 0.6167 0.0920
1.0000 0.6159 0.0912
1.0000 0.6150 0.0903
0.0000 0.6915 0.1012
0.0606 0.6906 0.1003
0.1300 0.6898 0.0995
0.1993 0.6889 0.0986
0.2687 0.6881 0.0978
0.3381 0.6872 0.0970
0.4075 0.6864 0.0961
0.4769 0.6855 0.0953
0.5462 0.6847 0.0944
0.6156 0.6839 0.0936
0.6850 0.6830 0.0927
0.7544 0.6822 0.0919
0.8238 0.6813 0.0910
0.8931 0.6805 0.0902
0.9625 0.6796 0.0893
1.0000 0.6788 0.0885
1.0000 0.6779 0.0877
0.0000 0.7544 0.0985
0.0579 0.7536 0.0977
0.1273 0.7527 0.0968
0.1967 0.7519 0.0960
0.2661 0.7510 0.0951
0.3354 0.7502 0.0943
0.4048 0.7493 0.0935
0.4742 0.7485 0.0926
0.5436 0.7476 0.0918
0.6130 0.7468 0.0909
0.6823 0.7459 0.0901
0.7517 0.7451 0.0892
0.8211 0.7443 0.0884
0.8905 0.7434 0.0875
0.9599 0.7426 0.0867
1.0000 0.7417 0.0858
1.0000 0.7409 0.0850
0.0000 0.8173 0.0959
0.0553 0.8165 0.0950
0.1247 0.8156 0.0942
0.1940 0.8148 0.0933
0.2634 0.8139 0.0925
0.3328 0.8131 0.0916
0.4022 0.8123 0.0908
0.4716 0.8114 0.0900
0.5409 0.8106 0.0891
0.6103 0.8097 0.0883
0.6797 0.8089 0.0874
0.7491 0.8080 0.0866
0.8185 0.8072 0.0857
0.8878 0.8063 0.0849
0.9572 0.8055 0.0840
1.0000 0.8047 0.0832
1.0000 0.8038 0.0823
0.0000 0.8803 0.0932
0.0526 0.8794 0.0924
0.1220 0.8786 0.0915
0.1914 0.8777 0.0907
0.2608 0.8769 0.0898
0.3301 0.8760 0.0890
0.3995 0.8752 0.0881
0.4689 0.8743 0.0873
0.5383 0.8735 0.0865
0.6077 0.8727 0.0856
0.6770 0.8718 0.0848
0.7464 0.8710 0.0839
0.8158 0.8701 0.0831
0.8852 0.8693 0.0822
0.9546 0.8684 0.0814
1.0000 0.8676 0.0805
1.0000 0.8667 0.0797
0.0000 0.9432 0.0906
0.0500 0.9423 0.0897
0.1193 0.9415 0.0889
0.1887 0.9407 0.0880
0.2581 0.9398 0.0872
0.3275 0.9390 0.0863
0.3969 0.9381 0.0855
0.4662 0.9373 0.0846
0.5356 0.9364 0.0838
0.6050 0.9356 0.0830
0.6744 0.9347 0.0821
0.7438 0.9339 0.0813
0.8131 0.9331 0.0804
0.8825 0.9322 0.0796
0.9519 0.9314 0.0787
1.0000 0.9305 0.0779
1.0000 0.9297 0.0770
0.0000 1.0000 0.0879
0.0473 1.0000 0.0871
0.1167 1.0000 0.0862
0.1861 1.0000 0.0854
0.2554 1.0000 0.0845
0.3248 1.0000 0.0837
0.3942 1.0000 0.0828
0.4636 1.0000 0.0820
0.5330 0.9994 0.0811
0.6023 0.9985 0.0803
0.6717 0.9977 0.0795
0.7411 0.9968 0.0786
0.8105 0.9960 0.0778
0.8799 0.9951 0.0769
0.9492 0.9943 0.0761
1.0000 0.9934 0.0752
1.0000 0.9926 0.0744
0.0201 0.0000 0.1957
0.0895 0.0000 0.1949
0.1589 0.0000 0.1940
0.2283 0.0000 0.1932
0.2977 0.0000 0.1923
0.3670 0.0000 0.1915
0.4364 0.0000 0.1906
0.5058 0.0000 0.1898
0.5752 0.0000 0.1889
0.6446 0.0000 0.1881
0.7139 0.0000 0.1873
0.7833 0.0000 0.1864
0.8527 0.0000 0.1856
0.9221 0.0000 0.1847
0.9915 0.0000 0.1839
1.0000 0.0000 0.1830
1.0000 0.0000 0.1822
0.0175 0.0619 0.1930
0.0869 0.0610 0.1922
0.1562 0.0602 0.1914
0.2256 0.0593 0.1905
0.2950 0.0585 0.1897
0.3644 0.0576 0.1888
0.4338 0.0568 0.1880
0.5031 0.0560 0.1871
0.5725 0.0551 0.1863
0.6419 0.0543 0.1854
0.7113 0.0534 0.1846
0.7807 0.0526 0.1838
0.8500 0.0517 0.1829
0.9194 0.0509 0.1821
0.9888 0.0500 0.1812
1.0000 0.0492 0.1804
