public/luts/sepia.cube
# edite look: Sepia (CC0)
TITLE "Sepia"
LUT_3D_SIZE 9
DOMAIN_MIN 0.0 0.0 0.0
DOMAIN_MAX 1.0 1.0 1.0
0.0132 0.0000 0.0000
0.0431 0.0228 0.0021
0.0730 0.0493 0.0228
0.1028 0.0758 0.0434
0.1327 0.1023 0.0641
0.1625 0.1288 0.0847
0.1924 0.1553 0.1054
0.2222 0.1818 0.1260
0.2521 0.2083 0.1467
0.1137 0.0854 0.0510
0.1435 0.1119 0.0716
0.1734 0.1384 0.0923
0.2033 0.1650 0.1129
0.2331 0.1915 0.1336
0.2630 0.2180 0.1542
0.2928 0.2445 0.1749
0.3227 0.2710 0.1955
0.3525 0.2975 0.2162
0.2141 0.1746 0.1204
0.2440 0.2011 0.1411
0.2738 0.2276 0.1617
0.3037 0.2541 0.1824
0.3336 0.2806 0.2030
0.3634 0.3071 0.2237
0.3933 0.3337 0.2443
0.4231 0.3602 0.2650
0.4530 0.3867 0.2856
0.3146 0.2638 0.1899
0.3444 0.2903 0.2105
0.3743 0.3168 0.2312
0.4041 0.3433 0.2518
0.4340 0.3698 0.2725
0.4639 0.3963 0.2931
0.4937 0.4228 0.3138
0.5236 0.4493 0.3344
0.5534 0.4758 0.3551
0.4150 0.3530 0.2594
0.4449 0.3795 0.2800
0.4747 0.4060 0.3007
0.5046 0.4325 0.3213
0.5344 0.4590 0.3420
0.5643 0.4855 0.3626
0.5942 0.5120 0.3832
0.6240 0.5385 0.4039
0.6539 0.5650 0.4245
0.5155 0.4421 0.3288
0.5453 0.4686 0.3495
0.5752 0.4951 0.3701
0.6050 0.5217 0.3908
0.6349 0.5482 0.4114
0.6647 0.5747 0.4321
0.6946 0.6012 0.4527
0.7245 0.6277 0.4734
0.7543 0.6542 0.4940
0.6159 0.5313 0.3983
0.6458 0.5578 0.4189
0.6756 0.5843 0.4396
0.7055 0.6108 0.4602
0.7353 0.6373 0.4809
0.7652 0.6639 0.5015
0.7950 0.6904 0.5222
0.8249 0.7169 0.5428
0.8548 0.7434 0.5635
0.7163 0.6205 0.4677
0.7462 0.6470 0.4884
0.7761 0.6735 0.5090
0.8059 0.7000 0.5297
0.8358 0.7265 0.5503
0.8656 0.7530 0.5710
0.8955 0.7795 0.5916
0.9253 0.8060 0.6123
0.9552 0.8326 0.6329
0.8168 0.7097 0.5372
0.8466 0.7362 0.5579
0.8765 0.7627 0.5785
0.9063 0.7892 0.5992
0.9362 0.8157 0.6198
0.9661 0.8422 0.6405
0.9959 0.8687 0.6611
1.0000 0.8952 0.6818
1.0000 0.9217 0.7024
0.0234 0.0053 0.0000
0.0532 0.0318 0.0092
0.0831 0.0583 0.0298
0.1130 0.0848 0.0505
0.1428 0.1113 0.0711
0.1727 0.1378 0.0918
0.2025 0.1643 0.1124
0.2324 0.1908 0.1331
0.2622 0.2173 0.1537
0.1238 0.0944 0.0580
0.1537 0.1209 0.0786
0.1835 0.1474 0.0993
0.2134 0.1740 0.1199
0.2433 0.2005 0.1406
0.2731 0.2270 0.1612
0.3030 0.2535 0.1819
0.3328 0.2800 0.2025
0.3627 0.3065 0.2232
0.2243 0.1836 0.1274
0.2541 0.2101 0.1481
0.2840 0.2366 0.1687
0.3138 0.2631 0.1894
0.3437 0.2896 0.2100
0.3736 0.3161 0.2307
0.4034 0.3427 0.2513
0.4333 0.3692 0.2720
0.4631 0.3957 0.2926
0.3247 0.2728 0.1969
0.3546 0.2993 0.2176
0.3844 0.3258 0.2382
0.4143 0.3523 0.2589
0.4441 0.3788 0.2795
0.4740 0.4053 0.3001
0.5039 0.4318 0.3208
0.5337 0.4583 0.3414
0.5636 0.4849 0.3621
0.4252 0.3620 0.2664
0.4550 0.3885 0.2870
0.4849 0.4150 0.3077
0.5147 0.4415 0.3283
0.5446 0.4680 0.3490
0.5744 0.4945 0.3696
0.6043 0.5210 0.3903
0.6342 0.5475 0.4109
0.6640 0.5740 0.4316
0.5256 0.4511 0.3358
0.5555 0.4776 0.3565
0.5853 0.5042 0.3771
0.6152 0.5307 0.3978
0.6450 0.5572 0.4184
0.6749 0.5837 0.4391
0.7047 0.6102 0.4597
0.7346 0.6367 0.4804
0.7645 0.6632 0.5010
0.6260 0.5403 0.4053
0.6559 0.5668 0.4259
0.6857 0.5933 0.4466
0.7156 0.6198 0.4672
0.7455 0.6463 0.4879
0.7753 0.6729 0.5085
0.8052 0.6994 0.5292
0.8350 0.7259 0.5498
0.8649 0.7524 0.5705
0.7265 0.6295 0.4748
0.7563 0.6560 0.4954
0.7862 0.6825 0.5161
0.8160 0.7090 0.5367
0.8459 0.7355 0.5574
0.8758 0.7620 0.5780
0.9056 0.7885 0.5987
0.9355 0.8150 0.6193
0.9653 0.8416 0.6399
0.8269 0.7187 0.5442
0.8568 0.7452 0.5649
0.8866 0.7717 0.5855
0.9165 0.7982 0.6062
0.9463 0.8247 0.6268
0.9762 0.8512 0.6475
1.0000 0.8777 0.6681
1.0000 0.9042 0.6888
1.0000 0.9307 0.7094
0.0335 0.0143 0.0000
0.0634 0.0408 0.0162
0.0932 0.0673 0.0368
0.1231 0.0938 0.0575
0.1530 0.1203 0.0781
0.1828 0.1468 0.0988
0.2127 0.1733 0.1194
0.2425 0.1998 0.1401
0.2724 0.2263 0.1607
0.1340 0.1034 0.0650
0.1638 0.1299 0.0856
0.1937 0.1564 0.1063
0.2235 0.1830 0.1269
0.2534 0.2095 0.1476
0.2833 0.2360 0.1682
0.3131 0.2625 0.1889
0.3430 0.2890 0.2095
0.3728 0.3155 0.2302
0.2344 0.1926 0.1345
0.2643 0.2191 0.1551
0.2941 0.2456 0.1757
0.3240 0.2721 0.1964
0.3538 0.2986 0.2170
0.3837 0.3252 0.2377
0.4136 0.3517 0.2583
0.4434 0.3782 0.2790
0.4733 0.4047 0.2996
0.3349 0.2818 0.2039
0.3647 0.3083 0.2246
0.3946 0.3348 0.2452
0.4244 0.3613 0.2659
0.4543 0.3878 0.2865
0.4841 0.4143 0.3072
0.5140 0.4408 0.3278
0.5439 0.4673 0.3485
0.5737 0.4939 0.3691
0.4353 0.3710 0.2734
0.4651 0.3975 0.2940
0.4950 0.4240 0.3147
0.5249 0.4505 0.3353
0.5547 0.4770 0.3560
0.5846 0.5035 0.3766
0.6144 0.5300 0.3973
0.6443 0.5565 0.4179
0.6741 0.5830 0.4386
0.5357 0.4601 0.3428
0.5656 0.4866 0.3635
0.5954 0.5132 0.3841
0.6253 0.5397 0.4048
0.6552 0.5662 0.4254
0.6850 0.5927 0.4461
0.7149 0.6192 0.4667
0.7447 0.6457 0.4874
0.7746 0.6722 0.5080
0.6362 0.5493 0.4123
0.6660 0.5758 0.4330
0.6959 0.6023 0.4536
0.7257 0.6288 0.4743
0.7556 0.6553 0.4949
0.7855 0.6819 0.5156
0.8153 0.7084 0.5362
0.8452 0.7349 0.5568
0.8750 0.7614 0.5775
0.7366 0.6385 0.4818
0.7665 0.6650 0.5024
0.7963 0.6915 0.5231
0.8262 0.7180 0.5437
0.8560 0.7445 0.5644
0.8859 0.7710 0.5850
0.9158 0.7975 0.6057
0.9456 0.8241 0.6263
0.9755 0.8506 0.6470
0.8371 0.7277 0.5512
0.8669 0.7542 0.5719
0.8968 0.7807 0.5925
0.9266 0.8072 0.6132
0.9565 0.8337 0.6338
0.9863 0.8602 0.6545
1.0000 0.8867 0.6751
1.0000 0.9132 0.6958
1.0000 0.9397 0.7164
0.0437 0.0233 0.0025
0.0735 0.0498 0.0232
0.1034 0.0763 0.0438
0.1332 0.1028 0.0645
0.1631 0.1293 0.0851
0.1930 0.1558 0.1058
0.2228 0.1823 0.1264
0.2527 0.2088 0.1471
0.2825 0.2353 0.1677
0.1441 0.1124 0.0720
0.1740 0.1389 0.0926
0.2038 0.1655 0.1133
0.2337 0.1920 0.1339
0.2635 0.2185 0.1546
0.2934 0.2450 0.1752
0.3233 0.2715 0.1959
0.3531 0.2980 0.2165
0.3830 0.3245 0.2372
0.2446 0.2016 0.1415
0.2744 0.2281 0.1621
0.3043 0.2546 0.1828
0.3341 0.2811 0.2034
0.3640 0.3076 0.2241
0.3938 0.3342 0.2447
0.4237 0.3607 0.2654
0.4535 0.3872 0.2860
0.4834 0.4137 0.3067
0.3450 0.2908 0.2109
0.3748 0.3173 0.2316
0.4047 0.3438 0.2522
0.4346 0.3703 0.2729
0.4644 0.3968 0.2935
0.4943 0.4233 0.3142
0.5241 0.4498 0.3348
0.5540 0.4763 0.3555
0.5838 0.5029 0.3761
0.4454 0.3800 0.2804
0.4753 0.4065 0.3010
0.5051 0.4330 0.3217
0.5350 0.4595 0.3423
0.5649 0.4860 0.3630
0.5947 0.5125 0.3836
0.6246 0.5390 0.4043
0.6544 0.5655 0.4249
0.6843 0.5920 0.4456
0.5459 0.4691 0.3499
0.5757 0.4956 0.3705
0.6056 0.5222 0.3912
0.6354 0.5487 0.4118
0.6653 0.5752 0.4325
0.6952 0.6017 0.4531
0.7250 0.6282 0.4737
0.7549 0.6547 0.4944
0.7847 0.6812 0.5150
0.6463 0.5583 0.4193
0.6762 0.5848 0.4400
0.7060 0.6113 0.4606
0.7359 0.6378 0.4813
0.7657 0.6644 0.5019
0.7956 0.6909 0.5226
0.8255 0.7174 0.5432
0.8553 0.7439 0.5639
0.8852 0.7704 0.5845
0.7468 0.6475 0.4888
0.7766 0.6740 0.5094
0.8065 0.7005 0.5301
0.8363 0.7270 0.5507
0.8662 0.7535 0.5714
0.8960 0.7800 0.5920
0.9259 0.8065 0.6127
0.9558 0.8331 0.6333
0.9856 0.8596 0.6540
0.8472 0.7367 0.5582
0.8771 0.7632 0.5789
0.9069 0.7897 0.5995
0.9368 0.8162 0.6202
0.9666 0.8427 0.6408
0.9965 0.8692 0.6615
1.0000 0.8957 0.6821
1.0000 0.9222 0.7028
1.0000 0.9487 0.7234
0.0538 0.0323 0.0095
0.0837 0.0588 0.0302
0.1135 0.0853 0.0508
0.1434 0.1118 0.0715
0.1732 0.1383 0.0921
0.2031 0.1648 0.1128
0.2330 0.1913 0.1334
0.2628 0.2178 0.1541
0.2927 0.2443 0.1747
0.1542 0.1214 0.0790
0.1841 0.1479 0.0997
0.2140 0.1745 0.1203
0.2438 0.2010 0.1410
0.2737 0.2275 0.1616
0.3035 0.2540 0.1823
0.3334 0.2805 0.2029
0.3632 0.3070 0.2236
0.3931 0.3335 0.2442
0.2547 0.2106 0.1485
0.2845 0.2371 0.1691
0.3144 0.2636 0.1898
0.3443 0.2901 0.2104
0.3741 0.3166 0.2311
0.4040 0.3432 0.2517
0.4338 0.3697 0.2724
0.4637 0.3962 0.2930
0.4935 0.4227 0.3137
0.3551 0.2998 0.2179
0.3850 0.3263 0.2386
0.4148 0.3528 0.2592
0.4447 0.3793 0.2799
0.4746 0.4058 0.3005
0.5044 0.4323 0.3212
0.5343 0.4588 0.3418
0.5641 0.4853 0.3625
0.5940 0.5119 0.3831
0.4556 0.3890 0.2874
0.4854 0.4155 0.3081
0.5153 0.4420 0.3287
0.5451 0.4685 0.3494
0.5750 0.4950 0.3700
0.6049 0.5215 0.3906
0.6347 0.5480 0.4113
0.6646 0.5745 0.4319
0.6944 0.6010 0.4526
0.5560 0.4781 0.3569
0.5859 0.5047 0.3775
0.6157 0.5312 0.3982
0.6456 0.5577 0.4188
0.6754 0.5842 0.4395
0.7053 0.6107 0.4601
0.7352 0.6372 0.4808
0.7650 0.6637 0.5014
0.7949 0.6902 0.5221
0.6565 0.5673 0.4263
0.6863 0.5938 0.4470
0.7162 0.6203 0.4676
0.7460 0.6468 0.4883
0.7759 0.6734 0.5089
0.8057 0.6999 0.5296
0.8356 0.7264 0.5502
0.8655 0.7529 0.5709
0.8953 0.7794 0.5915
0.7569 0.6565 0.4958
0.7868 0.6830 0.5164
0.8166 0.7095 0.5371
0.8465 0.7360 0.5577
0.8763 0.7625 0.5784
0.9062 0.7890 0.5990
0.9360 0.8155 0.6197
0.9659 0.8421 0.6403
0.9958 0.8686 0.6610
0.8573 0.7457 0.5653
0.8872 0.7722 0.5859
0.9170 0.7987 0.6066
0.9469 0.8252 0.6272
0.9768 0.8517 0.6479
1.0000 0.8782 0.6685
1.0000 0.9047 0.6892
1.0000 0.9312 0.7098
1.0000 0.9577 0.7305
0.0639 0.0413 0.0166
0.0938 0.0678 0.0372
0.1237 0.0943 0.0579
0.1535 0.1208 0.0785
0.1834 0.1473 0.0992
0.2132 0.1738 0.1198
0.2431 0.2003 0.1405
0.2729 0.2268 0.1611
0.3028 0.2533 0.1818
0.1644 0.1304 0.0860
0.1942 0.1569 0.1067
0.2241 0.1835 0.1273
0.2540 0.2100 0.1480
0.2838 0.2365 0.1686
0.3137 0.2630 0.1893
0.3435 0.2895 0.2099
0.3734 0.3160 0.2306
0.4032 0.3425 0.2512
0.2648 0.2196 0.1555
0.2947 0.2461 0.1761
0.3245 0.2726 0.1968
0.3544 0.2991 0.2174
0.3843 0.3256 0.2381
0.4141 0.3522 0.2587
0.4440 0.3787 0.2794
0.4738 0.4052 0.3000
0.5037 0.4317 0.3207
0.3653 0.3088 0.2250
0.3951 0.3353 0.2456
0.4250 0.3618 0.2663
0.4548 0.3883 0.2869
0.4847 0.4148 0.3075
0.5146 0.4413 0.3282
0.5444 0.4678 0.3488
0.5743 0.4944 0.3695
0.6041 0.5209 0.3901
0.4657 0.3980 0.2944
0.4956 0.4245 0.3151
0.5254 0.4510 0.3357
0.5553 0.4775 0.3564
0.5851 0.5040 0.3770
0.6150 0.5305 0.3977
0.6449 0.5570 0.4183
0.6747 0.5835 0.4390
0.7046 0.6100 0.4596
0.5662 0.4871 0.3639
0.5960 0.5137 0.3845
0.6259 0.5402 0.4052
0.6557 0.5667 0.4258
0.6856 0.5932 0.4465
0.7154 0.6197 0.4671
0.7453 0.6462 0.4878
0.7752 0.6727 0.5084
0.8050 0.6992 0.5291
0.6666 0.5763 0.4333
0.6965 0.6028 0.4540
0.7263 0.6293 0.4746
0.7562 0.6558 0.4953
0.7860 0.6824 0.5159
0.8159 0.7089 0.5366
0.8457 0.7354 0.5572
0.8756 0.7619 0.5779
0.9054 0.7884 0.5985
0.7670 0.6655 0.5028
0.7969 0.6920 0.5235
0.8267 0.7185 0.5441
0.8566 0.7450 0.5648
0.8865 0.7715 0.5854
0.9163 0.7980 0.6061
0.9462 0.8245 0.6267
0.9760 0.8511 0.6474
1.0000 0.8776 0.6680
0.8675 0.7547 0.5723
0.8973 0.7812 0.5929
0.9272 0.8077 0.6136
0.9570 0.8342 0.6342
0.9869 0.8607 0.6549
1.0000 0.8872 0.6755
1.0000 0.9137 0.6962
1.0000 0.9402 0.7168
1.0000 0.9667 0.7375
0.0741 0.0503 0.0236
0.1039 0.0768 0.0442
0.1338 0.1033 0.0649
0.1637 0.1298 0.0855
0.1935 0.1563 0.1062
0.2234 0.1828 0.1268
0.2532 0.2093 0.1475
0.2831 0.2358 0.1681
0.3129 0.2623 0.1888
0.1745 0.1394 0.0930
0.2044 0.1659 0.1137
0.2342 0.1925 0.1343
0.2641 0.2190 0.1550
0.2940 0.2455 0.1756
0.3238 0.2720 0.1963
0.3537 0.2985 0.2169
0.3835 0.3250 0.2376
0.4134 0.3515 0.2582
0.2750 0.2286 0.1625
0.3048 0.2551 0.1832
0.3347 0.2816 0.2038
0.3645 0.3081 0.2244
0.3944 0.3347 0.2451
0.4243 0.3612 0.2657
0.4541 0.3877 0.2864
0.4840 0.4142 0.3070
0.5138 0.4407 0.3277
0.3754 0.3178 0.2320
0.4053 0.3443 0.2526
0.4351 0.3708 0.2733
0.4650 0.3973 0.2939
0.4948 0.4238 0.3146
0.5247 0.4503 0.3352
0.5546 0.4768 0.3559
0.5844 0.5034 0.3765
0.6143 0.5299 0.3972
0.4759 0.4070 0.3014
0.5057 0.4335 0.3221
0.5356 0.4600 0.3427
0.5654 0.4865 0.3634
0.5953 0.5130 0.3840
0.6251 0.5395 0.4047
0.6550 0.5660 0.4253
0.6849 0.5925 0.4460
0.7147 0.6190 0.4666
0.5763 0.4961 0.3709
0.6061 0.5227 0.3915
0.6360 0.5492 0.4122
0.6659 0.5757 0.4328
0.6957 0.6022 0.4535
0.7256 0.6287 0.4741
0.7554 0.6552 0.4948
0.7853 0.6817 0.5154
0.8151 0.7082 0.5361
0.6767 0.5853 0.4404
0.7066 0.6118 0.4610
0.7364 0.6383 0.4817
0.7663 0.6648 0.5023
0.7962 0.6914 0.5230
0.8260 0.7179 0.5436
0.8559 0.7444 0.5642
0.8857 0.7709 0.5849
0.9156 0.7974 0.6055
0.7772 0.6745 0.5098
0.8070 0.7010 0.5305
0.8369 0.7275 0.5511
0.8667 0.7540 0.5718
0.8966 0.7805 0.5924
0.9265 0.8070 0.6131
0.9563 0.8336 0.6337
0.9862 0.8601 0.6544
1.0000 0.8866 0.6750
0.8776 0.7637 0.5793
0.9075 0.7902 0.5999
0.9373 0.8167 0.6206
0.9672 0.8432 0.6412
0.9970 0.8697 0.6619
1.0000 0.8962 0.6825
1.0000 0.9227 0.7032
1.0000 0.9492 0.7238
1.0000 0.9757 0.7445
0.0842 0.0593 0.0306
0.1141 0.0858 0.0512
0.1439 0.1123 0.0719
0.1738 0.1388 0.0925
0.2037 0.1653 0.1132
0.2335 0.1918 0.1338
0.2634 0.2183 0.1545
0.2932 0.2448 0.1751
0.3231 0.2713 0.1958
0.1847 0.1484 0.1001
0.2145 0.1750 0.1207
0.2444 0.2015 0.1413
0.2742 0.2280 0.1620
0.3041 0.2545 0.1826
0.3340 0.2810 0.2033
0.3638 0.3075 0.2239
0.3937 0.3340 0.2446
0.4235 0.3605 0.2652
0.2851 0.2376 0.1695
0.3150 0.2641 0.1902
0.3448 0.2906 0.2108
0.3747 0.3171 0.2315
0.4045 0.3437 0.2521
0.4344 0.3702 0.2728
0.4643 0.3967 0.2934
0.4941 0.4232 0.3141
0.5240 0.4497 0.3347
0.3855 0.3268 0.2390
0.4154 0.3533 0.2596
0.4453 0.3798 0.2803
0.4751 0.4063 0.3009
0.5050 0.4328 0.3216
0.5348 0.4593 0.3422
0.5647 0.4858 0.3629
0.5945 0.5124 0.3835
0.6244 0.5389 0.4042
0.4860 0.4160 0.3084
0.5158 0.4425 0.3291
0.5457 0.4690 0.3497
0.5756 0.4955 0.3704
0.6054 0.5220 0.3910
0.6353 0.5485 0.4117
0.6651 0.5750 0.4323
0.6950 0.6015 0.4530
0.7248 0.6280 0.4736
0.5864 0.5051 0.3779
0.6163 0.5317 0.3986
0.6461 0.5582 0.4192
0.6760 0.5847 0.4399
0.7059 0.6112 0.4605
0.7357 0.6377 0.4811
0.7656 0.6642 0.5018
0.7954 0.6907 0.5224
0.8253 0.7172 0.5431
0.6869 0.5943 0.4474
0.7167 0.6208 0.4680
0.7466 0.6473 0.4887
0.7764 0.6739 0.5093
0.8063 0.7004 0.5300
0.8362 0.7269 0.5506
0.8660 0.7534 0.5713
0.8959 0.7799 0.5919
0.9257 0.8064 0.6126
0.7873 0.6835 0.5168
0.8172 0.7100 0.5375
0.8470 0.7365 0.5581
0.8769 0.7630 0.5788
0.9067 0.7895 0.5994
0.9366 0.8160 0.6201
0.9665 0.8426 0.6407
0.9963 0.8691 0.6614
1.0000 0.8956 0.6820
0.8878 0.7727 0.5863
0.9176 0.7992 0.6069
0.9475 0.8257 0.6276
0.9773 0.8522 0.6482
1.0000 0.8787 0.6689
1.0000 0.9052 0.6895
1.0000 0.9317 0.7102
1.0000 0.9582 0.7308
1.0000 0.9847 0.7515
0.0944 0.0683 0.0376
0.1242 0.0948 0.0582
0.1541 0.1213 0.0789
0.1839 0.1478 0.0995
0.2138 0.1743 0.1202
0.2437 0.2008 0.1408
0.2735 0.2273 0.1615
0.3034 0.2538 0.1821
0.3332 0.2803 0.2028
0.1948 0.1574 0.1071
0.2247 0.1840 0.1277
0.2545 0.2105 0.1484
0.2844 0.2370 0.1690
0.3142 0.2635 0.1897
0.3441 0.2900 0.2103
0.3739 0.3165 0.2310
0.4038 0.3430 0.2516
0.4337 0.3695 0.2723
0.2952 0.2466 0.1765
0.3251 0.2731 0.1972
0.3550 0.2996 0.2178
0.3848 0.3261 0.2385
0.4147 0.3527 0.2591
0.4445 0.3792 0.2798
0.4744 0.4057 0.3004
0.5042 0.4322 0.3211
0.5341 0.4587 0.3417
0.3957 0.3358 0.2460
0.4255 0.3623 0.2666
0.4554 0.3888 0.2873
0.4853 0.4153 0.3079
0.5151 0.4418 0.3286
0.5450 0.4683 0.3492
0.5748 0.4949 0.3699
0.6047 0.5214 0.3905
0.6345 0.5479 0.4112
0.4961 0.4250 0.3155
0.5260 0.4515 0.3361
0.5558 0.4780 0.3568
0.5857 0.5045 0.3774
0.6156 0.5310 0.3980
0.6454 0.5575 0.4187
0.6753 0.5840 0.4393
0.7051 0.6105 0.4600
0.7350 0.6370 0.4806
0.5966 0.5142 0.3849
0.6264 0.5407 0.4056
0.6563 0.5672 0.4262
0.6861 0.5937 0.4469
0.7160 0.6202 0.4675
0.7459 0.6467 0.4882
0.7757 0.6732 0.5088
0.8056 0.6997 0.5295
0.8354 0.7262 0.5501
0.6970 0.6033 0.4544
0.7269 0.6298 0.4750
0.7567 0.6563 0.4957
0.7866 0.6829 0.5163
0.8164 0.7094 0.5370
0.8463 0.7359 0.5576
0.8762 0.7624 0.5783
0.9060 0.7889 0.5989
0.9359 0.8154 0.6196
0.7975 0.6925 0.5238
0.8273 0.7190 0.5445
0.8572 0.7455 0.5651
0.8870 0.7720 0.5858
0.9169 0.7985 0.6064
0.9467 0.8250 0.6271
0.9766 0.8516 0.6477
1.0000 0.8781 0.6684
1.0000 0.9046 0.6890
0.8979 0.7817 0.5933
0.9278 0.8082 0.6140
0.9576 0.8347 0.6346
0.9875 0.8612 0.6553
1.0000 0.8877 0.6759
1.0000 0.9142 0.6966
1.0000 0.9407 0.7172
1.0000 0.9672 0.7379
1.0000 0.9937 0.7585
