public/luts/sepia.cube
# edite look: Sepia (CC0)
TITLE "Sepia"
LUT_3D_SIZE 5
DOMAIN_MIN 0.0 0.0 0.0
DOMAIN_MAX 1.0 1.0 1.0
0.0132 0.0000 0.0000
0.0730 0.0493 0.0228
0.1327 0.1023 0.0641
0.1924 0.1553 0.1054
0.2521 0.2083 0.1467
0.2141 0.1746 0.1204
0.2738 0.2276 0.1617
0.3336 0.2806 0.2030
0.3933 0.3337 0.2443
0.4530 0.3867 0.2856
0.4150 0.3530 0.2594
0.4747 0.4060 0.3007
0.5344 0.4590 0.3420
0.5942 0.5120 0.3832
0.6539 0.5650 0.4245
0.6159 0.5313 0.3983
0.6756 0.5843 0.4396
0.7353 0.6373 0.4809
0.7950 0.6904 0.5222
0.8548 0.7434 0.5635
0.8168 0.7097 0.5372
0.8765 0.7627 0.5785
0.9362 0.8157 0.6198
0.9959 0.8687 0.6611
1.0000 0.9217 0.7024
0.0335 0.0143 0.0000
0.0932 0.0673 0.0368
0.1530 0.1203 0.0781
0.2127 0.1733 0.1194
0.2724 0.2263 0.1607
0.2344 0.1926 0.1345
0.2941 0.2456 0.1757
0.3538 0.2986 0.2170
0.4136 0.3517 0.2583
0.4733 0.4047 0.2996
0.4353 0.3710 0.2734
0.4950 0.4240 0.3147
0.5547 0.4770 0.3560
0.6144 0.5300 0.3973
0.6741 0.5830 0.4386
0.6362 0.5493 0.4123
0.6959 0.6023 0.4536
0.7556 0.6553 0.4949
0.8153 0.7084 0.5362
0.8750 0.7614 0.5775
0.8371 0.7277 0.5512
0.8968 0.7807 0.5925
0.9565 0.8337 0.6338
1.0000 0.8867 0.6751
1.0000 0.9397 0.7164
0.0538 0.0323 0.0095
0.1135 0.0853 0.0508
0.1732 0.1383 0.0921
0.2330 0.1913 0.1334
0.2927 0.2443 0.1747
0.2547 0.2106 0.1485
0.3144 0.2636 0.1898
0.3741 0.3166 0.2311
0.4338 0.3697 0.2724
0.4935 0.4227 0.3137
0.4556 0.3890 0.2874
0.5153 0.4420 0.3287
0.5750 0.4950 0.3700
0.6347 0.5480 0.4113
0.6944 0.6010 0.4526
0.6565 0.5673 0.4263
0.7162 0.6203 0.4676
0.7759 0.6734 0.5089
0.8356 0.7264 0.5502
0.8953 0.7794 0.5915
0.8573 0.7457 0.5653
0.9170 0.7987 0.6066
0.9768 0.8517 0.6479
1.0000 0.9047 0.6892
1.0000 0.9577 0.7305
0.0741 0.0503 0.0236
0.1338 0.1033 0.0649
0.1935 0.1563 0.1062
0.2532 0.2093 0.1475
0.3129 0.2623 0.1888
0.2750 0.2286 0.1625
0.3347 0.2816 0.2038
0.3944 0.3347 0.2451
0.4541 0.3877 0.2864
0.5138 0.4407 0.3277
0.4759 0.4070 0.3014
0.5356 0.4600 0.3427
0.5953 0.5130 0.3840
0.6550 0.5660 0.4253
0.7147 0.6190 0.4666
0.6767 0.5853 0.4404
0.7364 0.6383 0.4817
0.7962 0.6914 0.5230
0.8559 0.7444 0.5642
0.9156 0.7974 0.6055
0.8776 0.7637 0.5793
0.9373 0.8167 0.6206
0.9970 0.8697 0.6619
1.0000 0.9227 0.7032
1.0000 0.9757 0.7445
0.0944 0.0683 0.0376
0.1541 0.1213 0.0789
0.2138 0.1743 0.1202
0.2735 0.2273 0.1615
0.3332 0.2803 0.2028
0.2952 0.2466 0.1765
0.3550 0.2996 0.2178
0.4147 0.3527 0.2591
0.4744 0.4057 0.3004
0.5341 0.4587 0.3417
0.4961 0.4250 0.3155
0.5558 0.4780 0.3568
0.6156 0.5310 0.3980
0.6753 0.5840 0.4393
0.7350 0.6370 0.4806
0.6970 0.6033 0.4544
0.7567 0.6563 0.4957
0.8164 0.7094 0.5370
0.8762 0.7624 0.5783
0.9359 0.8154 0.6196
0.8979 0.7817 0.5933
0.9576 0.8347 0.6346
1.0000 0.8877 0.6759
1.0000 0.9407 0.7172
1.0000 0.9937 0.7585
