public/luts/sepia.cube
# edite look: Sepia (CC0)
TITLE "Sepia"
LUT_3D_SIZE 17
DOMAIN_MIN 0.0 0.0 0.0
DOMAIN_MAX 1.0 1.0 1.0
0.0132 0.0000 0.0000
0.0282 0.0095 0.0000
0.0431 0.0228 0.0021
0.0580 0.0360 0.0125
0.0730 0.0493 0.0228
0.0879 0.0625 0.0331
0.1028 0.0758 0.0434
0.1177 0.0890 0.0538
0.1327 0.1023 0.0641
0.1476 0.1155 0.0744
0.1625 0.1288 0.0847
0.1775 0.1420 0.0951
0.1924 0.1553 0.1054
0.2073 0.1686 0.1157
0.2222 0.1818 0.1260
0.2372 0.1951 0.1364
0.2521 0.2083 0.1467
0.0635 0.0408 0.0162
0.0784 0.0541 0.0266
0.0933 0.0673 0.0369
0.1083 0.0806 0.0472
0.1232 0.0939 0.0575
0.1381 0.1071 0.0679
0.1530 0.1204 0.0782
0.1680 0.1336 0.0885
0.1829 0.1469 0.0988
0.1978 0.1601 0.1092
0.2128 0.1734 0.1195
0.2277 0.1866 0.1298
0.2426 0.1999 0.1401
0.2575 0.2131 0.1504
0.2725 0.2264 0.1608
0.2874 0.2397 0.1711
0.3023 0.2529 0.1814
0.1137 0.0854 0.0510
0.1286 0.0987 0.0613
0.1435 0.1119 0.0716
0.1585 0.1252 0.0819
0.1734 0.1384 0.0923
0.1883 0.1517 0.1026
0.2033 0.1650 0.1129
0.2182 0.1782 0.1232
0.2331 0.1915 0.1336
0.2480 0.2047 0.1439
0.2630 0.2180 0.1542
0.2779 0.2312 0.1645
0.2928 0.2445 0.1749
0.3078 0.2577 0.1852
0.3227 0.2710 0.1955
0.3376 0.2842 0.2058
0.3525 0.2975 0.2162
0.1639 0.1300 0.0857
0.1788 0.1433 0.0960
0.1938 0.1565 0.1063
0.2087 0.1698 0.1167
0.2236 0.1830 0.1270
0.2386 0.1963 0.1373
0.2535 0.2095 0.1476
0.2684 0.2228 0.1580
0.2833 0.2360 0.1683
0.2983 0.2493 0.1786
0.3132 0.2626 0.1889
0.3281 0.2758 0.1993
0.3431 0.2891 0.2096
0.3580 0.3023 0.2199
0.3729 0.3156 0.2302
0.3878 0.3288 0.2406
0.4028 0.3421 0.2509
0.2141 0.1746 0.1204
0.2291 0.1879 0.1308
0.2440 0.2011 0.1411
0.2589 0.2144 0.1514
0.2738 0.2276 0.1617
0.2888 0.2409 0.1720
0.3037 0.2541 0.1824
0.3186 0.2674 0.1927
0.3336 0.2806 0.2030
0.3485 0.2939 0.2133
0.3634 0.3071 0.2237
0.3783 0.3204 0.2340
0.3933 0.3337 0.2443
0.4082 0.3469 0.2546
0.4231 0.3602 0.2650
0.4381 0.3734 0.2753
0.4530 0.3867 0.2856
0.2644 0.2192 0.1552
0.2793 0.2324 0.1655
0.2942 0.2457 0.1758
0.3091 0.2590 0.1861
0.3241 0.2722 0.1965
0.3390 0.2855 0.2068
0.3539 0.2987 0.2171
0.3689 0.3120 0.2274
0.3838 0.3252 0.2378
0.3987 0.3385 0.2481
0.4136 0.3517 0.2584
0.4286 0.3650 0.2687
0.4435 0.3782 0.2791
0.4584 0.3915 0.2894
0.4734 0.4048 0.2997
0.4883 0.4180 0.3100
0.5032 0.4313 0.3203
0.3146 0.2638 0.1899
0.3295 0.2770 0.2002
0.3444 0.2903 0.2105
0.3594 0.3035 0.2209
0.3743 0.3168 0.2312
0.3892 0.3301 0.2415
0.4041 0.3433 0.2518
0.4191 0.3566 0.2622
0.4340 0.3698 0.2725
0.4489 0.3831 0.2828
0.4639 0.3963 0.2931
0.4788 0.4096 0.3035
0.4937 0.4228 0.3138
0.5086 0.4361 0.3241
0.5236 0.4493 0.3344
0.5385 0.4626 0.3448
0.5534 0.4758 0.3551
0.3648 0.3084 0.2246
0.3797 0.3216 0.2349
0.3947 0.3349 0.2453
0.4096 0.3481 0.2556
0.4245 0.3614 0.2659
0.4394 0.3746 0.2762
0.4544 0.3879 0.2866
0.4693 0.4011 0.2969
0.4842 0.4144 0.3072
0.4991 0.4277 0.3175
0.5141 0.4409 0.3279
0.5290 0.4542 0.3382
0.5439 0.4674 0.3485
0.5589 0.4807 0.3588
0.5738 0.4939 0.3692
0.5887 0.5072 0.3795
0.6036 0.5204 0.3898
0.4150 0.3530 0.2594
0.4299 0.3662 0.2697
0.4449 0.3795 0.2800
0.4598 0.3927 0.2903
0.4747 0.4060 0.3007
0.4897 0.4192 0.3110
0.5046 0.4325 0.3213
0.5195 0.4457 0.3316
0.5344 0.4590 0.3420
0.5494 0.4722 0.3523
0.5643 0.4855 0.3626
0.5792 0.4988 0.3729
0.5942 0.5120 0.3832
0.6091 0.5253 0.3936
0.6240 0.5385 0.4039
0.6389 0.5518 0.4142
0.6539 0.5650 0.4245
0.4652 0.3975 0.2941
0.4802 0.4108 0.3044
0.4951 0.4241 0.3147
0.5100 0.4373 0.3251
0.5249 0.4506 0.3354
0.5399 0.4638 0.3457
0.5548 0.4771 0.3560
0.5697 0.4903 0.3664
0.5847 0.5036 0.3767
0.5996 0.5168 0.3870
0.6145 0.5301 0.3973
0.6294 0.5433 0.4077
0.6444 0.5566 0.4180
0.6593 0.5698 0.4283
0.6742 0.5831 0.4386
0.6892 0.5964 0.4490
0.7041 0.6096 0.4593
0.5155 0.4421 0.3288
0.5304 0.4554 0.3391
0.5453 0.4686 0.3495
0.5602 0.4819 0.3598
0.5752 0.4951 0.3701
0.5901 0.5084 0.3804
0.6050 0.5217 0.3908
0.6200 0.5349 0.4011
0.6349 0.5482 0.4114
0.6498 0.5614 0.4217
0.6647 0.5747 0.4321
0.6797 0.5879 0.4424
0.6946 0.6012 0.4527
0.7095 0.6144 0.4630
0.7245 0.6277 0.4734
0.7394 0.6409 0.4837
0.7543 0.6542 0.4940
0.5657 0.4867 0.3636
0.5806 0.5000 0.3739
0.5955 0.5132 0.3842
0.6105 0.5265 0.3945
0.6254 0.5397 0.4048
0.6403 0.5530 0.4152
0.6552 0.5662 0.4255
0.6702 0.5795 0.4358
0.6851 0.5928 0.4461
0.7000 0.6060 0.4565
0.7150 0.6193 0.4668
0.7299 0.6325 0.4771
0.7448 0.6458 0.4874
0.7597 0.6590 0.4978
0.7747 0.6723 0.5081
0.7896 0.6855 0.5184
0.8045 0.6988 0.5287
0.6159 0.5313 0.3983
0.6308 0.5446 0.4086
0.6458 0.5578 0.4189
0.6607 0.5711 0.4293
0.6756 0.5843 0.4396
0.6905 0.5976 0.4499
0.7055 0.6108 0.4602
0.7204 0.6241 0.4706
0.7353 0.6373 0.4809
0.7503 0.6506 0.4912
0.7652 0.6639 0.5015
0.7801 0.6771 0.5119
0.7950 0.6904 0.5222
0.8100 0.7036 0.5325
0.8249 0.7169 0.5428
0.8398 0.7301 0.5531
0.8548 0.7434 0.5635
0.6661 0.5759 0.4330
0.6810 0.5892 0.4433
0.6960 0.6024 0.4537
0.7109 0.6157 0.4640
0.7258 0.6289 0.4743
0.7408 0.6422 0.4846
0.7557 0.6554 0.4950
0.7706 0.6687 0.5053
0.7855 0.6819 0.5156
0.8005 0.6952 0.5259
0.8154 0.7084 0.5363
0.8303 0.7217 0.5466
0.8453 0.7349 0.5569
0.8602 0.7482 0.5672
0.8751 0.7615 0.5776
0.8900 0.7747 0.5879
0.9050 0.7880 0.5982
0.7163 0.6205 0.4677
0.7313 0.6337 0.4781
0.7462 0.6470 0.4884
0.7611 0.6602 0.4987
0.7761 0.6735 0.5090
0.7910 0.6868 0.5194
0.8059 0.7000 0.5297
0.8208 0.7133 0.5400
0.8358 0.7265 0.5503
0.8507 0.7398 0.5607
0.8656 0.7530 0.5710
0.8805 0.7663 0.5813
0.8955 0.7795 0.5916
0.9104 0.7928 0.6020
0.9253 0.8060 0.6123
0.9403 0.8193 0.6226
0.9552 0.8326 0.6329
0.7666 0.6651 0.5025
0.7815 0.6783 0.5128
0.7964 0.6916 0.5231
0.8113 0.7048 0.5335
0.8263 0.7181 0.5438
0.8412 0.7313 0.5541
0.8561 0.7446 0.5644
0.8711 0.7579 0.5747
0.8860 0.7711 0.5851
0.9009 0.7844 0.5954
0.9158 0.7976 0.6057
0.9308 0.8109 0.6160
0.9457 0.8241 0.6264
0.9606 0.8374 0.6367
0.9756 0.8506 0.6470
0.9905 0.8639 0.6573
1.0000 0.8771 0.6677
0.8168 0.7097 0.5372
0.8317 0.7229 0.5475
0.8466 0.7362 0.5579
0.8616 0.7494 0.5682
0.8765 0.7627 0.5785
0.8914 0.7759 0.5888
0.9063 0.7892 0.5992
0.9213 0.8024 0.6095
0.9362 0.8157 0.6198
0.9511 0.8290 0.6301
0.9661 0.8422 0.6405
0.9810 0.8555 0.6508
0.9959 0.8687 0.6611
1.0000 0.8820 0.6714
1.0000 0.8952 0.6818
1.0000 0.9085 0.6921
1.0000 0.9217 0.7024
0.0183 0.0008 0.0000
0.0332 0.0140 0.0000
0.0482 0.0273 0.0057
0.0631 0.0405 0.0160
0.0780 0.0538 0.0263
0.0930 0.0670 0.0366
0.1079 0.0803 0.0470
0.1228 0.0935 0.0573
0.1377 0.1068 0.0676
0.1527 0.1200 0.0779
0.1676 0.1333 0.0883
0.1825 0.1465 0.0986
0.1975 0.1598 0.1089
0.2124 0.1731 0.1192
0.2273 0.1863 0.1295
0.2422 0.1996 0.1399
0.2572 0.2128 0.1502
0.0685 0.0453 0.0197
0.0835 0.0586 0.0301
0.0984 0.0718 0.0404
0.1133 0.0851 0.0507
0.1283 0.0984 0.0610
0.1432 0.1116 0.0714
0.1581 0.1249 0.0817
0.1730 0.1381 0.0920
0.1880 0.1514 0.1023
0.2029 0.1646 0.1127
0.2178 0.1779 0.1230
0.2328 0.1911 0.1333
0.2477 0.2044 0.1436
0.2626 0.2176 0.1540
0.2775 0.2309 0.1643
0.2925 0.2442 0.1746
0.3074 0.2574 0.1849
0.1188 0.0899 0.0545
0.1337 0.1032 0.0648
0.1486 0.1164 0.0751
0.1635 0.1297 0.0854
0.1785 0.1429 0.0958
0.1934 0.1562 0.1061
0.2083 0.1695 0.1164
0.2233 0.1827 0.1267
0.2382 0.1960 0.1371
0.2531 0.2092 0.1474
0.2680 0.2225 0.1577
0.2830 0.2357 0.1680
0.2979 0.2490 0.1784
0.3128 0.2622 0.1887
0.3278 0.2755 0.1990
0.3427 0.2887 0.2093
0.3576 0.3020 0.2197
0.1690 0.1345 0.0892
0.1839 0.1478 0.0995
0.1988 0.1610 0.1099
0.2138 0.1743 0.1202
0.2287 0.1875 0.1305
0.2436 0.2008 0.1408
0.2586 0.2140 0.1511
0.2735 0.2273 0.1615
0.2884 0.2406 0.1718
0.3033 0.2538 0.1821
0.3183 0.2671 0.1924
0.3332 0.2803 0.2028
0.3481 0.2936 0.2131
0.3631 0.3068 0.2234
0.3780 0.3201 0.2337
0.3929 0.3333 0.2441
0.4078 0.3466 0.2544
0.2192 0.1791 0.1239
0.2341 0.1924 0.1343
0.2491 0.2056 0.1446
0.2640 0.2189 0.1549
0.2789 0.2321 0.1652
0.2938 0.2454 0.1756
0.3088 0.2586 0.1859
0.3237 0.2719 0.1962
0.3386 0.2851 0.2065
0.3536 0.2984 0.2169
0.3685 0.3116 0.2272
0.3834 0.3249 0.2375
0.3983 0.3382 0.2478
0.4133 0.3514 0.2582
0.4282 0.3647 0.2685
0.4431 0.3779 0.2788
0.4581 0.3912 0.2891
0.2694 0.2237 0.1587
0.2844 0.2369 0.1690
0.2993 0.2502 0.1793
0.3142 0.2635 0.1896
0.3291 0.2767 0.2000
0.3441 0.2900 0.2103
0.3590 0.3032 0.2206
0.3739 0.3165 0.2309
0.3889 0.3297 0.2413
0.4038 0.3430 0.2516
0.4187 0.3562 0.2619
0.4336 0.3695 0.2722
0.4486 0.3827 0.2826
0.4635 0.3960 0.2929
0.4784 0.4093 0.3032
0.4933 0.4225 0.3135
0.5083 0.4358 0.3239
0.3196 0.2683 0.1934
0.3346 0.2815 0.2037
0.3495 0.2948 0.2140
0.3644 0.3080 0.2244
0.3794 0.3213 0.2347
0.3943 0.3346 0.2450
0.4092 0.3478 0.2553
0.4241 0.3611 0.2657
0.4391 0.3743 0.2760
0.4540 0.3876 0.2863
0.4689 0.4008 0.2966
0.4839 0.4141 0.3070
0.4988 0.4273 0.3173
0.5137 0.4406 0.3276
0.5286 0.4538 0.3379
0.5436 0.4671 0.3483
0.5585 0.4803 0.3586
0.3699 0.3129 0.2281
0.3848 0.3261 0.2385
0.3997 0.3394 0.2488
0.4146 0.3526 0.2591
0.4296 0.3659 0.2694
0.4445 0.3791 0.2798
0.4594 0.3924 0.2901
0.4744 0.4056 0.3004
0.4893 0.4189 0.3107
0.5042 0.4322 0.3210
0.5191 0.4454 0.3314
0.5341 0.4587 0.3417
0.5490 0.4719 0.3520
0.5639 0.4852 0.3623
0.5789 0.4984 0.3727
0.5938 0.5117 0.3830
0.6087 0.5249 0.3933
0.4201 0.3575 0.2629
0.4350 0.3707 0.2732
0.4499 0.3840 0.2835
0.4649 0.3972 0.2938
0.4798 0.4105 0.3042
0.4947 0.4237 0.3145
0.5097 0.4370 0.3248
0.5246 0.4502 0.3351
0.5395 0.4635 0.3455
0.5544 0.4767 0.3558
0.5694 0.4900 0.3661
0.5843 0.5033 0.3764
0.5992 0.5165 0.3868
0.6142 0.5298 0.3971
0.6291 0.5430 0.4074
0.6440 0.5563 0.4177
0.6589 0.5695 0.4281
0.4703 0.4020 0.2976
0.4852 0.4153 0.3079
0.5002 0.4286 0.3182
0.5151 0.4418 0.3286
0.5300 0.4551 0.3389
0.5449 0.4683 0.3492
0.5599 0.4816 0.3595
0.5748 0.4948 0.3699
0.5897 0.5081 0.3802
0.6047 0.5213 0.3905
0.6196 0.5346 0.4008
0.6345 0.5478 0.4112
0.6494 0.5611 0.4215
0.6644 0.5744 0.4318
0.6793 0.5876 0.4421
0.6942 0.6009 0.4525
0.7092 0.6141 0.4628
0.5205 0.4466 0.3323
0.5355 0.4599 0.3426
0.5504 0.4731 0.3530
0.5653 0.4864 0.3633
0.5802 0.4997 0.3736
0.5952 0.5129 0.3839
0.6101 0.5262 0.3943
0.6250 0.5394 0.4046
0.6400 0.5527 0.4149
0.6549 0.5659 0.4252
0.6698 0.5792 0.4356
0.6847 0.5924 0.4459
0.6997 0.6057 0.4562
0.7146 0.6189 0.4665
0.7295 0.6322 0.4769
0.7445 0.6454 0.4872
0.7594 0.6587 0.4975
0.5707 0.4912 0.3671
0.5857 0.5045 0.3774
0.6006 0.5177 0.3877
0.6155 0.5310 0.3980
0.6305 0.5442 0.4084
0.6454 0.5575 0.4187
0.6603 0.5707 0.4290
0.6752 0.5840 0.4393
0.6902 0.5973 0.4497
0.7051 0.6105 0.4600
0.7200 0.6238 0.4703
0.7350 0.6370 0.4806
0.7499 0.6503 0.4909
0.7648 0.6635 0.5013
0.7797 0.6768 0.5116
0.7947 0.6900 0.5219
0.8096 0.7033 0.5322
0.6210 0.5358 0.4018
0.6359 0.5491 0.4121
0.6508 0.5623 0.4224
0.6658 0.5756 0.4328
0.6807 0.5888 0.4431
0.6956 0.6021 0.4534
0.7105 0.6153 0.4637
0.7255 0.6286 0.4741
0.7404 0.6418 0.4844
0.7553 0.6551 0.4947
0.7703 0.6684 0.5050
0.7852 0.6816 0.5154
0.8001 0.6949 0.5257
0.8150 0.7081 0.5360
0.8300 0.7214 0.5463
0.8449 0.7346 0.5567
0.8598 0.7479 0.5670
0.6712 0.5804 0.4365
0.6861 0.5937 0.4468
0.7010 0.6069 0.4572
0.7160 0.6202 0.4675
0.7309 0.6334 0.4778
0.7458 0.6467 0.4881
0.7608 0.6599 0.4985
0.7757 0.6732 0.5088
0.7906 0.6864 0.5191
0.8055 0.6997 0.5294
0.8205 0.7129 0.5398
0.8354 0.7262 0.5501
0.8503 0.7394 0.5604
0.8653 0.7527 0.5707
0.8802 0.7660 0.5811
0.8951 0.7792 0.5914
0.9100 0.7925 0.6017
0.7214 0.6250 0.4713
0.7363 0.6382 0.4816
0.7513 0.6515 0.4919
0.7662 0.6647 0.5022
0.7811 0.6780 0.5126
0.7960 0.6913 0.5229
0.8110 0.7045 0.5332
0.8259 0.7178 0.5435
0.8408 0.7310 0.5538
0.8558 0.7443 0.5642
0.8707 0.7575 0.5745
0.8856 0.7708 0.5848
0.9005 0.7840 0.5951
0.9155 0.7973 0.6055
0.9304 0.8105 0.6158
0.9453 0.8238 0.6261
0.9603 0.8371 0.6364
0.7716 0.6696 0.5060
0.7866 0.6828 0.5163
0.8015 0.6961 0.5266
0.8164 0.7093 0.5370
0.8313 0.7226 0.5473
0.8463 0.7358 0.5576
0.8612 0.7491 0.5679
0.8761 0.7624 0.5783
0.8911 0.7756 0.5886
0.9060 0.7889 0.5989
0.9209 0.8021 0.6092
0.9358 0.8154 0.6196
0.9508 0.8286 0.6299
0.9657 0.8419 0.6402
0.9806 0.8551 0.6505
0.9956 0.8684 0.6609
1.0000 0.8816 0.6712
0.8218 0.7142 0.5407
0.8368 0.7274 0.5510
0.8517 0.7407 0.5614
0.8666 0.7539 0.5717
0.8816 0.7672 0.5820
0.8965 0.7804 0.5923
0.9114 0.7937 0.6027
0.9263 0.8069 0.6130
0.9413 0.8202 0.6233
0.9562 0.8335 0.6336
0.9711 0.8467 0.6440
0.9861 0.8600 0.6543
1.0000 0.8732 0.6646
1.0000 0.8865 0.6749
1.0000 0.8997 0.6853
1.0000 0.9130 0.6956
1.0000 0.9262 0.7059
0.0234 0.0053 0.0000
0.0383 0.0185 0.0000
0.0532 0.0318 0.0092
0.0682 0.0450 0.0195
0.0831 0.0583 0.0298
0.0980 0.0715 0.0401
0.1130 0.0848 0.0505
0.1279 0.0980 0.0608
0.1428 0.1113 0.0711
0.1577 0.1245 0.0814
0.1727 0.1378 0.0918
0.1876 0.1510 0.1021
0.2025 0.1643 0.1124
0.2175 0.1776 0.1227
0.2324 0.1908 0.1331
0.2473 0.2041 0.1434
0.2622 0.2173 0.1537
0.0736 0.0498 0.0232
0.0885 0.0631 0.0336
0.1035 0.0763 0.0439
0.1184 0.0896 0.0542
0.1333 0.1029 0.0645
0.1483 0.1161 0.0749
0.1632 0.1294 0.0852
0.1781 0.1426 0.0955
0.1930 0.1559 0.1058
0.2080 0.1691 0.1162
0.2229 0.1824 0.1265
0.2378 0.1956 0.1368
0.2528 0.2089 0.1471
0.2677 0.2221 0.1575
0.2826 0.2354 0.1678
0.2975 0.2487 0.1781
0.3125 0.2619 0.1884
0.1238 0.0944 0.0580
0.1388 0.1077 0.0683
0.1537 0.1209 0.0786
0.1686 0.1342 0.0889
0.1835 0.1474 0.0993
0.1985 0.1607 0.1096
0.2134 0.1740 0.1199
0.2283 0.1872 0.1302
0.2433 0.2005 0.1406
0.2582 0.2137 0.1509
0.2731 0.2270 0.1612
0.2880 0.2402 0.1715
0.3030 0.2535 0.1819
0.3179 0.2667 0.1922
0.3328 0.2800 0.2025
0.3478 0.2932 0.2128
0.3627 0.3065 0.2232
0.1741 0.1390 0.0927
0.1890 0.1523 0.1030
0.2039 0.1655 0.1134
0.2188 0.1788 0.1237
0.2338 0.1920 0.1340
0.2487 0.2053 0.1443
0.2636 0.2185 0.1547
0.2786 0.2318 0.1650
0.2935 0.2451 0.1753
0.3084 0.2583 0.1856
0.3233 0.2716 0.1960
0.3383 0.2848 0.2063
0.3532 0.2981 0.2166
0.3681 0.3113 0.2269
0.3831 0.3246 0.2372
0.3980 0.3378 0.2476
0.4129 0.3511 0.2579
0.2243 0.1836 0.1274
0.2392 0.1969 0.1378
0.2541 0.2101 0.1481
0.2691 0.2234 0.1584
0.2840 0.2366 0.1687
0.2989 0.2499 0.1791
0.3138 0.2631 0.1894
0.3288 0.2764 0.1997
0.3437 0.2896 0.2100
0.3586 0.3029 0.2204
0.3736 0.3161 0.2307
0.3885 0.3294 0.2410
0.4034 0.3427 0.2513
0.4183 0.3559 0.2617
0.4333 0.3692 0.2720
0.4482 0.3824 0.2823
0.4631 0.3957 0.2926
0.2745 0.2282 0.1622
0.2894 0.2414 0.1725
0.3043 0.2547 0.1828
0.3193 0.2680 0.1931
0.3342 0.2812 0.2035
0.3491 0.2945 0.2138
0.3641 0.3077 0.2241
0.3790 0.3210 0.2344
0.3939 0.3342 0.2448
0.4088 0.3475 0.2551
0.4238 0.3607 0.2654
0.4387 0.3740 0.2757
0.4536 0.3872 0.2861
0.4686 0.4005 0.2964
0.4835 0.4138 0.3067
0.4984 0.4270 0.3170
0.5133 0.4403 0.3274
0.3247 0.2728 0.1969
0.3396 0.2860 0.2072
0.3546 0.2993 0.2176
0.3695 0.3125 0.2279
0.3844 0.3258 0.2382
0.3994 0.3391 0.2485
0.4143 0.3523 0.2589
0.4292 0.3656 0.2692
0.4441 0.3788 0.2795
0.4591 0.3921 0.2898
0.4740 0.4053 0.3001
0.4889 0.4186 0.3105
0.5039 0.4318 0.3208
0.5188 0.4451 0.3311
0.5337 0.4583 0.3414
0.5486 0.4716 0.3518
0.5636 0.4849 0.3621
0.3749 0.3174 0.2316
0.3899 0.3306 0.2420
0.4048 0.3439 0.2523
0.4197 0.3571 0.2626
0.4346 0.3704 0.2729
0.4496 0.3836 0.2833
0.4645 0.3969 0.2936
0.4794 0.4102 0.3039
0.4944 0.4234 0.3142
0.5093 0.4367 0.3246
0.5242 0.4499 0.3349
0.5391 0.4632 0.3452
0.5541 0.4764 0.3555
0.5690 0.4897 0.3659
0.5839 0.5029 0.3762
0.5989 0.5162 0.3865
0.6138 0.5294 0.3968
0.4252 0.3620 0.2664
0.4401 0.3752 0.2767
0.4550 0.3885 0.2870
0.4699 0.4017 0.2973
0.4849 0.4150 0.3077
0.4998 0.4282 0.3180
0.5147 0.4415 0.3283
0.5297 0.4547 0.3386
0.5446 0.4680 0.3490
0.5595 0.4812 0.3593
0.5744 0.4945 0.3696
0.5894 0.5078 0.3799
0.6043 0.5210 0.3903
0.6192 0.5343 0.4006
0.6342 0.5475 0.4109
0.6491 0.5608 0.4212
0.6640 0.5740 0.4316
0.4754 0.4065 0.3011
0.4903 0.4198 0.3114
0.5052 0.4331 0.3217
0.5202 0.4463 0.3321
0.5351 0.4596 0.3424
0.5500 0.4728 0.3527
0.5649 0.4861 0.3630
0.5799 0.4993 0.3734
0.5948 0.5126 0.3837
0.6097 0.5258 0.3940
0.6247 0.5391 0.4043
0.6396 0.5523 0.4147
0.6545 0.5656 0.4250
0.6694 0.5789 0.4353
0.6844 0.5921 0.4456
0.6993 0.6054 0.4560
0.7142 0.6186 0.4663
0.5256 0.4511 0.3358
0.5405 0.4644 0.3462
0.5555 0.4776 0.3565
0.5704 0.4909 0.3668
0.5853 0.5042 0.3771
0.6002 0.5174 0.3875
0.6152 0.5307 0.3978
0.6301 0.5439 0.4081
0.6450 0.5572 0.4184
0.6600 0.5704 0.4288
0.6749 0.5837 0.4391
0.6898 0.5969 0.4494
0.7047 0.6102 0.4597
0.7197 0.6234 0.4700
0.7346 0.6367 0.4804
0.7495 0.6499 0.4907
0.7645 0.6632 0.5010
0.5758 0.4957 0.3706
0.5907 0.5090 0.3809
0.6057 0.5222 0.3912
0.6206 0.5355 0.4015
0.6355 0.5487 0.4119
0.6505 0.5620 0.4222
0.6654 0.5752 0.4325
0.6803 0.5885 0.4428
0.6952 0.6018 0.4532
0.7102 0.6150 0.4635
0.7251 0.6283 0.4738
0.7400 0.6415 0.4841
0.7550 0.6548 0.4945
0.7699 0.6680 0.5048
0.7848 0.6813 0.5151
0.7997 0.6945 0.5254
0.8147 0.7078 0.5358
0.6260 0.5403 0.4053
0.6410 0.5536 0.4156
0.6559 0.5668 0.4259
0.6708 0.5801 0.4363
0.6857 0.5933 0.4466
0.7007 0.6066 0.4569
0.7156 0.6198 0.4672
0.7305 0.6331 0.4776
0.7455 0.6463 0.4879
0.7604 0.6596 0.4982
0.7753 0.6729 0.5085
0.7902 0.6861 0.5189
0.8052 0.6994 0.5292
0.8201 0.7126 0.5395
0.8350 0.7259 0.5498
0.8500 0.7391 0.5602
0.8649 0.7524 0.5705
0.6763 0.5849 0.4400
0.6912 0.5982 0.4504
0.7061 0.6114 0.4607
0.7210 0.6247 0.4710
0.7360 0.6379 0.4813
0.7509 0.6512 0.4916
0.7658 0.6644 0.5020
0.7808 0.6777 0.5123
0.7957 0.6909 0.5226
0.8106 0.7042 0.5329
0.8255 0.7174 0.5433
0.8405 0.7307 0.5536
0.8554 0.7440 0.5639
0.8703 0.7572 0.5742
0.8853 0.7705 0.5846
0.9002 0.7837 0.5949
0.9151 0.7970 0.6052
0.7265 0.6295 0.4748
0.7414 0.6427 0.4851
0.7563 0.6560 0.4954
0.7713 0.6693 0.5057
0.7862 0.6825 0.5161
0.8011 0.6958 0.5264
0.8160 0.7090 0.5367
0.8310 0.7223 0.5470
0.8459 0.7355 0.5574
0.8608 0.7488 0.5677
0.8758 0.7620 0.5780
0.8907 0.7753 0.5883
0.9056 0.7885 0.5987
0.9205 0.8018 0.6090
0.9355 0.8150 0.6193
0.9504 0.8283 0.6296
0.9653 0.8416 0.6399
0.7767 0.6741 0.5095
0.7916 0.6873 0.5198
0.8066 0.7006 0.5301
0.8215 0.7138 0.5405
0.8364 0.7271 0.5508
0.8513 0.7403 0.5611
0.8663 0.7536 0.5714
0.8812 0.7669 0.5818
0.8961 0.7801 0.5921
0.9111 0.7934 0.6024
0.9260 0.8066 0.6127
0.9409 0.8199 0.6231
0.9558 0.8331 0.6334
0.9708 0.8464 0.6437
0.9857 0.8596 0.6540
1.0000 0.8729 0.6644
1.0000 0.8861 0.6747
0.8269 0.7187 0.5442
0.8418 0.7319 0.5545
0.8568 0.7452 0.5649
0.8717 0.7584 0.5752
0.8866 0.7717 0.5855
0.9016 0.7849 0.5958
0.9165 0.7982 0.6062
0.9314 0.8114 0.6165
0.9463 0.8247 0.6268
0.9613 0.8380 0.6371
0.9762 0.8512 0.6475
0.9911 0.8645 0.6578
1.0000 0.8777 0.6681
1.0000 0.8910 0.6784
1.0000 0.9042 0.6888
1.0000 0.9175 0.6991
1.0000 0.9307 0.7094
0.0285 0.0098 0.0000
0.0434 0.0230 0.0023
0.0583 0.0363 0.0127
0.0732 0.0495 0.0230
0.0882 0.0628 0.0333
0.1031 0.0760 0.0436
0.1180 0.0893 0.0540
0.1330 0.1025 0.0643
0.1479 0.1158 0.0746
0.1628 0.1290 0.0849
0.1777 0.1423 0.0953
0.1927 0.1556 0.1056
0.2076 0.1688 0.1159
0.2225 0.1821 0.1262
0.2375 0.1953 0.1366
0.2524 0.2086 0.1469
0.2673 0.2218 0.1572
0.0787 0.0543 0.0268
0.0936 0.0676 0.0371
0.1085 0.0809 0.0474
0.1235 0.0941 0.0577
0.1384 0.1074 0.0680
0.1533 0.1206 0.0784
0.1683 0.1339 0.0887
0.1832 0.1471 0.0990
0.1981 0.1604 0.1093
0.2130 0.1736 0.1197
0.2280 0.1869 0.1300
0.2429 0.2001 0.1403
0.2578 0.2134 0.1506
0.2728 0.2266 0.1610
0.2877 0.2399 0.1713
0.3026 0.2532 0.1816
