public/luts/sunset.cube
# edite look: Sunset (CC0)
TITLE "Sunset"
LUT_3D_SIZE 17
DOMAIN_MIN 0.0 0.0 0.0
DOMAIN_MAX 1.0 1.0 1.0
0.0254 0.0000 0.0000
0.1039 0.0000 0.0000
0.1824 0.0000 0.0000
0.2609 0.0000 0.0000
0.3394 0.0000 0.0000
0.4179 0.0000 0.0000
0.4963 0.0000 0.0000
0.5748 0.0000 0.0000
0.6533 0.0000 0.0000
0.7318 0.0000 0.0000
0.8103 0.0000 0.0000
0.8888 0.0000 0.0000
0.9673 0.0000 0.0000
1.0000 0.0000 0.0000
1.0000 0.0000 0.0000
1.0000 0.0000 0.0000
1.0000 0.0000 0.0000
0.0186 0.0559 0.0000
0.0971 0.0537 0.0000
0.1755 0.0515 0.0000
0.2540 0.0492 0.0000
0.3325 0.0470 0.0000
0.4110 0.0447 0.0000
0.4895 0.0425 0.0000
0.5680 0.0403 0.0000
0.6465 0.0380 0.0000
0.7250 0.0358 0.0000
0.8035 0.0336 0.0000
0.8820 0.0313 0.0000
0.9605 0.0291 0.0000
1.0000 0.0268 0.0000
1.0000 0.0246 0.0000
1.0000 0.0224 0.0000
1.0000 0.0201 0.0000
0.0117 0.1224 0.0000
0.0902 0.1201 0.0000
0.1687 0.1179 0.0000
0.2472 0.1156 0.0000
0.3257 0.1134 0.0000
0.4042 0.1112 0.0000
0.4827 0.1089 0.0000
0.5612 0.1067 0.0000
0.6397 0.1045 0.0000
0.7182 0.1022 0.0000
0.7966 0.1000 0.0000
0.8751 0.0977 0.0000
0.9536 0.0955 0.0000
1.0000 0.0933 0.0000
1.0000 0.0910 0.0000
1.0000 0.0888 0.0000
1.0000 0.0865 0.0000
0.0049 0.1888 0.0000
0.0834 0.1865 0.0000
0.1619 0.1843 0.0000
0.2404 0.1821 0.0000
0.3189 0.1798 0.0000
0.3974 0.1776 0.0000
0.4758 0.1753 0.0000
0.5543 0.1731 0.0000
0.6328 0.1709 0.0000
0.7113 0.1686 0.0000
0.7898 0.1664 0.0000
0.8683 0.1642 0.0000
0.9468 0.1619 0.0000
1.0000 0.1597 0.0000
1.0000 0.1574 0.0000
1.0000 0.1552 0.0000
1.0000 0.1530 0.0000
0.0000 0.2552 0.0000
0.0766 0.2530 0.0000
0.1550 0.2507 0.0000
0.2335 0.2485 0.0000
0.3120 0.2462 0.0000
0.3905 0.2440 0.0000
0.4690 0.2418 0.0000
0.5475 0.2395 0.0000
0.6260 0.2373 0.0000
0.7045 0.2351 0.0000
0.7830 0.2328 0.0000
0.8615 0.2306 0.0000
0.9400 0.2283 0.0000
1.0000 0.2261 0.0000
1.0000 0.2239 0.0000
1.0000 0.2216 0.0000
1.0000 0.2194 0.0000
0.0000 0.3216 0.0000
0.0697 0.3194 0.0000
0.1482 0.3171 0.0000
0.2267 0.3149 0.0000
0.3052 0.3127 0.0000
0.3837 0.3104 0.0000
0.4622 0.3082 0.0000
0.5407 0.3060 0.0000
0.6192 0.3037 0.0000
0.6977 0.3015 0.0000
0.7761 0.2992 0.0000
0.8546 0.2970 0.0000
0.9331 0.2948 0.0000
1.0000 0.2925 0.0000
1.0000 0.2903 0.0000
1.0000 0.2880 0.0000
1.0000 0.2858 0.0000
0.0000 0.3880 0.0000
0.0629 0.3858 0.0000
0.1414 0.3836 0.0000
0.2199 0.3813 0.0000
0.2984 0.3791 0.0000
0.3769 0.3769 0.0000
0.4553 0.3746 0.0000
0.5338 0.3724 0.0000
0.6123 0.3701 0.0000
0.6908 0.3679 0.0000
0.7693 0.3657 0.0000
0.8478 0.3634 0.0000
0.9263 0.3612 0.0000
1.0000 0.3589 0.0000
1.0000 0.3567 0.0000
1.0000 0.3545 0.0000
1.0000 0.3522 0.0000
0.0000 0.4545 0.0000
0.0561 0.4522 0.0000
0.1345 0.4500 0.0000
0.2130 0.4478 0.0000
0.2915 0.4455 0.0000
0.3700 0.4433 0.0000
0.4485 0.4410 0.0000
0.5270 0.4388 0.0000
0.6055 0.4366 0.0000
0.6840 0.4343 0.0000
0.7625 0.4321 0.0000
0.8410 0.4298 0.0000
0.9195 0.4276 0.0000
0.9979 0.4254 0.0000
1.0000 0.4231 0.0000
1.0000 0.4209 0.0000
1.0000 0.4186 0.0000
0.0000 0.5209 0.0000
0.0492 0.5186 0.0000
0.1277 0.5164 0.0000
0.2062 0.5142 0.0000
0.2847 0.5119 0.0000
0.3632 0.5097 0.0000
0.4417 0.5075 0.0000
0.5202 0.5052 0.0000
0.5987 0.5030 0.0000
0.6771 0.5007 0.0000
0.7556 0.4985 0.0000
0.8341 0.4963 0.0000
0.9126 0.4940 0.0000
0.9911 0.4918 0.0000
1.0000 0.4895 0.0000
1.0000 0.4873 0.0000
1.0000 0.4851 0.0000
0.0000 0.5873 0.0000
0.0424 0.5851 0.0000
0.1209 0.5828 0.0000
0.1994 0.5806 0.0000
0.2779 0.5784 0.0000
0.3564 0.5761 0.0000
0.4348 0.5739 0.0000
0.5133 0.5716 0.0000
0.5918 0.5694 0.0000
0.6703 0.5672 0.0000
0.7488 0.5649 0.0000
0.8273 0.5627 0.0000
0.9058 0.5604 0.0000
0.9843 0.5582 0.0000
1.0000 0.5560 0.0000
1.0000 0.5537 0.0000
1.0000 0.5515 0.0000
0.0000 0.6537 0.0000
0.0356 0.6515 0.0000
0.1140 0.6493 0.0000
0.1925 0.6470 0.0000
0.2710 0.6448 0.0000
0.3495 0.6425 0.0000
0.4280 0.6403 0.0000
0.5065 0.6381 0.0000
0.5850 0.6358 0.0000
0.6635 0.6336 0.0000
0.7420 0.6313 0.0000
0.8205 0.6291 0.0000
0.8990 0.6269 0.0000
0.9774 0.6246 0.0000
1.0000 0.6224 0.0000
1.0000 0.6202 0.0000
1.0000 0.6179 0.0000
0.0000 0.7202 0.0000
0.0287 0.7179 0.0000
0.1072 0.7157 0.0000
0.1857 0.7134 0.0000
0.2642 0.7112 0.0000
0.3427 0.7090 0.0000
0.4212 0.7067 0.0000
0.4997 0.7045 0.0000
0.5782 0.7022 0.0000
0.6566 0.7000 0.0000
0.7351 0.6978 0.0000
0.8136 0.6955 0.0000
0.8921 0.6933 0.0000
0.9706 0.6910 0.0000
1.0000 0.6888 0.0000
1.0000 0.6866 0.0000
1.0000 0.6843 0.0000
0.0000 0.7866 0.0000
0.0219 0.7843 0.0000
0.1004 0.7821 0.0000
0.1789 0.7799 0.0000
0.2574 0.7776 0.0000
0.3358 0.7754 0.0000
0.4143 0.7731 0.0000
0.4928 0.7709 0.0000
0.5713 0.7687 0.0000
0.6498 0.7664 0.0000
0.7283 0.7642 0.0000
0.8068 0.7619 0.0000
0.8853 0.7597 0.0000
0.9638 0.7575 0.0000
1.0000 0.7552 0.0000
1.0000 0.7530 0.0000
1.0000 0.7508 0.0000
0.0000 0.8530 0.0000
0.0151 0.8508 0.0000
0.0935 0.8485 0.0000
0.1720 0.8463 0.0000
0.2505 0.8440 0.0000
0.3290 0.8418 0.0000
0.4075 0.8396 0.0000
0.4860 0.8373 0.0000
0.5645 0.8351 0.0000
0.6430 0.8328 0.0000
0.7215 0.8306 0.0000
0.8000 0.8284 0.0000
0.8785 0.8261 0.0000
0.9569 0.8239 0.0000
1.0000 0.8217 0.0000
1.0000 0.8194 0.0000
1.0000 0.8172 0.0000
0.0000 0.9194 0.0000
0.0082 0.9172 0.0000
0.0867 0.9149 0.0000
0.1652 0.9127 0.0000
0.2437 0.9105 0.0000
0.3222 0.9082 0.0000
0.4007 0.9060 0.0000
0.4792 0.9037 0.0000
0.5577 0.9015 0.0000
0.6361 0.8993 0.0000
0.7146 0.8970 0.0000
0.7931 0.8948 0.0000
0.8716 0.8926 0.0000
0.9501 0.8903 0.0000
1.0000 0.8881 0.0000
1.0000 0.8858 0.0000
1.0000 0.8836 0.0000
0.0000 0.9858 0.0000
0.0014 0.9836 0.0000
0.0799 0.9814 0.0000
0.1584 0.9791 0.0000
0.2369 0.9769 0.0000
0.3153 0.9746 0.0000
0.3938 0.9724 0.0000
0.4723 0.9702 0.0000
0.5508 0.9679 0.0000
0.6293 0.9657 0.0000
0.7078 0.9634 0.0000
0.7863 0.9612 0.0000
0.8648 0.9590 0.0000
0.9433 0.9567 0.0000
1.0000 0.9545 0.0000
1.0000 0.9523 0.0000
1.0000 0.9500 0.0000
0.0000 1.0000 0.0000
0.0000 1.0000 0.0000
0.0730 1.0000 0.0000
0.1515 1.0000 0.0000
0.2300 1.0000 0.0000
0.3085 1.0000 0.0000
0.3870 1.0000 0.0000
0.4655 1.0000 0.0000
0.5440 1.0000 0.0000
0.6225 1.0000 0.0000
0.7010 1.0000 0.0000
0.7795 1.0000 0.0000
0.8580 1.0000 0.0000
0.9364 1.0000 0.0000
1.0000 1.0000 0.0000
1.0000 1.0000 0.0000
1.0000 1.0000 0.0000
0.0247 0.0000 0.0486
0.1032 0.0000 0.0464
0.1817 0.0000 0.0442
0.2602 0.0000 0.0419
0.3387 0.0000 0.0397
0.4172 0.0000 0.0374
0.4957 0.0000 0.0352
0.5742 0.0000 0.0330
0.6527 0.0000 0.0307
0.7311 0.0000 0.0285
0.8096 0.0000 0.0263
0.8881 0.0000 0.0240
0.9666 0.0000 0.0218
1.0000 0.0000 0.0195
1.0000 0.0000 0.0173
1.0000 0.0000 0.0151
1.0000 0.0000 0.0128
0.0179 0.0553 0.0418
0.0964 0.0530 0.0396
0.1749 0.0508 0.0373
0.2534 0.0485 0.0351
0.3319 0.0463 0.0329
0.4103 0.0441 0.0306
0.4888 0.0418 0.0284
0.5673 0.0396 0.0261
0.6458 0.0374 0.0239
0.7243 0.0351 0.0217
0.8028 0.0329 0.0194
0.8813 0.0306 0.0172
0.9598 0.0284 0.0149
1.0000 0.0262 0.0127
1.0000 0.0239 0.0105
1.0000 0.0217 0.0082
1.0000 0.0194 0.0060
0.0111 0.1217 0.0350
0.0895 0.1194 0.0327
0.1680 0.1172 0.0305
0.2465 0.1150 0.0283
0.3250 0.1127 0.0260
0.4035 0.1105 0.0238
0.4820 0.1083 0.0215
0.5605 0.1060 0.0193
0.6390 0.1038 0.0171
0.7175 0.1015 0.0148
0.7960 0.0993 0.0126
0.8745 0.0971 0.0103
0.9530 0.0948 0.0081
1.0000 0.0926 0.0059
1.0000 0.0903 0.0036
1.0000 0.0881 0.0014
1.0000 0.0859 0.0000
0.0042 0.1881 0.0281
0.0827 0.1859 0.0259
0.1612 0.1836 0.0237
0.2397 0.1814 0.0214
0.3182 0.1792 0.0192
0.3967 0.1769 0.0169
0.4752 0.1747 0.0147
0.5537 0.1724 0.0125
0.6322 0.1702 0.0102
0.7106 0.1680 0.0080
0.7891 0.1657 0.0058
0.8676 0.1635 0.0035
0.9461 0.1612 0.0013
1.0000 0.1590 0.0000
1.0000 0.1568 0.0000
1.0000 0.1545 0.0000
1.0000 0.1523 0.0000
0.0000 0.2545 0.0213
0.0759 0.2523 0.0191
0.1544 0.2500 0.0168
0.2329 0.2478 0.0146
0.3114 0.2456 0.0124
0.3898 0.2433 0.0101
0.4683 0.2411 0.0079
0.5468 0.2389 0.0056
0.6253 0.2366 0.0034
0.7038 0.2344 0.0012
0.7823 0.2321 0.0000
0.8608 0.2299 0.0000
0.9393 0.2277 0.0000
1.0000 0.2254 0.0000
1.0000 0.2232 0.0000
1.0000 0.2209 0.0000
1.0000 0.2187 0.0000
0.0000 0.3209 0.0145
0.0690 0.3187 0.0122
0.1475 0.3165 0.0100
0.2260 0.3142 0.0078
0.3045 0.3120 0.0055
0.3830 0.3098 0.0033
0.4615 0.3075 0.0010
0.5400 0.3053 0.0000
0.6185 0.3030 0.0000
0.6970 0.3008 0.0000
0.7755 0.2986 0.0000
0.8540 0.2963 0.0000
0.9324 0.2941 0.0000
1.0000 0.2918 0.0000
1.0000 0.2896 0.0000
1.0000 0.2874 0.0000
1.0000 0.2851 0.0000
0.0000 0.3874 0.0076
0.0622 0.3851 0.0054
0.1407 0.3829 0.0032
0.2192 0.3807 0.0009
0.2977 0.3784 0.0000
0.3762 0.3762 0.0000
0.4547 0.3739 0.0000
0.5332 0.3717 0.0000
0.6117 0.3695 0.0000
0.6901 0.3672 0.0000
0.7686 0.3650 0.0000
0.8471 0.3627 0.0000
0.9256 0.3605 0.0000
1.0000 0.3583 0.0000
1.0000 0.3560 0.0000
1.0000 0.3538 0.0000
1.0000 0.3516 0.0000
0.0000 0.4538 0.0008
0.0554 0.4516 0.0000
0.1339 0.4493 0.0000
0.2124 0.4471 0.0000
0.2909 0.4448 0.0000
0.3693 0.4426 0.0000
0.4478 0.4404 0.0000
0.5263 0.4381 0.0000
0.6048 0.4359 0.0000
0.6833 0.4336 0.0000
0.7618 0.4314 0.0000
0.8403 0.4292 0.0000
0.9188 0.4269 0.0000
0.9973 0.4247 0.0000
1.0000 0.4224 0.0000
1.0000 0.4202 0.0000
1.0000 0.4180 0.0000
0.0000 0.5202 0.0000
0.0485 0.5180 0.0000
0.1270 0.5157 0.0000
0.2055 0.5135 0.0000
0.2840 0.5113 0.0000
0.3625 0.5090 0.0000
0.4410 0.5068 0.0000
0.5195 0.5045 0.0000
0.5980 0.5023 0.0000
0.6765 0.5001 0.0000
0.7550 0.4978 0.0000
0.8335 0.4956 0.0000
0.9119 0.4933 0.0000
0.9904 0.4911 0.0000
1.0000 0.4889 0.0000
1.0000 0.4866 0.0000
1.0000 0.4844 0.0000
0.0000 0.5866 0.0000
0.0417 0.5844 0.0000
0.1202 0.5822 0.0000
0.1987 0.5799 0.0000
0.2772 0.5777 0.0000
0.3557 0.5754 0.0000
0.4342 0.5732 0.0000
0.5127 0.5710 0.0000
0.5911 0.5687 0.0000
0.6696 0.5665 0.0000
0.7481 0.5642 0.0000
0.8266 0.5620 0.0000
0.9051 0.5598 0.0000
0.9836 0.5575 0.0000
1.0000 0.5553 0.0000
1.0000 0.5531 0.0000
1.0000 0.5508 0.0000
0.0000 0.6531 0.0000
0.0349 0.6508 0.0000
0.1134 0.6486 0.0000
0.1919 0.6463 0.0000
0.2703 0.6441 0.0000
0.3488 0.6419 0.0000
0.4273 0.6396 0.0000
0.5058 0.6374 0.0000
0.5843 0.6351 0.0000
0.6628 0.6329 0.0000
0.7413 0.6307 0.0000
0.8198 0.6284 0.0000
0.8983 0.6262 0.0000
0.9768 0.6240 0.0000
1.0000 0.6217 0.0000
1.0000 0.6195 0.0000
1.0000 0.6172 0.0000
0.0000 0.7195 0.0000
0.0280 0.7172 0.0000
0.1065 0.7150 0.0000
0.1850 0.7128 0.0000
0.2635 0.7105 0.0000
0.3420 0.7083 0.0000
0.4205 0.7060 0.0000
0.4990 0.7038 0.0000
0.5775 0.7016 0.0000
0.6560 0.6993 0.0000
0.7345 0.6971 0.0000
0.8130 0.6949 0.0000
0.8914 0.6926 0.0000
0.9699 0.6904 0.0000
1.0000 0.6881 0.0000
1.0000 0.6859 0.0000
1.0000 0.6837 0.0000
0.0000 0.7859 0.0000
0.0212 0.7837 0.0000
0.0997 0.7814 0.0000
0.1782 0.7792 0.0000
0.2567 0.7769 0.0000
0.3352 0.7747 0.0000
0.4137 0.7725 0.0000
0.4922 0.7702 0.0000
0.5706 0.7680 0.0000
0.6491 0.7657 0.0000
0.7276 0.7635 0.0000
0.8061 0.7613 0.0000
0.8846 0.7590 0.0000
0.9631 0.7568 0.0000
1.0000 0.7546 0.0000
1.0000 0.7523 0.0000
1.0000 0.7501 0.0000
0.0000 0.8523 0.0000
0.0144 0.8501 0.0000
0.0929 0.8478 0.0000
0.1714 0.8456 0.0000
0.2498 0.8434 0.0000
0.3283 0.8411 0.0000
0.4068 0.8389 0.0000
0.4853 0.8366 0.0000
0.5638 0.8344 0.0000
0.6423 0.8322 0.0000
0.7208 0.8299 0.0000
0.7993 0.8277 0.0000
0.8778 0.8255 0.0000
0.9563 0.8232 0.0000
1.0000 0.8210 0.0000
1.0000 0.8187 0.0000
1.0000 0.8165 0.0000
0.0000 0.9187 0.0000
0.0075 0.9165 0.0000
0.0860 0.9143 0.0000
0.1645 0.9120 0.0000
0.2430 0.9098 0.0000
0.3215 0.9075 0.0000
0.4000 0.9053 0.0000
0.4785 0.9031 0.0000
0.5570 0.9008 0.0000
0.6355 0.8986 0.0000
0.7140 0.8964 0.0000
0.7925 0.8941 0.0000
0.8709 0.8919 0.0000
0.9494 0.8896 0.0000
1.0000 0.8874 0.0000
1.0000 0.8852 0.0000
1.0000 0.8829 0.0000
0.0000 0.9852 0.0000
0.0007 0.9829 0.0000
0.0792 0.9807 0.0000
0.1577 0.9784 0.0000
0.2362 0.9762 0.0000
0.3147 0.9740 0.0000
0.3932 0.9717 0.0000
0.4717 0.9695 0.0000
0.5501 0.9673 0.0000
0.6286 0.9650 0.0000
0.7071 0.9628 0.0000
0.7856 0.9605 0.0000
0.8641 0.9583 0.0000
0.9426 0.9561 0.0000
1.0000 0.9538 0.0000
1.0000 0.9516 0.0000
1.0000 0.9493 0.0000
0.0000 1.0000 0.0000
0.0000 1.0000 0.0000
0.0724 1.0000 0.0000
0.1509 1.0000 0.0000
0.2293 1.0000 0.0000
0.3078 1.0000 0.0000
0.3863 1.0000 0.0000
0.4648 1.0000 0.0000
0.5433 1.0000 0.0000
0.6218 1.0000 0.0000
0.7003 1.0000 0.0000
0.7788 1.0000 0.0000
0.8573 1.0000 0.0000
0.9358 1.0000 0.0000
1.0000 1.0000 0.0000
1.0000 1.0000 0.0000
1.0000 1.0000 0.0000
0.0240 0.0000 0.1197
0.1025 0.0000 0.1175
0.1810 0.0000 0.1152
0.2595 0.0000 0.1130
0.3380 0.0000 0.1108
0.4165 0.0000 0.1085
0.4950 0.0000 0.1063
0.5735 0.0000 0.1041
0.6520 0.0000 0.1018
0.7305 0.0000 0.0996
0.8090 0.0000 0.0973
0.8875 0.0000 0.0951
0.9659 0.0000 0.0929
1.0000 0.0000 0.0906
1.0000 0.0000 0.0884
1.0000 0.0000 0.0861
1.0000 0.0000 0.0839
0.0172 0.0546 0.1129
0.0957 0.0523 0.1107
0.1742 0.0501 0.1084
0.2527 0.0479 0.1062
0.3312 0.0456 0.1039
0.4097 0.0434 0.1017
0.4882 0.0412 0.0995
0.5667 0.0389 0.0972
0.6451 0.0367 0.0950
0.7236 0.0344 0.0927
0.8021 0.0322 0.0905
0.8806 0.0300 0.0883
0.9591 0.0277 0.0860
1.0000 0.0255 0.0838
1.0000 0.0232 0.0816
1.0000 0.0210 0.0793
1.0000 0.0188 0.0771
0.0104 0.1210 0.1061
0.0889 0.1188 0.1038
0.1674 0.1165 0.1016
0.2459 0.1143 0.0993
0.3243 0.1121 0.0971
0.4028 0.1098 0.0949
0.4813 0.1076 0.0926
0.5598 0.1053 0.0904
0.6383 0.1031 0.0881
0.7168 0.1009 0.0859
0.7953 0.0986 0.0837
0.8738 0.0964 0.0814
0.9523 0.0941 0.0792
1.0000 0.0919 0.0770
1.0000 0.0897 0.0747
1.0000 0.0874 0.0725
1.0000 0.0852 0.0702
0.0035 0.1874 0.0992
0.0820 0.1852 0.0970
0.1605 0.1830 0.0947
0.2390 0.1807 0.0925
0.3175 0.1785 0.0903
0.3960 0.1762 0.0880
0.4745 0.1740 0.0858
0.5530 0.1718 0.0836
0.6315 0.1695 0.0813
0.7100 0.1673 0.0791
0.7885 0.1650 0.0768
0.8669 0.1628 0.0746
0.9454 0.1606 0.0724
1.0000 0.1583 0.0701
1.0000 0.1561 0.0679
1.0000 0.1538 0.0656
1.0000 0.1516 0.0634
0.0000 0.2539 0.0924
0.0752 0.2516 0.0902
0.1537 0.2494 0.0879
0.2322 0.2471 0.0857
0.3107 0.2449 0.0834
0.3892 0.2427 0.0812
0.4677 0.2404 0.0790
0.5462 0.2382 0.0767
0.6246 0.2359 0.0745
0.7031 0.2337 0.0722
0.7816 0.2315 0.0700
0.8601 0.2292 0.0678
0.9386 0.2270 0.0655
1.0000 0.2247 0.0633
1.0000 0.2225 0.0610
1.0000 0.2203 0.0588
1.0000 0.2180 0.0566
0.0000 0.3203 0.0856
0.0684 0.3180 0.0833
0.1469 0.3158 0.0811
0.2254 0.3136 0.0788
0.3038 0.3113 0.0766
0.3823 0.3091 0.0744
0.4608 0.3068 0.0721
0.5393 0.3046 0.0699
0.6178 0.3024 0.0676
0.6963 0.3001 0.0654
0.7748 0.2979 0.0632
0.8533 0.2956 0.0609
0.9318 0.2934 0.0587
1.0000 0.2912 0.0565
1.0000 0.2889 0.0542
1.0000 0.2867 0.0520
1.0000 0.2845 0.0497
0.0000 0.3867 0.0787
0.0615 0.3845 0.0765
0.1400 0.3822 0.0742
0.2185 0.3800 0.0720
0.2970 0.3777 0.0698
0.3755 0.3755 0.0675
0.4540 0.3733 0.0653
0.5325 0.3710 0.0631
0.6110 0.3688 0.0608
0.6895 0.3665 0.0586
0.7680 0.3643 0.0563
0.8464 0.3621 0.0541
0.9249 0.3598 0.0519
1.0000 0.3576 0.0496
1.0000 0.3554 0.0474
1.0000 0.3531 0.0451
1.0000 0.3509 0.0429
0.0000 0.4531 0.0719
0.0547 0.4509 0.0697
0.1332 0.4486 0.0674
0.2117 0.4464 0.0652
0.2902 0.4442 0.0629
0.3687 0.4419 0.0607
0.4472 0.4397 0.0585
0.5256 0.4374 0.0562
0.6041 0.4352 0.0540
0.6826 0.4330 0.0517
0.7611 0.4307 0.0495
0.8396 0.4285 0.0473
0.9181 0.4263 0.0450
0.9966 0.4240 0.0428
1.0000 0.4218 0.0405
1.0000 0.4195 0.0383
1.0000 0.4173 0.0361
0.0000 0.5195 0.0651
0.0479 0.5173 0.0628
0.1264 0.5151 0.0606
0.2049 0.5128 0.0583
0.2833 0.5106 0.0561
0.3618 0.5083 0.0539
0.4403 0.5061 0.0516
0.5188 0.5039 0.0494
0.5973 0.5016 0.0471
0.6758 0.4994 0.0449
0.7543 0.4971 0.0427
0.8328 0.4949 0.0404
0.9113 0.4927 0.0382
0.9898 0.4904 0.0360
1.0000 0.4882 0.0337
1.0000 0.4860 0.0315
1.0000 0.4837 0.0292
0.0000 0.5860 0.0582
0.0410 0.5837 0.0560
0.1195 0.5815 0.0537
0.1980 0.5792 0.0515
0.2765 0.5770 0.0493
0.3550 0.5748 0.0470
0.4335 0.5725 0.0448
0.5120 0.5703 0.0426
0.5905 0.5680 0.0403
0.6690 0.5658 0.0381
0.7475 0.5636 0.0358
0.8259 0.5613 0.0336
0.9044 0.5591 0.0314
0.9829 0.5569 0.0291
1.0000 0.5546 0.0269
1.0000 0.5524 0.0246
1.0000 0.5501 0.0224
0.0000 0.6524 0.0514
0.0342 0.6501 0.0492
0.1127 0.6479 0.0469
0.1912 0.6457 0.0447
0.2697 0.6434 0.0424
0.3482 0.6412 0.0402
0.4267 0.6389 0.0380
0.5051 0.6367 0.0357
0.5836 0.6345 0.0335
0.6621 0.6322 0.0312
0.7406 0.6300 0.0290
0.8191 0.6278 0.0268
0.8976 0.6255 0.0245
0.9761 0.6233 0.0223
1.0000 0.6210 0.0200
1.0000 0.6188 0.0178
1.0000 0.6166 0.0156
0.0000 0.7188 0.0446
0.0274 0.7166 0.0423
0.1059 0.7143 0.0401
0.1843 0.7121 0.0378
0.2628 0.7098 0.0356
0.3413 0.7076 0.0334
0.4198 0.7054 0.0311
0.4983 0.7031 0.0289
0.5768 0.7009 0.0266
0.6553 0.6987 0.0244
0.7338 0.6964 0.0222
0.8123 0.6942 0.0199
0.8908 0.6919 0.0177
0.9693 0.6897 0.0155
1.0000 0.6875 0.0132
1.0000 0.6852 0.0110
1.0000 0.6830 0.0087
0.0000 0.7852 0.0377
0.0205 0.7830 0.0355
0.0990 0.7807 0.0332
0.1775 0.7785 0.0310
0.2560 0.7763 0.0288
0.3345 0.7740 0.0265
0.4130 0.7718 0.0243
0.4915 0.7696 0.0221
0.5700 0.7673 0.0198
0.6485 0.7651 0.0176
0.7270 0.7628 0.0153
0.8054 0.7606 0.0131
0.8839 0.7584 0.0109
0.9624 0.7561 0.0086
1.0000 0.7539 0.0064
1.0000 0.7516 0.0041
1.0000 0.7494 0.0019
0.0000 0.8516 0.0309
0.0137 0.8494 0.0286
0.0922 0.8472 0.0264
0.1707 0.8449 0.0242
0.2492 0.8427 0.0219
0.3277 0.8404 0.0197
0.4062 0.8382 0.0175
0.4846 0.8360 0.0152
0.5631 0.8337 0.0130
0.6416 0.8315 0.0107
0.7201 0.8293 0.0085
0.7986 0.8270 0.0063
0.8771 0.8248 0.0040
0.9556 0.8225 0.0018
1.0000 0.8203 0.0000
1.0000 0.8181 0.0000
1.0000 0.8158 0.0000
0.0000 0.9181 0.0241
0.0069 0.9158 0.0218
0.0854 0.9136 0.0196
0.1638 0.9113 0.0173
0.2423 0.9091 0.0151
0.3208 0.9069 0.0129
0.3993 0.9046 0.0106
0.4778 0.9024 0.0084
0.5563 0.9002 0.0061
0.6348 0.8979 0.0039
0.7133 0.8957 0.0017
0.7918 0.8934 0.0000
0.8703 0.8912 0.0000
0.9488 0.8890 0.0000
1.0000 0.8867 0.0000
1.0000 0.8845 0.0000
1.0000 0.8822 0.0000
0.0000 0.9845 0.0172
0.0000 0.9822 0.0150
0.0785 0.9800 0.0127
0.1570 0.9778 0.0105
0.2355 0.9755 0.0083
0.3140 0.9733 0.0060
0.3925 0.9711 0.0038
0.4710 0.9688 0.0015
0.5495 0.9666 0.0000
0.6280 0.9643 0.0000
0.7065 0.9621 0.0000
0.7849 0.9599 0.0000
0.8634 0.9576 0.0000
0.9419 0.9554 0.0000
1.0000 0.9531 0.0000
1.0000 0.9509 0.0000
1.0000 0.9487 0.0000
0.0000 1.0000 0.0104
0.0000 1.0000 0.0081
0.0717 1.0000 0.0059
0.1502 1.0000 0.0037
0.2287 1.0000 0.0014
0.3072 1.0000 0.0000
0.3857 1.0000 0.0000
0.4641 1.0000 0.0000
0.5426 1.0000 0.0000
0.6211 1.0000 0.0000
0.6996 1.0000 0.0000
0.7781 1.0000 0.0000
0.8566 1.0000 0.0000
0.9351 1.0000 0.0000
1.0000 1.0000 0.0000
1.0000 1.0000 0.0000
1.0000 1.0000 0.0000
0.0234 0.0000 0.1908
0.1019 0.0000 0.1886
0.1804 0.0000 0.1863
0.2588 0.0000 0.1841
0.3373 0.0000 0.1819
0.4158 0.0000 0.1796
0.4943 0.0000 0.1774
0.5728 0.0000 0.1751
0.6513 0.0000 0.1729
0.7298 0.0000 0.1707
0.8083 0.0000 0.1684
0.8868 0.0000 0.1662
0.9653 0.0000 0.1639
1.0000 0.0000 0.1617
1.0000 0.0000 0.1595
1.0000 0.0000 0.1572
1.0000 0.0000 0.1550
0.0165 0.0539 0.1840
0.0950 0.0517 0.1817
0.1735 0.0494 0.1795
0.2520 0.0472 0.1773
0.3305 0.0450 0.1750
0.4090 0.0427 0.1728
0.4875 0.0405 0.1705
0.5660 0.0382 0.1683
0.6445 0.0360 0.1661
0.7230 0.0338 0.1638
0.8014 0.0315 0.1616
0.8799 0.0293 0.1594
0.9584 0.0270 0.1571
1.0000 0.0248 0.1549
1.0000 0.0226 0.1526
1.0000 0.0203 0.1504
