public/luts/sunset.cube
# edite look: Sunset (CC0)
TITLE "Sunset"
LUT_3D_SIZE 9
DOMAIN_MIN 0.0 0.0 0.0
DOMAIN_MAX 1.0 1.0 1.0
0.0254 0.0000 0.0000
0.1824 0.0000 0.0000
0.3394 0.0000 0.0000
0.4963 0.0000 0.0000
0.6533 0.0000 0.0000
0.8103 0.0000 0.0000
0.9673 0.0000 0.0000
1.0000 0.0000 0.0000
1.0000 0.0000 0.0000
0.0117 0.1224 0.0000
0.1687 0.1179 0.0000
0.3257 0.1134 0.0000
0.4827 0.1089 0.0000
0.6397 0.1045 0.0000
0.7966 0.1000 0.0000
0.9536 0.0955 0.0000
1.0000 0.0910 0.0000
1.0000 0.0865 0.0000
0.0000 0.2552 0.0000
0.1550 0.2507 0.0000
0.3120 0.2462 0.0000
0.4690 0.2418 0.0000
0.6260 0.2373 0.0000
0.7830 0.2328 0.0000
0.9400 0.2283 0.0000
1.0000 0.2239 0.0000
1.0000 0.2194 0.0000
0.0000 0.3880 0.0000
0.1414 0.3836 0.0000
0.2984 0.3791 0.0000
0.4553 0.3746 0.0000
0.6123 0.3701 0.0000
0.7693 0.3657 0.0000
0.9263 0.3612 0.0000
1.0000 0.3567 0.0000
1.0000 0.3522 0.0000
0.0000 0.5209 0.0000
0.1277 0.5164 0.0000
0.2847 0.5119 0.0000
0.4417 0.5075 0.0000
0.5987 0.5030 0.0000
0.7556 0.4985 0.0000
0.9126 0.4940 0.0000
1.0000 0.4895 0.0000
1.0000 0.4851 0.0000
0.0000 0.6537 0.0000
0.1140 0.6493 0.0000
0.2710 0.6448 0.0000
0.4280 0.6403 0.0000
0.5850 0.6358 0.0000
0.7420 0.6313 0.0000
0.8990 0.6269 0.0000
1.0000 0.6224 0.0000
1.0000 0.6179 0.0000
0.0000 0.7866 0.0000
0.1004 0.7821 0.0000
0.2574 0.7776 0.0000
0.4143 0.7731 0.0000
0.5713 0.7687 0.0000
0.7283 0.7642 0.0000
0.8853 0.7597 0.0000
1.0000 0.7552 0.0000
1.0000 0.7508 0.0000
0.0000 0.9194 0.0000
0.0867 0.9149 0.0000
0.2437 0.9105 0.0000
0.4007 0.9060 0.0000
0.5577 0.9015 0.0000
0.7146 0.8970 0.0000
0.8716 0.8926 0.0000
1.0000 0.8881 0.0000
1.0000 0.8836 0.0000
0.0000 1.0000 0.0000
0.0730 1.0000 0.0000
0.2300 1.0000 0.0000
0.3870 1.0000 0.0000
0.5440 1.0000 0.0000
0.7010 1.0000 0.0000
0.8580 1.0000 0.0000
1.0000 1.0000 0.0000
1.0000 1.0000 0.0000
0.0240 0.0000 0.1197
0.1810 0.0000 0.1152
0.3380 0.0000 0.1108
0.4950 0.0000 0.1063
0.6520 0.0000 0.1018
0.8090 0.0000 0.0973
0.9659 0.0000 0.0929
1.0000 0.0000 0.0884
1.0000 0.0000 0.0839
0.0104 0.1210 0.1061
0.1674 0.1165 0.1016
0.3243 0.1121 0.0971
0.4813 0.1076 0.0926
0.6383 0.1031 0.0881
0.7953 0.0986 0.0837
0.9523 0.0941 0.0792
1.0000 0.0897 0.0747
1.0000 0.0852 0.0702
0.0000 0.2539 0.0924
0.1537 0.2494 0.0879
0.3107 0.2449 0.0834
0.4677 0.2404 0.0790
0.6246 0.2359 0.0745
0.7816 0.2315 0.0700
0.9386 0.2270 0.0655
1.0000 0.2225 0.0610
1.0000 0.2180 0.0566
0.0000 0.3867 0.0787
0.1400 0.3822 0.0742
0.2970 0.3777 0.0698
0.4540 0.3733 0.0653
0.6110 0.3688 0.0608
0.7680 0.3643 0.0563
0.9249 0.3598 0.0519
1.0000 0.3554 0.0474
1.0000 0.3509 0.0429
0.0000 0.5195 0.0651
0.1264 0.5151 0.0606
0.2833 0.5106 0.0561
0.4403 0.5061 0.0516
0.5973 0.5016 0.0471
0.7543 0.4971 0.0427
0.9113 0.4927 0.0382
1.0000 0.4882 0.0337
1.0000 0.4837 0.0292
0.0000 0.6524 0.0514
0.1127 0.6479 0.0469
0.2697 0.6434 0.0424
0.4267 0.6389 0.0380
0.5836 0.6345 0.0335
0.7406 0.6300 0.0290
0.8976 0.6255 0.0245
1.0000 0.6210 0.0200
1.0000 0.6166 0.0156
0.0000 0.7852 0.0377
0.0990 0.7807 0.0332
0.2560 0.7763 0.0288
0.4130 0.7718 0.0243
0.5700 0.7673 0.0198
0.7270 0.7628 0.0153
0.8839 0.7584 0.0109
1.0000 0.7539 0.0064
1.0000 0.7494 0.0019
0.0000 0.9181 0.0241
0.0854 0.9136 0.0196
0.2423 0.9091 0.0151
0.3993 0.9046 0.0106
0.5563 0.9002 0.0061
0.7133 0.8957 0.0017
0.8703 0.8912 0.0000
1.0000 0.8867 0.0000
1.0000 0.8822 0.0000
0.0000 1.0000 0.0104
0.0717 1.0000 0.0059
0.2287 1.0000 0.0014
0.3857 1.0000 0.0000
0.5426 1.0000 0.0000
0.6996 1.0000 0.0000
0.8566 1.0000 0.0000
1.0000 1.0000 0.0000
1.0000 1.0000 0.0000
0.0227 0.0000 0.2619
0.1797 0.0000 0.2574
0.3367 0.0000 0.2529
0.4936 0.0000 0.2485
0.6506 0.0000 0.2440
0.8076 0.0000 0.2395
0.9646 0.0000 0.2350
1.0000 0.0000 0.2306
1.0000 0.0000 0.2261
0.0090 0.1197 0.2482
0.1660 0.1152 0.2437
0.3230 0.1107 0.2393
0.4800 0.1062 0.2348
0.6370 0.1017 0.2303
0.7939 0.0973 0.2258
0.9509 0.0928 0.2214
1.0000 0.0883 0.2169
1.0000 0.0838 0.2124
0.0000 0.2525 0.2346
0.1523 0.2480 0.2301
0.3093 0.2435 0.2256
0.4663 0.2391 0.2211
0.6233 0.2346 0.2167
0.7803 0.2301 0.2122
0.9373 0.2256 0.2077
1.0000 0.2212 0.2032
1.0000 0.2167 0.1987
0.0000 0.3853 0.2209
0.1387 0.3809 0.2164
0.2957 0.3764 0.2119
0.4526 0.3719 0.2075
0.6096 0.3674 0.2030
0.7666 0.3630 0.1985
0.9236 0.3585 0.1940
1.0000 0.3540 0.1896
1.0000 0.3495 0.1851
0.0000 0.5182 0.2072
0.1250 0.5137 0.2027
0.2820 0.5092 0.1983
0.4390 0.5048 0.1938
0.5960 0.5003 0.1893
0.7529 0.4958 0.1848
0.9099 0.4913 0.1804
1.0000 0.4868 0.1759
1.0000 0.4824 0.1714
0.0000 0.6510 0.1936
0.1113 0.6465 0.1891
0.2683 0.6421 0.1846
0.4253 0.6376 0.1801
0.5823 0.6331 0.1756
0.7393 0.6286 0.1712
0.8963 0.6242 0.1667
1.0000 0.6197 0.1622
1.0000 0.6152 0.1577
0.0000 0.7839 0.1799
0.0977 0.7794 0.1754
0.2547 0.7749 0.1709
0.4116 0.7704 0.1665
0.5686 0.7660 0.1620
0.7256 0.7615 0.1575
0.8826 0.7570 0.1530
1.0000 0.7525 0.1485
1.0000 0.7481 0.1441
0.0000 0.9167 0.1662
0.0840 0.9122 0.1617
0.2410 0.9078 0.1573
0.3980 0.9033 0.1528
0.5550 0.8988 0.1483
0.7119 0.8943 0.1438
0.8689 0.8898 0.1394
1.0000 0.8854 0.1349
1.0000 0.8809 0.1304
0.0000 1.0000 0.1526
0.0703 1.0000 0.1481
0.2273 1.0000 0.1436
0.3843 1.0000 0.1391
0.5413 1.0000 0.1346
0.6983 1.0000 0.1302
0.8553 1.0000 0.1257
1.0000 1.0000 0.1212
1.0000 1.0000 0.1167
0.0213 0.0000 0.4041
0.1783 0.0000 0.3996
0.3353 0.0000 0.3951
0.4923 0.0000 0.3906
0.6493 0.0000 0.3862
0.8063 0.0000 0.3817
0.9632 0.0000 0.3772
1.0000 0.0000 0.3727
1.0000 0.0000 0.3682
0.0077 0.1183 0.3904
0.1647 0.1138 0.3859
0.3216 0.1094 0.3814
0.4786 0.1049 0.3770
0.6356 0.1004 0.3725
0.7926 0.0959 0.3680
0.9496 0.0914 0.3635
1.0000 0.0870 0.3591
1.0000 0.0825 0.3546
0.0000 0.2511 0.3767
0.1510 0.2467 0.3723
0.3080 0.2422 0.3678
0.4650 0.2377 0.3633
0.6219 0.2332 0.3588
0.7789 0.2288 0.3543
0.9359 0.2243 0.3499
1.0000 0.2198 0.3454
1.0000 0.2153 0.3409
0.0000 0.3840 0.3631
0.1373 0.3795 0.3586
0.2943 0.3750 0.3541
0.4513 0.3706 0.3496
0.6083 0.3661 0.3452
0.7653 0.3616 0.3407
0.9222 0.3571 0.3362
1.0000 0.3526 0.3317
1.0000 0.3482 0.3272
0.0000 0.5168 0.3494
0.1237 0.5124 0.3449
0.2806 0.5079 0.3404
0.4376 0.5034 0.3360
0.5946 0.4989 0.3315
0.7516 0.4944 0.3270
0.9086 0.4900 0.3225
1.0000 0.4855 0.3181
1.0000 0.4810 0.3136
0.0000 0.6497 0.3357
0.1100 0.6452 0.3312
0.2670 0.6407 0.3268
0.4240 0.6362 0.3223
0.5809 0.6318 0.3178
0.7379 0.6273 0.3133
0.8949 0.6228 0.3089
1.0000 0.6183 0.3044
1.0000 0.6139 0.2999
0.0000 0.7825 0.3221
0.0963 0.7780 0.3176
0.2533 0.7736 0.3131
0.4103 0.7691 0.3086
0.5673 0.7646 0.3041
0.7243 0.7601 0.2997
0.8812 0.7557 0.2952
1.0000 0.7512 0.2907
1.0000 0.7467 0.2862
0.0000 0.9154 0.3084
0.0827 0.9109 0.3039
0.2396 0.9064 0.2994
0.3966 0.9019 0.2950
0.5536 0.8975 0.2905
0.7106 0.8930 0.2860
0.8676 0.8885 0.2815
1.0000 0.8840 0.2770
1.0000 0.8795 0.2726
0.0000 1.0000 0.2947
0.0690 1.0000 0.2902
0.2260 1.0000 0.2858
0.3830 1.0000 0.2813
0.5399 1.0000 0.2768
0.6969 1.0000 0.2723
0.8539 1.0000 0.2679
1.0000 1.0000 0.2634
1.0000 1.0000 0.2589
0.0200 0.0000 0.5462
0.1770 0.0000 0.5418
0.3340 0.0000 0.5373
0.4909 0.0000 0.5328
0.6479 0.0000 0.5283
0.8049 0.0000 0.5238
0.9619 0.0000 0.5194
1.0000 0.0000 0.5149
1.0000 0.0000 0.5104
0.0063 0.1170 0.5326
0.1633 0.1125 0.5281
0.3203 0.1080 0.5236
0.4773 0.1035 0.5191
0.6343 0.0990 0.5147
0.7912 0.0946 0.5102
0.9482 0.0901 0.5057
1.0000 0.0856 0.5012
1.0000 0.0811 0.4967
0.0000 0.2498 0.5189
0.1496 0.2453 0.5144
0.3066 0.2408 0.5099
0.4636 0.2364 0.5055
0.6206 0.2319 0.5010
0.7776 0.2274 0.4965
0.9346 0.2229 0.4920
1.0000 0.2185 0.4876
1.0000 0.2140 0.4831
0.0000 0.3826 0.5052
0.1360 0.3782 0.5008
0.2930 0.3737 0.4963
0.4499 0.3692 0.4918
0.6069 0.3647 0.4873
0.7639 0.3603 0.4828
0.9209 0.3558 0.4784
1.0000 0.3513 0.4739
1.0000 0.3468 0.4694
0.0000 0.5155 0.4916
0.1223 0.5110 0.4871
0.2793 0.5065 0.4826
0.4363 0.5020 0.4781
0.5933 0.4976 0.4737
0.7502 0.4931 0.4692
0.9072 0.4886 0.4647
1.0000 0.4841 0.4602
1.0000 0.4797 0.4557
0.0000 0.6483 0.4779
0.1086 0.6438 0.4734
0.2656 0.6394 0.4689
0.4226 0.6349 0.4645
0.5796 0.6304 0.4600
0.7366 0.6259 0.4555
0.8935 0.6215 0.4510
1.0000 0.6170 0.4466
1.0000 0.6125 0.4421
0.0000 0.7812 0.4642
0.0950 0.7767 0.4597
0.2520 0.7722 0.4553
0.4089 0.7677 0.4508
0.5659 0.7633 0.4463
0.7229 0.7588 0.4418
0.8799 0.7543 0.4374
1.0000 0.7498 0.4329
1.0000 0.7453 0.4284
0.0000 0.9140 0.4506
0.0813 0.9095 0.4461
0.2383 0.9051 0.4416
0.3953 0.9006 0.4371
0.5522 0.8961 0.4326
0.7092 0.8916 0.4282
0.8662 0.8871 0.4237
1.0000 0.8827 0.4192
1.0000 0.8782 0.4147
0.0000 1.0000 0.4369
0.0676 1.0000 0.4324
0.2246 1.0000 0.4279
0.3816 1.0000 0.4235
0.5386 1.0000 0.4190
0.6956 1.0000 0.4145
0.8525 1.0000 0.4100
1.0000 1.0000 0.4056
1.0000 1.0000 0.4011
0.0186 0.0000 0.6884
0.1756 0.0000 0.6839
0.3326 0.0000 0.6794
0.4896 0.0000 0.6750
0.6466 0.0000 0.6705
0.8036 0.0000 0.6660
0.9605 0.0000 0.6615
1.0000 0.0000 0.6571
1.0000 0.0000 0.6526
0.0050 0.1156 0.6747
0.1620 0.1111 0.6703
0.3189 0.1066 0.6658
0.4759 0.1022 0.6613
0.6329 0.0977 0.6568
0.7899 0.0932 0.6523
0.9469 0.0887 0.6479
1.0000 0.0843 0.6434
1.0000 0.0798 0.6389
0.0000 0.2484 0.6611
0.1483 0.2440 0.6566
0.3053 0.2395 0.6521
0.4623 0.2350 0.6476
0.6192 0.2305 0.6432
0.7762 0.2261 0.6387
0.9332 0.2216 0.6342
1.0000 0.2171 0.6297
1.0000 0.2126 0.6252
0.0000 0.3813 0.6474
0.1346 0.3768 0.6429
0.2916 0.3723 0.6384
0.4486 0.3679 0.6340
0.6056 0.3634 0.6295
0.7626 0.3589 0.6250
0.9195 0.3544 0.6205
1.0000 0.3499 0.6161
1.0000 0.3455 0.6116
0.0000 0.5141 0.6337
0.1210 0.5097 0.6293
0.2779 0.5052 0.6248
0.4349 0.5007 0.6203
0.5919 0.4962 0.6158
0.7489 0.4917 0.6113
0.9059 0.4873 0.6069
1.0000 0.4828 0.6024
1.0000 0.4783 0.5979
0.0000 0.6470 0.6201
0.1073 0.6425 0.6156
0.2643 0.6380 0.6111
0.4213 0.6335 0.6066
0.5782 0.6291 0.6022
0.7352 0.6246 0.5977
0.8922 0.6201 0.5932
1.0000 0.6156 0.5887
1.0000 0.6112 0.5842
0.0000 0.7798 0.6064
0.0936 0.7753 0.6019
0.2506 0.7709 0.5974
0.4076 0.7664 0.5930
0.5646 0.7619 0.5885
0.7215 0.7574 0.5840
0.8785 0.7530 0.5795
1.0000 0.7485 0.5751
1.0000 0.7440 0.5706
0.0000 0.9127 0.5927
0.0800 0.9082 0.5883
0.2369 0.9037 0.5838
0.3939 0.8992 0.5793
0.5509 0.8947 0.5748
0.7079 0.8903 0.5703
0.8649 0.8858 0.5659
1.0000 0.8813 0.5614
1.0000 0.8768 0.5569
0.0000 1.0000 0.5791
0.0663 1.0000 0.5746
0.2233 1.0000 0.5701
0.3802 1.0000 0.5656
0.5372 1.0000 0.5612
0.6942 1.0000 0.5567
0.8512 1.0000 0.5522
1.0000 1.0000 0.5477
1.0000 1.0000 0.5432
0.0173 0.0000 0.8306
0.1743 0.0000 0.8261
0.3313 0.0000 0.8216
0.4882 0.0000 0.8171
0.6452 0.0000 0.8127
0.8022 0.0000 0.8082
0.9592 0.0000 0.8037
1.0000 0.0000 0.7992
1.0000 0.0000 0.7947
0.0036 0.1143 0.8169
0.1606 0.1098 0.8124
0.3176 0.1053 0.8079
0.4746 0.1008 0.8035
0.6316 0.0963 0.7990
0.7885 0.0919 0.7945
0.9455 0.0874 0.7900
1.0000 0.0829 0.7856
1.0000 0.0784 0.7811
0.0000 0.2471 0.8032
0.1469 0.2426 0.7988
0.3039 0.2381 0.7943
0.4609 0.2337 0.7898
0.6179 0.2292 0.7853
0.7749 0.2247 0.7808
0.9318 0.2202 0.7764
1.0000 0.2158 0.7719
1.0000 0.2113 0.7674
0.0000 0.3799 0.7896
0.1333 0.3755 0.7851
0.2903 0.3710 0.7806
0.4472 0.3665 0.7761
0.6042 0.3620 0.7717
0.7612 0.3575 0.7672
0.9182 0.3531 0.7627
1.0000 0.3486 0.7582
1.0000 0.3441 0.7537
0.0000 0.5128 0.7759
0.1196 0.5083 0.7714
0.2766 0.5038 0.7669
0.4336 0.4993 0.7625
0.5905 0.4949 0.7580
0.7475 0.4904 0.7535
0.9045 0.4859 0.7490
1.0000 0.4814 0.7446
1.0000 0.4770 0.7401
0.0000 0.6456 0.7622
0.1059 0.6411 0.7578
0.2629 0.6367 0.7533
0.4199 0.6322 0.7488
0.5769 0.6277 0.7443
0.7339 0.6232 0.7398
0.8908 0.6188 0.7354
1.0000 0.6143 0.7309
1.0000 0.6098 0.7264
0.0000 0.7785 0.7486
0.0923 0.7740 0.7441
0.2492 0.7695 0.7396
0.4062 0.7650 0.7351
0.5632 0.7606 0.7307
0.7202 0.7561 0.7262
0.8772 0.7516 0.7217
1.0000 0.7471 0.7172
1.0000 0.7426 0.7127
0.0000 0.9113 0.7349
0.0786 0.9068 0.7304
0.2356 0.9024 0.7259
0.3926 0.8979 0.7215
0.5495 0.8934 0.7170
0.7065 0.8889 0.7125
0.8635 0.8844 0.7080
1.0000 0.8800 0.7036
1.0000 0.8755 0.6991
0.0000 1.0000 0.7212
0.0649 1.0000 0.7168
0.2219 1.0000 0.7123
0.3789 1.0000 0.7078
0.5359 1.0000 0.7033
0.6929 1.0000 0.6988
0.8498 1.0000 0.6944
1.0000 1.0000 0.6899
1.0000 1.0000 0.6854
0.0159 0.0000 0.9727
0.1729 0.0000 0.9683
0.3299 0.0000 0.9638
0.4869 0.0000 0.9593
0.6439 0.0000 0.9548
0.8008 0.0000 0.9503
0.9578 0.0000 0.9459
1.0000 0.0000 0.9414
1.0000 0.0000 0.9369
0.0023 0.1129 0.9591
0.1593 0.1084 0.9546
0.3162 0.1039 0.9501
0.4732 0.0995 0.9456
0.6302 0.0950 0.9412
0.7872 0.0905 0.9367
0.9442 0.0860 0.9322
1.0000 0.0816 0.9277
1.0000 0.0771 0.9233
0.0000 0.2457 0.9454
0.1456 0.2413 0.9409
0.3026 0.2368 0.9364
0.4595 0.2323 0.9320
0.6165 0.2278 0.9275
0.7735 0.2234 0.9230
0.9305 0.2189 0.9185
1.0000 0.2144 0.9141
1.0000 0.2099 0.9096
0.0000 0.3786 0.9317
0.1319 0.3741 0.9273
0.2889 0.3696 0.9228
0.4459 0.3652 0.9183
0.6029 0.3607 0.9138
0.7598 0.3562 0.9093
0.9168 0.3517 0.9049
1.0000 0.3472 0.9004
1.0000 0.3428 0.8959
0.0000 0.5114 0.9181
0.1182 0.5069 0.9136
0.2752 0.5025 0.9091
0.4322 0.4980 0.9046
0.5892 0.4935 0.9002
0.7462 0.4890 0.8957
0.9032 0.4846 0.8912
1.0000 0.4801 0.8867
1.0000 0.4756 0.8822
0.0000 0.6443 0.9044
0.1046 0.6398 0.8999
0.2616 0.6353 0.8954
0.4185 0.6308 0.8910
0.5755 0.6264 0.8865
0.7325 0.6219 0.8820
0.8895 0.6174 0.8775
1.0000 0.6129 0.8731
1.0000 0.6085 0.8686
0.0000 0.7771 0.8907
0.0909 0.7726 0.8863
0.2479 0.7682 0.8818
0.4049 0.7637 0.8773
0.5619 0.7592 0.8728
0.7188 0.7547 0.8683
0.8758 0.7502 0.8639
1.0000 0.7458 0.8594
1.0000 0.7413 0.8549
0.0000 0.9100 0.8771
0.0772 0.9055 0.8726
0.2342 0.9010 0.8681
0.3912 0.8965 0.8636
0.5482 0.8920 0.8592
0.7052 0.8876 0.8547
0.8622 0.8831 0.8502
1.0000 0.8786 0.8457
1.0000 0.8741 0.8412
0.0000 1.0000 0.8634
0.0636 1.0000 0.8589
0.2206 1.0000 0.8544
0.3775 1.0000 0.8500
0.5345 1.0000 0.8455
0.6915 1.0000 0.8410
0.8485 1.0000 0.8365
1.0000 1.0000 0.8321
1.0000 1.0000 0.8276
0.0146 0.0000 1.0000
0.1716 0.0000 1.0000
0.3286 0.0000 1.0000
0.4855 0.0000 1.0000
0.6425 0.0000 1.0000
0.7995 0.0000 1.0000
0.9565 0.0000 1.0000
1.0000 0.0000 1.0000
1.0000 0.0000 1.0000
0.0009 0.1115 1.0000
0.1579 0.1071 1.0000
0.3149 0.1026 1.0000
0.4719 0.0981 1.0000
0.6288 0.0936 1.0000
0.7858 0.0892 1.0000
0.9428 0.0847 1.0000
1.0000 0.0802 1.0000
1.0000 0.0757 1.0000
0.0000 0.2444 1.0000
0.1442 0.2399 1.0000
0.3012 0.2354 1.0000
0.4582 0.2310 1.0000
0.6152 0.2265 1.0000
0.7722 0.2220 1.0000
0.9291 0.2175 1.0000
1.0000 0.2130 1.0000
1.0000 0.2086 1.0000
0.0000 0.3772 1.0000
0.1306 0.3728 1.0000
0.2875 0.3683 1.0000
0.4445 0.3638 1.0000
0.6015 0.3593 1.0000
0.7585 0.3548 1.0000
0.9155 0.3504 1.0000
1.0000 0.3459 1.0000
1.0000 0.3414 1.0000
0.0000 0.5101 1.0000
0.1169 0.5056 1.0000
0.2739 0.5011 1.0000
0.4309 0.4966 1.0000
0.5878 0.4922 1.0000
0.7448 0.4877 1.0000
0.9018 0.4832 1.0000
1.0000 0.4787 1.0000
1.0000 0.4743 1.0000
0.0000 0.6429 1.0000
0.1032 0.6384 1.0000
0.2602 0.6340 1.0000
0.4172 0.6295 1.0000
0.5742 0.6250 1.0000
0.7312 0.6205 1.0000
0.8881 0.6161 1.0000
1.0000 0.6116 1.0000
1.0000 0.6071 1.0000
0.0000 0.7758 1.0000
0.0896 0.7713 1.0000
0.2465 0.7668 1.0000
0.4035 0.7623 1.0000
0.5605 0.7579 1.0000
0.7175 0.7534 1.0000
0.8745 0.7489 1.0000
1.0000 0.7444 1.0000
1.0000 0.7399 0.9971
0.0000 0.9086 1.0000
0.0759 0.9041 1.0000
0.2329 0.8996 1.0000
0.3899 0.8952 1.0000
0.5468 0.8907 1.0000
0.7038 0.8862 0.9968
0.8608 0.8817 0.9924
1.0000 0.8773 0.9879
1.0000 0.8728 0.9834
0.0000 1.0000 1.0000
0.0622 1.0000 1.0000
0.2192 1.0000 0.9966
0.3762 1.0000 0.9921
0.5332 1.0000 0.9877
0.6902 1.0000 0.9832
0.8471 1.0000 0.9787
1.0000 1.0000 0.9742
1.0000 1.0000 0.9697
