public/luts/sunset.cube
# edite look: Sunset (CC0)
TITLE "Sunset"
LUT_3D_SIZE 5
DOMAIN_MIN 0.0 0.0 0.0
DOMAIN_MAX 1.0 1.0 1.0
0.0254 0.0000 0.0000
0.3394 0.0000 0.0000
0.6533 0.0000 0.0000
0.9673 0.0000 0.0000
1.0000 0.0000 0.0000
0.0000 0.2552 0.0000
0.3120 0.2462 0.0000
0.6260 0.2373 0.0000
0.9400 0.2283 0.0000
1.0000 0.2194 0.0000
0.0000 0.5209 0.0000
0.2847 0.5119 0.0000
0.5987 0.5030 0.0000
0.9126 0.4940 0.0000
1.0000 0.4851 0.0000
0.0000 0.7866 0.0000
0.2574 0.7776 0.0000
0.5713 0.7687 0.0000
0.8853 0.7597 0.0000
1.0000 0.7508 0.0000
0.0000 1.0000 0.0000
0.2300 1.0000 0.0000
0.5440 1.0000 0.0000
0.8580 1.0000 0.0000
1.0000 1.0000 0.0000
0.0227 0.0000 0.2619
0.3367 0.0000 0.2529
0.6506 0.0000 0.2440
0.9646 0.0000 0.2350
1.0000 0.0000 0.2261
0.0000 0.2525 0.2346
0.3093 0.2435 0.2256
0.6233 0.2346 0.2167
0.9373 0.2256 0.2077
1.0000 0.2167 0.1987
0.0000 0.5182 0.2072
0.2820 0.5092 0.1983
0.5960 0.5003 0.1893
0.9099 0.4913 0.1804
1.0000 0.4824 0.1714
0.0000 0.7839 0.1799
0.2547 0.7749 0.1709
0.5686 0.7660 0.1620
0.8826 0.7570 0.1530
1.0000 0.7481 0.1441
0.0000 1.0000 0.1526
0.2273 1.0000 0.1436
0.5413 1.0000 0.1346
0.8553 1.0000 0.1257
1.0000 1.0000 0.1167
0.0200 0.0000 0.5462
0.3340 0.0000 0.5373
0.6479 0.0000 0.5283
0.9619 0.0000 0.5194
1.0000 0.0000 0.5104
0.0000 0.2498 0.5189
0.3066 0.2408 0.5099
0.6206 0.2319 0.5010
0.9346 0.2229 0.4920
1.0000 0.2140 0.4831
0.0000 0.5155 0.4916
0.2793 0.5065 0.4826
0.5933 0.4976 0.4737
0.9072 0.4886 0.4647
1.0000 0.4797 0.4557
0.0000 0.7812 0.4642
0.2520 0.7722 0.4553
0.5659 0.7633 0.4463
0.8799 0.7543 0.4374
1.0000 0.7453 0.4284
0.0000 1.0000 0.4369
0.2246 1.0000 0.4279
0.5386 1.0000 0.4190
0.8525 1.0000 0.4100
1.0000 1.0000 0.4011
0.0173 0.0000 0.8306
0.3313 0.0000 0.8216
0.6452 0.0000 0.8127
0.9592 0.0000 0.8037
1.0000 0.0000 0.7947
0.0000 0.2471 0.8032
0.3039 0.2381 0.7943
0.6179 0.2292 0.7853
0.9318 0.2202 0.7764
1.0000 0.2113 0.7674
0.0000 0.5128 0.7759
0.2766 0.5038 0.7669
0.5905 0.4949 0.7580
0.9045 0.4859 0.7490
1.0000 0.4770 0.7401
0.0000 0.7785 0.7486
0.2492 0.7695 0.7396
0.5632 0.7606 0.7307
0.8772 0.7516 0.7217
1.0000 0.7426 0.7127
0.0000 1.0000 0.7212
0.2219 1.0000 0.7123
0.5359 1.0000 0.7033
0.8498 1.0000 0.6944
1.0000 1.0000 0.6854
0.0146 0.0000 1.0000
0.3286 0.0000 1.0000
0.6425 0.0000 1.0000
0.9565 0.0000 1.0000
1.0000 0.0000 1.0000
0.0000 0.2444 1.0000
0.3012 0.2354 1.0000
0.6152 0.2265 1.0000
0.9291 0.2175 1.0000
1.0000 0.2086 1.0000
0.0000 0.5101 1.0000
0.2739 0.5011 1.0000
0.5878 0.4922 1.0000
0.9018 0.4832 1.0000
1.0000 0.4743 1.0000
0.0000 0.7758 1.0000
0.2465 0.7668 1.0000
0.5605 0.7579 1.0000
0.8745 0.7489 1.0000
1.0000 0.7399 0.9971
0.0000 1.0000 1.0000
0.2192 1.0000 0.9966
0.5332 1.0000 0.9877
0.8471 1.0000 0.9787
1.0000 1.0000 0.9697
