public/luts/vivid.cube
# edite look: Vivid (CC0)
TITLE "Vivid"
LUT_3D_SIZE 9
DOMAIN_MIN 0.0 0.0 0.0
DOMAIN_MAX 1.0 1.0 1.0
0.0000 0.0000 0.0000
0.1290 0.0000 0.0000
0.2980 0.0000 0.0000
0.4670 0.0000 0.0000
0.6361 0.0000 0.0000
0.8051 0.0000 0.0000
0.9741 0.0000 0.0000
1.0000 0.0000 0.0000
1.0000 0.0000 0.0000
0.0000 0.1073 0.0000
0.0981 0.0981 0.0000
0.2671 0.0889 0.0000
0.4362 0.0798 0.0000
0.6052 0.0706 0.0000
0.7742 0.0614 0.0000
0.9432 0.0522 0.0000
1.0000 0.0430 0.0000
1.0000 0.0338 0.0000
0.0000 0.2546 0.0000
0.0672 0.2454 0.0000
0.2362 0.2362 0.0000
0.4053 0.2271 0.0000
0.5743 0.2179 0.0000
0.7433 0.2087 0.0000
0.9123 0.1995 0.0000
1.0000 0.1903 0.0000
1.0000 0.1811 0.0000
0.0000 0.4019 0.0000
0.0363 0.3927 0.0000
0.2053 0.3835 0.0000
0.3744 0.3744 0.0000
0.5434 0.3652 0.0000
0.7124 0.3560 0.0000
0.8814 0.3468 0.0000
1.0000 0.3376 0.0000
1.0000 0.3284 0.0000
0.0000 0.5492 0.0000
0.0054 0.5400 0.0000
0.1744 0.5308 0.0000
0.3435 0.5217 0.0000
0.5125 0.5125 0.0000
0.6815 0.5033 0.0000
0.8505 0.4941 0.0000
1.0000 0.4849 0.0000
1.0000 0.4757 0.0000
0.0000 0.6965 0.0000
0.0000 0.6873 0.0000
0.1435 0.6781 0.0000
0.3126 0.6690 0.0000
0.4816 0.6598 0.0000
0.6506 0.6506 0.0000
0.8196 0.6414 0.0000
0.9886 0.6322 0.0000
1.0000 0.6230 0.0000
0.0000 0.8438 0.0000
0.0000 0.8346 0.0000
0.1127 0.8255 0.0000
0.2817 0.8163 0.0000
0.4507 0.8071 0.0000
0.6197 0.7979 0.0000
0.7887 0.7887 0.0000
0.9577 0.7795 0.0000
1.0000 0.7703 0.0000
0.0000 0.9911 0.0000
0.0000 0.9819 0.0000
0.0818 0.9728 0.0000
0.2508 0.9636 0.0000
0.4198 0.9544 0.0000
0.5888 0.9452 0.0000
0.7578 0.9360 0.0000
0.9268 0.9268 0.0000
1.0000 0.9176 0.0000
0.0000 1.0000 0.0000
0.0000 1.0000 0.0000
0.0509 1.0000 0.0000
0.2199 1.0000 0.0000
0.3889 1.0000 0.0000
0.5579 1.0000 0.0000
0.7269 1.0000 0.0000
0.8959 1.0000 0.0000
1.0000 1.0000 0.0000
0.0000 0.0000 0.1403
0.1259 0.0000 0.1309
0.2949 0.0000 0.1214
0.4639 0.0000 0.1120
0.6329 0.0000 0.1025
0.8020 0.0000 0.0930
0.9710 0.0000 0.0836
1.0000 0.0000 0.0741
1.0000 0.0000 0.0647
0.0000 0.1042 0.1085
0.0950 0.0950 0.0991
0.2640 0.0858 0.0896
0.4330 0.0766 0.0801
0.6020 0.0674 0.0707
0.7711 0.0583 0.0612
0.9401 0.0491 0.0518
1.0000 0.0399 0.0423
1.0000 0.0307 0.0328
0.0000 0.2515 0.0767
0.0641 0.2423 0.0672
0.2331 0.2331 0.0578
0.4021 0.2239 0.0483
0.5712 0.2148 0.0388
0.7402 0.2056 0.0294
0.9092 0.1964 0.0199
1.0000 0.1872 0.0105
1.0000 0.1780 0.0010
0.0000 0.3988 0.0449
0.0332 0.3896 0.0354
0.2022 0.3804 0.0259
0.3712 0.3712 0.0165
0.5403 0.3621 0.0070
0.7093 0.3529 0.0000
0.8783 0.3437 0.0000
1.0000 0.3345 0.0000
1.0000 0.3253 0.0000
0.0000 0.5461 0.0130
0.0023 0.5369 0.0036
0.1713 0.5277 0.0000
0.3403 0.5185 0.0000
0.5094 0.5094 0.0000
0.6784 0.5002 0.0000
0.8474 0.4910 0.0000
1.0000 0.4818 0.0000
1.0000 0.4726 0.0000
0.0000 0.6934 0.0000
0.0000 0.6842 0.0000
0.1404 0.6750 0.0000
0.3094 0.6658 0.0000
0.4785 0.6567 0.0000
0.6475 0.6475 0.0000
0.8165 0.6383 0.0000
0.9855 0.6291 0.0000
1.0000 0.6199 0.0000
0.0000 0.8407 0.0000
0.0000 0.8315 0.0000
0.1095 0.8223 0.0000
0.2785 0.8131 0.0000
0.4476 0.8040 0.0000
0.6166 0.7948 0.0000
0.7856 0.7856 0.0000
0.9546 0.7764 0.0000
1.0000 0.7672 0.0000
0.0000 0.9880 0.0000
0.0000 0.9788 0.0000
0.0786 0.9696 0.0000
0.2477 0.9605 0.0000
0.4167 0.9513 0.0000
0.5857 0.9421 0.0000
0.7547 0.9329 0.0000
0.9237 0.9237 0.0000
1.0000 0.9145 0.0000
0.0000 1.0000 0.0000
0.0000 1.0000 0.0000
0.0477 1.0000 0.0000
0.2168 1.0000 0.0000
0.3858 1.0000 0.0000
0.5548 1.0000 0.0000
0.7238 1.0000 0.0000
0.8928 1.0000 0.0000
1.0000 1.0000 0.0000
0.0000 0.0000 0.3207
0.1228 0.0000 0.3112
0.2918 0.0000 0.3017
0.4608 0.0000 0.2923
0.6298 0.0000 0.2828
0.7988 0.0000 0.2734
0.9679 0.0000 0.2639
1.0000 0.0000 0.2544
1.0000 0.0000 0.2450
0.0000 0.1011 0.2888
0.0919 0.0919 0.2794
0.2609 0.0827 0.2699
0.4299 0.0735 0.2605
0.5989 0.0643 0.2510
0.7679 0.0551 0.2415
0.9370 0.0460 0.2321
1.0000 0.0368 0.2226
1.0000 0.0276 0.2132
0.0000 0.2484 0.2570
0.0610 0.2392 0.2476
0.2300 0.2300 0.2381
0.3990 0.2208 0.2286
0.5680 0.2116 0.2192
0.7370 0.2024 0.2097
0.9061 0.1933 0.2003
1.0000 0.1841 0.1908
1.0000 0.1749 0.1813
0.0000 0.3957 0.2252
0.0301 0.3865 0.2157
0.1991 0.3773 0.2063
0.3681 0.3681 0.1968
0.5371 0.3589 0.1874
0.7062 0.3498 0.1779
0.8752 0.3406 0.1684
1.0000 0.3314 0.1590
1.0000 0.3222 0.1495
0.0000 0.5430 0.1934
0.0000 0.5338 0.1839
0.1682 0.5246 0.1745
0.3372 0.5154 0.1650
0.5062 0.5062 0.1555
0.6753 0.4971 0.1461
0.8443 0.4879 0.1366
1.0000 0.4787 0.1272
1.0000 0.4695 0.1177
0.0000 0.6903 0.1615
0.0000 0.6811 0.1521
0.1373 0.6719 0.1426
0.3063 0.6627 0.1332
0.4753 0.6535 0.1237
0.6444 0.6444 0.1142
0.8134 0.6352 0.1048
0.9824 0.6260 0.0953
1.0000 0.6168 0.0859
0.0000 0.8376 0.1297
0.0000 0.8284 0.1203
0.1064 0.8192 0.1108
0.2754 0.8100 0.1013
0.4444 0.8008 0.0919
0.6135 0.7917 0.0824
0.7825 0.7825 0.0730
0.9515 0.7733 0.0635
1.0000 0.7641 0.0540
0.0000 0.9849 0.0979
0.0000 0.9757 0.0884
0.0755 0.9665 0.0790
0.2445 0.9573 0.0695
0.4135 0.9481 0.0601
0.5826 0.9390 0.0506
0.7516 0.9298 0.0411
0.9206 0.9206 0.0317
1.0000 0.9114 0.0222
0.0000 1.0000 0.0661
0.0000 1.0000 0.0566
0.0446 1.0000 0.0472
0.2136 1.0000 0.0377
0.3827 1.0000 0.0282
0.5517 1.0000 0.0188
0.7207 1.0000 0.0093
0.8897 1.0000 0.0000
1.0000 1.0000 0.0000
0.0000 0.0000 0.5010
0.1197 0.0000 0.4915
0.2887 0.0000 0.4821
0.4577 0.0000 0.4726
0.6267 0.0000 0.4632
0.7957 0.0000 0.4537
0.9647 0.0000 0.4442
1.0000 0.0000 0.4348
1.0000 0.0000 0.4253
0.0000 0.0979 0.4692
0.0888 0.0888 0.4597
0.2578 0.0796 0.4503
0.4268 0.0704 0.4408
0.5958 0.0612 0.4313
0.7648 0.0520 0.4219
0.9338 0.0428 0.4124
1.0000 0.0337 0.4030
1.0000 0.0245 0.3935
0.0000 0.2452 0.4374
0.0579 0.2361 0.4279
0.2269 0.2269 0.4184
0.3959 0.2177 0.4090
0.5649 0.2085 0.3995
0.7339 0.1993 0.3901
0.9029 0.1901 0.3806
1.0000 0.1810 0.3711
1.0000 0.1718 0.3617
0.0000 0.3926 0.4055
0.0270 0.3834 0.3961
0.1960 0.3742 0.3866
0.3650 0.3650 0.3771
0.5340 0.3558 0.3677
0.7030 0.3466 0.3582
0.8720 0.3374 0.3488
1.0000 0.3283 0.3393
1.0000 0.3191 0.3299
0.0000 0.5399 0.3737
0.0000 0.5307 0.3642
0.1651 0.5215 0.3548
0.3341 0.5123 0.3453
0.5031 0.5031 0.3359
0.6721 0.4939 0.3264
0.8412 0.4848 0.3169
1.0000 0.4756 0.3075
1.0000 0.4664 0.2980
0.0000 0.6872 0.3419
0.0000 0.6780 0.3324
0.1342 0.6688 0.3230
0.3032 0.6596 0.3135
0.4722 0.6504 0.3040
0.6412 0.6412 0.2946
0.8103 0.6321 0.2851
0.9793 0.6229 0.2757
1.0000 0.6137 0.2662
0.0000 0.8345 0.3101
0.0000 0.8253 0.3006
0.1033 0.8161 0.2911
0.2723 0.8069 0.2817
0.4413 0.7977 0.2722
0.6103 0.7885 0.2628
0.7794 0.7794 0.2533
0.9484 0.7702 0.2438
1.0000 0.7610 0.2344
0.0000 0.9818 0.2782
0.0000 0.9726 0.2688
0.0724 0.9634 0.2593
0.2414 0.9542 0.2499
0.4104 0.9450 0.2404
0.5794 0.9358 0.2309
0.7485 0.9267 0.2215
0.9175 0.9175 0.2120
1.0000 0.9083 0.2026
0.0000 1.0000 0.2464
0.0000 1.0000 0.2370
0.0415 1.0000 0.2275
0.2105 1.0000 0.2180
0.3795 1.0000 0.2086
0.5485 1.0000 0.1991
0.7176 1.0000 0.1897
0.8866 1.0000 0.1802
1.0000 1.0000 0.1707
0.0000 0.0000 0.6813
0.1165 0.0000 0.6719
0.2856 0.0000 0.6624
0.4546 0.0000 0.6530
0.6236 0.0000 0.6435
0.7926 0.0000 0.6340
0.9616 0.0000 0.6246
1.0000 0.0000 0.6151
1.0000 0.0000 0.6057
0.0000 0.0948 0.6495
0.0856 0.0856 0.6401
0.2547 0.0765 0.6306
0.4237 0.0673 0.6211
0.5927 0.0581 0.6117
0.7617 0.0489 0.6022
0.9307 0.0397 0.5928
1.0000 0.0305 0.5833
1.0000 0.0214 0.5738
0.0000 0.2421 0.6177
0.0547 0.2329 0.6082
0.2238 0.2238 0.5988
0.3928 0.2146 0.5893
0.5618 0.2054 0.5798
0.7308 0.1962 0.5704
0.8998 0.1870 0.5609
1.0000 0.1778 0.5515
1.0000 0.1687 0.5420
0.0000 0.3894 0.5859
0.0238 0.3802 0.5764
0.1929 0.3711 0.5669
0.3619 0.3619 0.5575
0.5309 0.3527 0.5480
0.6999 0.3435 0.5386
0.8689 0.3343 0.5291
1.0000 0.3251 0.5196
1.0000 0.3160 0.5102
0.0000 0.5367 0.5540
0.0000 0.5276 0.5446
0.1620 0.5184 0.5351
0.3310 0.5092 0.5257
0.5000 0.5000 0.5162
0.6690 0.4908 0.5067
0.8380 0.4816 0.4973
1.0000 0.4724 0.4878
1.0000 0.4633 0.4784
0.0000 0.6840 0.5222
0.0000 0.6749 0.5128
0.1311 0.6657 0.5033
0.3001 0.6565 0.4938
0.4691 0.6473 0.4844
0.6381 0.6381 0.4749
0.8071 0.6289 0.4655
0.9762 0.6198 0.4560
1.0000 0.6106 0.4465
0.0000 0.8313 0.4904
0.0000 0.8222 0.4809
0.1002 0.8130 0.4715
0.2692 0.8038 0.4620
0.4382 0.7946 0.4526
0.6072 0.7854 0.4431
0.7762 0.7762 0.4336
0.9453 0.7671 0.4242
1.0000 0.7579 0.4147
0.0000 0.9786 0.4586
0.0000 0.9695 0.4491
0.0693 0.9603 0.4396
0.2383 0.9511 0.4302
0.4073 0.9419 0.4207
0.5763 0.9327 0.4113
0.7453 0.9235 0.4018
0.9144 0.9144 0.3923
1.0000 0.9052 0.3829
0.0000 1.0000 0.4267
0.0000 1.0000 0.4173
0.0384 1.0000 0.4078
0.2074 1.0000 0.3984
0.3764 1.0000 0.3889
0.5454 1.0000 0.3794
0.7144 1.0000 0.3700
0.8835 1.0000 0.3605
1.0000 1.0000 0.3511
0.0000 0.0000 0.8617
0.1134 0.0000 0.8522
0.2824 0.0000 0.8427
0.4515 0.0000 0.8333
0.6205 0.0000 0.8238
0.7895 0.0000 0.8144
0.9585 0.0000 0.8049
1.0000 0.0000 0.7954
1.0000 0.0000 0.7860
0.0000 0.0917 0.8298
0.0825 0.0825 0.8204
0.2515 0.0733 0.8109
0.4206 0.0642 0.8015
0.5896 0.0550 0.7920
0.7586 0.0458 0.7825
0.9276 0.0366 0.7731
1.0000 0.0274 0.7636
1.0000 0.0182 0.7542
0.0000 0.2390 0.7980
0.0516 0.2298 0.7886
0.2206 0.2206 0.7791
0.3897 0.2115 0.7696
0.5587 0.2023 0.7602
0.7277 0.1931 0.7507
0.8967 0.1839 0.7413
1.0000 0.1747 0.7318
1.0000 0.1655 0.7223
0.0000 0.3863 0.7662
0.0207 0.3771 0.7567
0.1897 0.3679 0.7473
0.3588 0.3588 0.7378
0.5278 0.3496 0.7284
0.6968 0.3404 0.7189
0.8658 0.3312 0.7094
1.0000 0.3220 0.7000
1.0000 0.3128 0.6905
0.0000 0.5336 0.7344
0.0000 0.5244 0.7249
0.1588 0.5152 0.7155
0.3279 0.5061 0.7060
0.4969 0.4969 0.6965
0.6659 0.4877 0.6871
0.8349 0.4785 0.6776
1.0000 0.4693 0.6682
1.0000 0.4601 0.6587
0.0000 0.6809 0.7025
0.0000 0.6717 0.6931
0.1280 0.6626 0.6836
0.2970 0.6534 0.6742
0.4660 0.6442 0.6647
0.6350 0.6350 0.6553
0.8040 0.6258 0.6458
0.9730 0.6166 0.6363
1.0000 0.6074 0.6269
0.0000 0.8282 0.6707
0.0000 0.8190 0.6613
0.0971 0.8099 0.6518
0.2661 0.8007 0.6423
0.4351 0.7915 0.6329
0.6041 0.7823 0.6234
0.7731 0.7731 0.6140
0.9421 0.7639 0.6045
1.0000 0.7548 0.5950
0.0000 0.9755 0.6389
0.0000 0.9663 0.6294
0.0662 0.9572 0.6200
0.2352 0.9480 0.6105
0.4042 0.9388 0.6011
0.5732 0.9296 0.5916
0.7422 0.9204 0.5821
0.9112 0.9112 0.5727
1.0000 0.9021 0.5632
0.0000 1.0000 0.6071
0.0000 1.0000 0.5976
0.0353 1.0000 0.5882
0.2043 1.0000 0.5787
0.3733 1.0000 0.5692
0.5423 1.0000 0.5598
0.7113 1.0000 0.5503
0.8803 1.0000 0.5409
1.0000 1.0000 0.5314
0.0000 0.0000 1.0000
0.1103 0.0000 1.0000
0.2793 0.0000 1.0000
0.4483 0.0000 1.0000
0.6173 0.0000 1.0000
0.7864 0.0000 0.9947
0.9554 0.0000 0.9852
1.0000 0.0000 0.9758
1.0000 0.0000 0.9663
0.0000 0.0886 1.0000
0.0794 0.0794 1.0000
0.2484 0.0702 0.9913
0.4174 0.0610 0.9818
0.5865 0.0519 0.9723
0.7555 0.0427 0.9629
0.9245 0.0335 0.9534
1.0000 0.0243 0.9440
1.0000 0.0151 0.9345
0.0000 0.2359 0.9784
0.0485 0.2267 0.9689
0.2175 0.2175 0.9594
0.3865 0.2083 0.9500
0.5556 0.1992 0.9405
0.7246 0.1900 0.9311
0.8936 0.1808 0.9216
1.0000 0.1716 0.9121
1.0000 0.1624 0.9027
0.0000 0.3832 0.9465
0.0176 0.3740 0.9371
0.1866 0.3648 0.9276
0.3556 0.3556 0.9182
0.5247 0.3465 0.9087
0.6937 0.3373 0.8992
0.8627 0.3281 0.8898
1.0000 0.3189 0.8803
1.0000 0.3097 0.8709
0.0000 0.5305 0.9147
0.0000 0.5213 0.9052
0.1557 0.5121 0.8958
0.3247 0.5029 0.8863
0.4938 0.4938 0.8769
0.6628 0.4846 0.8674
0.8318 0.4754 0.8579
1.0000 0.4662 0.8485
1.0000 0.4570 0.8390
0.0000 0.6778 0.8829
0.0000 0.6686 0.8734
0.1248 0.6594 0.8640
0.2938 0.6502 0.8545
0.4629 0.6411 0.8450
0.6319 0.6319 0.8356
0.8009 0.6227 0.8261
0.9699 0.6135 0.8167
1.0000 0.6043 0.8072
0.0000 0.8251 0.8511
0.0000 0.8159 0.8416
0.0939 0.8067 0.8321
0.2630 0.7976 0.8227
0.4320 0.7884 0.8132
0.6010 0.7792 0.8038
0.7700 0.7700 0.7943
0.9390 0.7608 0.7848
1.0000 0.7516 0.7754
0.0000 0.9724 0.8192
0.0000 0.9632 0.8098
0.0630 0.9540 0.8003
0.2321 0.9449 0.7909
0.4011 0.9357 0.7814
0.5701 0.9265 0.7719
0.7391 0.9173 0.7625
0.9081 0.9081 0.7530
1.0000 0.8989 0.7436
0.0000 1.0000 0.7874
0.0000 1.0000 0.7780
0.0321 1.0000 0.7685
0.2012 1.0000 0.7590
0.3702 1.0000 0.7496
0.5392 1.0000 0.7401
0.7082 1.0000 0.7307
0.8772 1.0000 0.7212
1.0000 1.0000 0.7117
0.0000 0.0000 1.0000
0.1072 0.0000 1.0000
0.2762 0.0000 1.0000
0.4452 0.0000 1.0000
0.6142 0.0000 1.0000
0.7832 0.0000 1.0000
0.9523 0.0000 1.0000
1.0000 0.0000 1.0000
1.0000 0.0000 1.0000
0.0000 0.0855 1.0000
0.0763 0.0763 1.0000
0.2453 0.0671 1.0000
0.4143 0.0579 1.0000
0.5833 0.0487 1.0000
0.7523 0.0395 1.0000
0.9214 0.0304 1.0000
1.0000 0.0212 1.0000
1.0000 0.0120 1.0000
0.0000 0.2328 1.0000
0.0454 0.2236 1.0000
0.2144 0.2144 1.0000
0.3834 0.2052 1.0000
0.5524 0.1960 1.0000
0.7215 0.1869 1.0000
0.8905 0.1777 1.0000
1.0000 0.1685 1.0000
1.0000 0.1593 1.0000
0.0000 0.3801 1.0000
0.0145 0.3709 1.0000
0.1835 0.3617 1.0000
0.3525 0.3525 1.0000
0.5215 0.3433 1.0000
0.6906 0.3342 1.0000
0.8596 0.3250 1.0000
1.0000 0.3158 1.0000
1.0000 0.3066 1.0000
0.0000 0.5274 1.0000
0.0000 0.5182 1.0000
0.1526 0.5090 1.0000
0.3216 0.4998 1.0000
0.4906 0.4906 1.0000
0.6597 0.4815 1.0000
0.8287 0.4723 1.0000
0.9977 0.4631 1.0000
1.0000 0.4539 1.0000
0.0000 0.6747 1.0000
0.0000 0.6655 1.0000
0.1217 0.6563 1.0000
0.2907 0.6471 1.0000
0.4597 0.6379 1.0000
0.6288 0.6288 1.0000
0.7978 0.6196 1.0000
0.9668 0.6104 0.9970
1.0000 0.6012 0.9875
0.0000 0.8220 1.0000
0.0000 0.8128 1.0000
0.0908 0.8036 1.0000
0.2598 0.7944 1.0000
0.4288 0.7852 0.9936
0.5979 0.7761 0.9841
0.7669 0.7669 0.9746
0.9359 0.7577 0.9652
1.0000 0.7485 0.9557
0.0000 0.9693 0.9996
0.0000 0.9601 0.9901
0.0599 0.9509 0.9806
0.2289 0.9417 0.9712
0.3980 0.9326 0.9617
0.5670 0.9234 0.9523
0.7360 0.9142 0.9428
0.9050 0.9050 0.9334
1.0000 0.8958 0.9239
0.0000 1.0000 0.9677
0.0000 1.0000 0.9583
0.0290 1.0000 0.9488
0.1980 1.0000 0.9394
0.3671 1.0000 0.9299
0.5361 1.0000 0.9204
0.7051 1.0000 0.9110
0.8741 1.0000 0.9015
1.0000 1.0000 0.8921
0.0000 0.0000 1.0000
0.1041 0.0000 1.0000
0.2731 0.0000 1.0000
0.4421 0.0000 1.0000
0.6111 0.0000 1.0000
0.7801 0.0000 1.0000
0.9491 0.0000 1.0000
1.0000 0.0000 1.0000
1.0000 0.0000 1.0000
0.0000 0.0824 1.0000
0.0732 0.0732 1.0000
0.2422 0.0640 1.0000
0.4112 0.0548 1.0000
0.5802 0.0456 1.0000
0.7492 0.0364 1.0000
0.9182 0.0272 1.0000
1.0000 0.0181 1.0000
1.0000 0.0089 1.0000
0.0000 0.2297 1.0000
0.0423 0.2205 1.0000
0.2113 0.2113 1.0000
0.3803 0.2021 1.0000
0.5493 0.1929 1.0000
0.7183 0.1837 1.0000
0.8873 0.1745 1.0000
1.0000 0.1654 1.0000
1.0000 0.1562 1.0000
0.0000 0.3770 1.0000
0.0114 0.3678 1.0000
0.1804 0.3586 1.0000
0.3494 0.3494 1.0000
0.5184 0.3402 1.0000
0.6874 0.3310 1.0000
0.8565 0.3219 1.0000
1.0000 0.3127 1.0000
1.0000 0.3035 1.0000
0.0000 0.5243 1.0000
0.0000 0.5151 1.0000
0.1495 0.5059 1.0000
0.3185 0.4967 1.0000
0.4875 0.4875 1.0000
0.6565 0.4783 1.0000
0.8256 0.4692 1.0000
0.9946 0.4600 1.0000
1.0000 0.4508 1.0000
0.0000 0.6716 1.0000
0.0000 0.6624 1.0000
0.1186 0.6532 1.0000
0.2876 0.6440 1.0000
0.4566 0.6348 1.0000
0.6256 0.6256 1.0000
0.7947 0.6165 1.0000
0.9637 0.6073 1.0000
1.0000 0.5981 1.0000
0.0000 0.8189 1.0000
0.0000 0.8097 1.0000
0.0877 0.8005 1.0000
0.2567 0.7913 1.0000
0.4257 0.7821 1.0000
0.5947 0.7729 1.0000
0.7638 0.7638 1.0000
0.9328 0.7546 1.0000
1.0000 0.7454 1.0000
0.0000 0.9662 1.0000
0.0000 0.9570 1.0000
0.0568 0.9478 1.0000
0.2258 0.9386 1.0000
0.3948 0.9294 1.0000
0.5638 0.9202 1.0000
0.7329 0.9111 1.0000
0.9019 0.9019 1.0000
1.0000 0.8927 1.0000
0.0000 1.0000 1.0000
0.0000 1.0000 1.0000
0.0259 1.0000 1.0000
0.1949 1.0000 1.0000
0.3639 1.0000 1.0000
0.5330 1.0000 1.0000
0.7020 1.0000 1.0000
0.8710 1.0000 1.0000
1.0000 1.0000 1.0000
