public/luts/vivid.cube
# edite look: Vivid (CC0)
TITLE "Vivid"
LUT_3D_SIZE 5
DOMAIN_MIN 0.0 0.0 0.0
DOMAIN_MAX 1.0 1.0 1.0
0.0000 0.0000 0.0000
0.2980 0.0000 0.0000
0.6361 0.0000 0.0000
0.9741 0.0000 0.0000
1.0000 0.0000 0.0000
0.0000 0.2546 0.0000
0.2362 0.2362 0.0000
0.5743 0.2179 0.0000
0.9123 0.1995 0.0000
1.0000 0.1811 0.0000
0.0000 0.5492 0.0000
0.1744 0.5308 0.0000
0.5125 0.5125 0.0000
0.8505 0.4941 0.0000
1.0000 0.4757 0.0000
0.0000 0.8438 0.0000
0.1127 0.8255 0.0000
0.4507 0.8071 0.0000
0.7887 0.7887 0.0000
1.0000 0.7703 0.0000
0.0000 1.0000 0.0000
0.0509 1.0000 0.0000
0.3889 1.0000 0.0000
0.7269 1.0000 0.0000
1.0000 1.0000 0.0000
0.0000 0.0000 0.3207
0.2918 0.0000 0.3017
0.6298 0.0000 0.2828
0.9679 0.0000 0.2639
1.0000 0.0000 0.2450
0.0000 0.2484 0.2570
0.2300 0.2300 0.2381
0.5680 0.2116 0.2192
0.9061 0.1933 0.2003
1.0000 0.1749 0.1813
0.0000 0.5430 0.1934
0.1682 0.5246 0.1745
0.5062 0.5062 0.1555
0.8443 0.4879 0.1366
1.0000 0.4695 0.1177
0.0000 0.8376 0.1297
0.1064 0.8192 0.1108
0.4444 0.8008 0.0919
0.7825 0.7825 0.0730
1.0000 0.7641 0.0540
0.0000 1.0000 0.0661
0.0446 1.0000 0.0472
0.3827 1.0000 0.0282
0.7207 1.0000 0.0093
1.0000 1.0000 0.0000
0.0000 0.0000 0.6813
0.2856 0.0000 0.6624
0.6236 0.0000 0.6435
0.9616 0.0000 0.6246
1.0000 0.0000 0.6057
0.0000 0.2421 0.6177
0.2238 0.2238 0.5988
0.5618 0.2054 0.5798
0.8998 0.1870 0.5609
1.0000 0.1687 0.5420
0.0000 0.5367 0.5540
0.1620 0.5184 0.5351
0.5000 0.5000 0.5162
0.8380 0.4816 0.4973
1.0000 0.4633 0.4784
0.0000 0.8313 0.4904
0.1002 0.8130 0.4715
0.4382 0.7946 0.4526
0.7762 0.7762 0.4336
1.0000 0.7579 0.4147
0.0000 1.0000 0.4267
0.0384 1.0000 0.4078
0.3764 1.0000 0.3889
0.7144 1.0000 0.3700
1.0000 1.0000 0.3511
0.0000 0.0000 1.0000
0.2793 0.0000 1.0000
0.6173 0.0000 1.0000
0.9554 0.0000 0.9852
1.0000 0.0000 0.9663
0.0000 0.2359 0.9784
0.2175 0.2175 0.9594
0.5556 0.1992 0.9405
0.8936 0.1808 0.9216
1.0000 0.1624 0.9027
0.0000 0.5305 0.9147
0.1557 0.5121 0.8958
0.4938 0.4938 0.8769
0.8318 0.4754 0.8579
1.0000 0.4570 0.8390
0.0000 0.8251 0.8511
0.0939 0.8067 0.8321
0.4320 0.7884 0.8132
0.7700 0.7700 0.7943
1.0000 0.7516 0.7754
0.0000 1.0000 0.7874
0.0321 1.0000 0.7685
0.3702 1.0000 0.7496
0.7082 1.0000 0.7307
1.0000 1.0000 0.7117
0.0000 0.0000 1.0000
0.2731 0.0000 1.0000
0.6111 0.0000 1.0000
0.9491 0.0000 1.0000
1.0000 0.0000 1.0000
0.0000 0.2297 1.0000
0.2113 0.2113 1.0000
0.5493 0.1929 1.0000
0.8873 0.1745 1.0000
1.0000 0.1562 1.0000
0.0000 0.5243 1.0000
0.1495 0.5059 1.0000
0.4875 0.4875 1.0000
0.8256 0.4692 1.0000
1.0000 0.4508 1.0000
0.0000 0.8189 1.0000
0.0877 0.8005 1.0000
0.4257 0.7821 1.0000
0.7638 0.7638 1.0000
1.0000 0.7454 1.0000
0.0000 1.0000 1.0000
0.0259 1.0000 1.0000
0.3639 1.0000 1.0000
0.7020 1.0000 1.0000
1.0000 1.0000 1.0000
