public/luts/vivid.cube
# edite look: Vivid (CC0)
TITLE "Vivid"
LUT_3D_SIZE 17
DOMAIN_MIN 0.0 0.0 0.0
DOMAIN_MAX 1.0 1.0 1.0
0.0000 0.0000 0.0000
0.0445 0.0000 0.0000
0.1290 0.0000 0.0000
0.2135 0.0000 0.0000
0.2980 0.0000 0.0000
0.3825 0.0000 0.0000
0.4670 0.0000 0.0000
0.5516 0.0000 0.0000
0.6361 0.0000 0.0000
0.7206 0.0000 0.0000
0.8051 0.0000 0.0000
0.8896 0.0000 0.0000
0.9741 0.0000 0.0000
1.0000 0.0000 0.0000
1.0000 0.0000 0.0000
1.0000 0.0000 0.0000
1.0000 0.0000 0.0000
0.0000 0.0337 0.0000
0.0291 0.0291 0.0000
0.1136 0.0245 0.0000
0.1981 0.0199 0.0000
0.2826 0.0153 0.0000
0.3671 0.0107 0.0000
0.4516 0.0061 0.0000
0.5361 0.0015 0.0000
0.6206 0.0000 0.0000
0.7051 0.0000 0.0000
0.7896 0.0000 0.0000
0.8741 0.0000 0.0000
0.9586 0.0000 0.0000
1.0000 0.0000 0.0000
1.0000 0.0000 0.0000
1.0000 0.0000 0.0000
1.0000 0.0000 0.0000
0.0000 0.1073 0.0000
0.0136 0.1027 0.0000
0.0981 0.0981 0.0000
0.1826 0.0935 0.0000
0.2671 0.0889 0.0000
0.3516 0.0843 0.0000
0.4362 0.0798 0.0000
0.5207 0.0752 0.0000
0.6052 0.0706 0.0000
0.6897 0.0660 0.0000
0.7742 0.0614 0.0000
0.8587 0.0568 0.0000
0.9432 0.0522 0.0000
1.0000 0.0476 0.0000
1.0000 0.0430 0.0000
1.0000 0.0384 0.0000
1.0000 0.0338 0.0000
0.0000 0.1810 0.0000
0.0000 0.1764 0.0000
0.0827 0.1718 0.0000
0.1672 0.1672 0.0000
0.2517 0.1626 0.0000
0.3362 0.1580 0.0000
0.4207 0.1534 0.0000
0.5052 0.1488 0.0000
0.5897 0.1442 0.0000
0.6742 0.1396 0.0000
0.7587 0.1350 0.0000
0.8432 0.1304 0.0000
0.9277 0.1258 0.0000
1.0000 0.1213 0.0000
1.0000 0.1167 0.0000
1.0000 0.1121 0.0000
1.0000 0.1075 0.0000
0.0000 0.2546 0.0000
0.0000 0.2500 0.0000
0.0672 0.2454 0.0000
0.1517 0.2408 0.0000
0.2362 0.2362 0.0000
0.3207 0.2316 0.0000
0.4053 0.2271 0.0000
0.4898 0.2225 0.0000
0.5743 0.2179 0.0000
0.6588 0.2133 0.0000
0.7433 0.2087 0.0000
0.8278 0.2041 0.0000
0.9123 0.1995 0.0000
0.9968 0.1949 0.0000
1.0000 0.1903 0.0000
1.0000 0.1857 0.0000
1.0000 0.1811 0.0000
0.0000 0.3283 0.0000
0.0000 0.3237 0.0000
0.0518 0.3191 0.0000
0.1363 0.3145 0.0000
0.2208 0.3099 0.0000
0.3053 0.3053 0.0000
0.3898 0.3007 0.0000
0.4743 0.2961 0.0000
0.5588 0.2915 0.0000
0.6433 0.2869 0.0000
0.7278 0.2823 0.0000
0.8123 0.2777 0.0000
0.8969 0.2732 0.0000
0.9814 0.2686 0.0000
1.0000 0.2640 0.0000
1.0000 0.2594 0.0000
1.0000 0.2548 0.0000
0.0000 0.4019 0.0000
0.0000 0.3973 0.0000
0.0363 0.3927 0.0000
0.1208 0.3881 0.0000
0.2053 0.3835 0.0000
0.2898 0.3789 0.0000
0.3744 0.3744 0.0000
0.4589 0.3698 0.0000
0.5434 0.3652 0.0000
0.6279 0.3606 0.0000
0.7124 0.3560 0.0000
0.7969 0.3514 0.0000
0.8814 0.3468 0.0000
0.9659 0.3422 0.0000
1.0000 0.3376 0.0000
1.0000 0.3330 0.0000
1.0000 0.3284 0.0000
0.0000 0.4756 0.0000
0.0000 0.4710 0.0000
0.0209 0.4664 0.0000
0.1054 0.4618 0.0000
0.1899 0.4572 0.0000
0.2744 0.4526 0.0000
0.3589 0.4480 0.0000
0.4434 0.4434 0.0000
0.5279 0.4388 0.0000
0.6124 0.4342 0.0000
0.6969 0.4296 0.0000
0.7814 0.4250 0.0000
0.8660 0.4205 0.0000
0.9505 0.4159 0.0000
1.0000 0.4113 0.0000
1.0000 0.4067 0.0000
1.0000 0.4021 0.0000
0.0000 0.5492 0.0000
0.0000 0.5446 0.0000
0.0054 0.5400 0.0000
0.0899 0.5354 0.0000
0.1744 0.5308 0.0000
0.2590 0.5263 0.0000
0.3435 0.5217 0.0000
0.4280 0.5171 0.0000
0.5125 0.5125 0.0000
0.5970 0.5079 0.0000
0.6815 0.5033 0.0000
0.7660 0.4987 0.0000
0.8505 0.4941 0.0000
0.9350 0.4895 0.0000
1.0000 0.4849 0.0000
1.0000 0.4803 0.0000
1.0000 0.4757 0.0000
0.0000 0.6229 0.0000
0.0000 0.6183 0.0000
0.0000 0.6137 0.0000
0.0745 0.6091 0.0000
0.1590 0.6045 0.0000
0.2435 0.5999 0.0000
0.3280 0.5953 0.0000
0.4125 0.5907 0.0000
0.4970 0.5861 0.0000
0.5815 0.5815 0.0000
0.6660 0.5769 0.0000
0.7506 0.5724 0.0000
0.8351 0.5678 0.0000
0.9196 0.5632 0.0000
1.0000 0.5586 0.0000
1.0000 0.5540 0.0000
1.0000 0.5494 0.0000
0.0000 0.6965 0.0000
0.0000 0.6919 0.0000
0.0000 0.6873 0.0000
0.0590 0.6827 0.0000
0.1435 0.6781 0.0000
0.2281 0.6736 0.0000
0.3126 0.6690 0.0000
0.3971 0.6644 0.0000
0.4816 0.6598 0.0000
0.5661 0.6552 0.0000
0.6506 0.6506 0.0000
0.7351 0.6460 0.0000
0.8196 0.6414 0.0000
0.9041 0.6368 0.0000
0.9886 0.6322 0.0000
1.0000 0.6276 0.0000
1.0000 0.6230 0.0000
0.0000 0.7702 0.0000
0.0000 0.7656 0.0000
0.0000 0.7610 0.0000
0.0436 0.7564 0.0000
0.1281 0.7518 0.0000
0.2126 0.7472 0.0000
0.2971 0.7426 0.0000
0.3816 0.7380 0.0000
0.4661 0.7334 0.0000
0.5506 0.7288 0.0000
0.6351 0.7242 0.0000
0.7197 0.7197 0.0000
0.8042 0.7151 0.0000
0.8887 0.7105 0.0000
0.9732 0.7059 0.0000
1.0000 0.7013 0.0000
1.0000 0.6967 0.0000
0.0000 0.8438 0.0000
0.0000 0.8392 0.0000
0.0000 0.8346 0.0000
0.0281 0.8300 0.0000
0.1127 0.8255 0.0000
0.1972 0.8209 0.0000
0.2817 0.8163 0.0000
0.3662 0.8117 0.0000
0.4507 0.8071 0.0000
0.5352 0.8025 0.0000
0.6197 0.7979 0.0000
0.7042 0.7933 0.0000
0.7887 0.7887 0.0000
0.8732 0.7841 0.0000
0.9577 0.7795 0.0000
1.0000 0.7749 0.0000
1.0000 0.7703 0.0000
0.0000 0.9175 0.0000
0.0000 0.9129 0.0000
0.0000 0.9083 0.0000
0.0127 0.9037 0.0000
0.0972 0.8991 0.0000
0.1817 0.8945 0.0000
0.2662 0.8899 0.0000
0.3507 0.8853 0.0000
0.4352 0.8807 0.0000
0.5197 0.8761 0.0000
0.6043 0.8716 0.0000
0.6888 0.8670 0.0000
0.7733 0.8624 0.0000
0.8578 0.8578 0.0000
0.9423 0.8532 0.0000
1.0000 0.8486 0.0000
1.0000 0.8440 0.0000
0.0000 0.9911 0.0000
0.0000 0.9865 0.0000
0.0000 0.9819 0.0000
0.0000 0.9773 0.0000
0.0818 0.9728 0.0000
0.1663 0.9682 0.0000
0.2508 0.9636 0.0000
0.3353 0.9590 0.0000
0.4198 0.9544 0.0000
0.5043 0.9498 0.0000
0.5888 0.9452 0.0000
0.6733 0.9406 0.0000
0.7578 0.9360 0.0000
0.8423 0.9314 0.0000
0.9268 0.9268 0.0000
1.0000 0.9222 0.0000
1.0000 0.9176 0.0000
0.0000 1.0000 0.0000
0.0000 1.0000 0.0000
0.0000 1.0000 0.0000
0.0000 1.0000 0.0000
0.0663 1.0000 0.0000
0.1508 1.0000 0.0000
0.2353 1.0000 0.0000
0.3198 1.0000 0.0000
0.4043 1.0000 0.0000
0.4888 1.0000 0.0000
0.5734 1.0000 0.0000
0.6579 1.0000 0.0000
0.7424 1.0000 0.0000
0.8269 1.0000 0.0000
0.9114 1.0000 0.0000
0.9959 0.9959 0.0000
1.0000 0.9913 0.0000
0.0000 1.0000 0.0000
0.0000 1.0000 0.0000
0.0000 1.0000 0.0000
0.0000 1.0000 0.0000
0.0509 1.0000 0.0000
0.1354 1.0000 0.0000
0.2199 1.0000 0.0000
0.3044 1.0000 0.0000
0.3889 1.0000 0.0000
0.4734 1.0000 0.0000
0.5579 1.0000 0.0000
0.6424 1.0000 0.0000
0.7269 1.0000 0.0000
0.8114 1.0000 0.0000
0.8959 1.0000 0.0000
0.9804 1.0000 0.0000
1.0000 1.0000 0.0000
0.0000 0.0000 0.0502
0.0429 0.0000 0.0454
0.1275 0.0000 0.0407
0.2120 0.0000 0.0360
0.2965 0.0000 0.0312
0.3810 0.0000 0.0265
0.4655 0.0000 0.0218
0.5500 0.0000 0.0171
0.6345 0.0000 0.0123
0.7190 0.0000 0.0076
0.8035 0.0000 0.0029
0.8880 0.0000 0.0000
0.9725 0.0000 0.0000
1.0000 0.0000 0.0000
1.0000 0.0000 0.0000
1.0000 0.0000 0.0000
1.0000 0.0000 0.0000
0.0000 0.0321 0.0343
0.0275 0.0275 0.0295
0.1120 0.0229 0.0248
0.1965 0.0183 0.0201
0.2810 0.0137 0.0153
0.3655 0.0091 0.0106
0.4500 0.0045 0.0059
0.5345 0.0000 0.0011
0.6191 0.0000 0.0000
0.7036 0.0000 0.0000
0.7881 0.0000 0.0000
0.8726 0.0000 0.0000
0.9571 0.0000 0.0000
1.0000 0.0000 0.0000
1.0000 0.0000 0.0000
1.0000 0.0000 0.0000
1.0000 0.0000 0.0000
0.0000 0.1057 0.0183
0.0121 0.1012 0.0136
0.0966 0.0966 0.0089
0.1811 0.0920 0.0042
0.2656 0.0874 0.0000
0.3501 0.0828 0.0000
0.4346 0.0782 0.0000
0.5191 0.0736 0.0000
0.6036 0.0690 0.0000
0.6881 0.0644 0.0000
0.7726 0.0598 0.0000
0.8571 0.0552 0.0000
0.9416 0.0506 0.0000
1.0000 0.0460 0.0000
1.0000 0.0415 0.0000
1.0000 0.0369 0.0000
1.0000 0.0323 0.0000
0.0000 0.1794 0.0024
0.0000 0.1748 0.0000
0.0811 0.1702 0.0000
0.1656 0.1656 0.0000
0.2501 0.1610 0.0000
0.3346 0.1564 0.0000
0.4191 0.1518 0.0000
0.5037 0.1473 0.0000
0.5882 0.1427 0.0000
0.6727 0.1381 0.0000
0.7572 0.1335 0.0000
0.8417 0.1289 0.0000
0.9262 0.1243 0.0000
1.0000 0.1197 0.0000
1.0000 0.1151 0.0000
1.0000 0.1105 0.0000
1.0000 0.1059 0.0000
0.0000 0.2530 0.0000
0.0000 0.2485 0.0000
0.0657 0.2439 0.0000
0.1502 0.2393 0.0000
0.2347 0.2347 0.0000
0.3192 0.2301 0.0000
0.4037 0.2255 0.0000
0.4882 0.2209 0.0000
0.5727 0.2163 0.0000
0.6572 0.2117 0.0000
0.7417 0.2071 0.0000
0.8262 0.2025 0.0000
0.9107 0.1979 0.0000
0.9952 0.1933 0.0000
1.0000 0.1888 0.0000
1.0000 0.1842 0.0000
1.0000 0.1796 0.0000
0.0000 0.3267 0.0000
0.0000 0.3221 0.0000
0.0502 0.3175 0.0000
0.1347 0.3129 0.0000
0.2192 0.3083 0.0000
0.3037 0.3037 0.0000
0.3882 0.2991 0.0000
0.4728 0.2946 0.0000
0.5573 0.2900 0.0000
0.6418 0.2854 0.0000
0.7263 0.2808 0.0000
0.8108 0.2762 0.0000
0.8953 0.2716 0.0000
0.9798 0.2670 0.0000
1.0000 0.2624 0.0000
1.0000 0.2578 0.0000
1.0000 0.2532 0.0000
0.0000 0.4004 0.0000
0.0000 0.3958 0.0000
0.0348 0.3912 0.0000
0.1193 0.3866 0.0000
0.2038 0.3820 0.0000
0.2883 0.3774 0.0000
0.3728 0.3728 0.0000
0.4573 0.3682 0.0000
0.5418 0.3636 0.0000
0.6263 0.3590 0.0000
0.7108 0.3544 0.0000
0.7953 0.3498 0.0000
0.8798 0.3452 0.0000
0.9644 0.3407 0.0000
1.0000 0.3361 0.0000
1.0000 0.3315 0.0000
1.0000 0.3269 0.0000
0.0000 0.4740 0.0000
0.0000 0.4694 0.0000
0.0193 0.4648 0.0000
0.1038 0.4602 0.0000
0.1883 0.4556 0.0000
0.2728 0.4510 0.0000
0.3573 0.4464 0.0000
0.4419 0.4419 0.0000
0.5264 0.4373 0.0000
0.6109 0.4327 0.0000
0.6954 0.4281 0.0000
0.7799 0.4235 0.0000
0.8644 0.4189 0.0000
0.9489 0.4143 0.0000
1.0000 0.4097 0.0000
1.0000 0.4051 0.0000
1.0000 0.4005 0.0000
0.0000 0.5477 0.0000
0.0000 0.5431 0.0000
0.0039 0.5385 0.0000
0.0884 0.5339 0.0000
0.1729 0.5293 0.0000
0.2574 0.5247 0.0000
0.3419 0.5201 0.0000
0.4264 0.5155 0.0000
0.5109 0.5109 0.0000
0.5954 0.5063 0.0000
0.6799 0.5017 0.0000
0.7644 0.4971 0.0000
0.8489 0.4925 0.0000
0.9335 0.4880 0.0000
1.0000 0.4834 0.0000
1.0000 0.4788 0.0000
1.0000 0.4742 0.0000
0.0000 0.6213 0.0000
0.0000 0.6167 0.0000
0.0000 0.6121 0.0000
0.0729 0.6075 0.0000
0.1574 0.6029 0.0000
0.2419 0.5983 0.0000
0.3265 0.5938 0.0000
0.4110 0.5892 0.0000
0.4955 0.5846 0.0000
0.5800 0.5800 0.0000
0.6645 0.5754 0.0000
0.7490 0.5708 0.0000
0.8335 0.5662 0.0000
0.9180 0.5616 0.0000
1.0000 0.5570 0.0000
1.0000 0.5524 0.0000
1.0000 0.5478 0.0000
0.0000 0.6950 0.0000
0.0000 0.6904 0.0000
0.0000 0.6858 0.0000
0.0575 0.6812 0.0000
0.1420 0.6766 0.0000
0.2265 0.6720 0.0000
0.3110 0.6674 0.0000
0.3955 0.6628 0.0000
0.4800 0.6582 0.0000
0.5645 0.6536 0.0000
0.6490 0.6490 0.0000
0.7335 0.6444 0.0000
0.8181 0.6399 0.0000
0.9026 0.6353 0.0000
0.9871 0.6307 0.0000
1.0000 0.6261 0.0000
1.0000 0.6215 0.0000
0.0000 0.7686 0.0000
0.0000 0.7640 0.0000
0.0000 0.7594 0.0000
0.0420 0.7548 0.0000
0.1265 0.7502 0.0000
0.2110 0.7456 0.0000
0.2956 0.7411 0.0000
0.3801 0.7365 0.0000
0.4646 0.7319 0.0000
0.5491 0.7273 0.0000
0.6336 0.7227 0.0000
0.7181 0.7181 0.0000
0.8026 0.7135 0.0000
0.8871 0.7089 0.0000
0.9716 0.7043 0.0000
1.0000 0.6997 0.0000
1.0000 0.6951 0.0000
0.0000 0.8423 0.0000
0.0000 0.8377 0.0000
0.0000 0.8331 0.0000
0.0266 0.8285 0.0000
0.1111 0.8239 0.0000
0.1956 0.8193 0.0000
0.2801 0.8147 0.0000
0.3646 0.8101 0.0000
0.4491 0.8055 0.0000
0.5336 0.8009 0.0000
0.6181 0.7963 0.0000
0.7026 0.7917 0.0000
0.7872 0.7872 0.0000
0.8717 0.7826 0.0000
0.9562 0.7780 0.0000
1.0000 0.7734 0.0000
1.0000 0.7688 0.0000
0.0000 0.9159 0.0000
0.0000 0.9113 0.0000
0.0000 0.9067 0.0000
0.0111 0.9021 0.0000
0.0956 0.8975 0.0000
0.1802 0.8930 0.0000
0.2647 0.8884 0.0000
0.3492 0.8838 0.0000
0.4337 0.8792 0.0000
0.5182 0.8746 0.0000
0.6027 0.8700 0.0000
0.6872 0.8654 0.0000
0.7717 0.8608 0.0000
0.8562 0.8562 0.0000
0.9407 0.8516 0.0000
1.0000 0.8470 0.0000
1.0000 0.8424 0.0000
0.0000 0.9896 0.0000
0.0000 0.9850 0.0000
0.0000 0.9804 0.0000
0.0000 0.9758 0.0000
0.0802 0.9712 0.0000
0.1647 0.9666 0.0000
0.2492 0.9620 0.0000
0.3337 0.9574 0.0000
0.4182 0.9528 0.0000
0.5027 0.9482 0.0000
0.5872 0.9436 0.0000
0.6718 0.9391 0.0000
0.7563 0.9345 0.0000
0.8408 0.9299 0.0000
0.9253 0.9253 0.0000
1.0000 0.9207 0.0000
1.0000 0.9161 0.0000
0.0000 1.0000 0.0000
0.0000 1.0000 0.0000
0.0000 1.0000 0.0000
0.0000 1.0000 0.0000
0.0647 1.0000 0.0000
0.1493 1.0000 0.0000
0.2338 1.0000 0.0000
0.3183 1.0000 0.0000
0.4028 1.0000 0.0000
0.4873 1.0000 0.0000
0.5718 1.0000 0.0000
0.6563 1.0000 0.0000
0.7408 1.0000 0.0000
0.8253 1.0000 0.0000
0.9098 0.9989 0.0000
0.9943 0.9943 0.0000
1.0000 0.9897 0.0000
0.0000 1.0000 0.0000
0.0000 1.0000 0.0000
0.0000 1.0000 0.0000
0.0000 1.0000 0.0000
0.0493 1.0000 0.0000
0.1338 1.0000 0.0000
0.2183 1.0000 0.0000
0.3028 1.0000 0.0000
0.3873 1.0000 0.0000
0.4718 1.0000 0.0000
0.5563 1.0000 0.0000
0.6409 1.0000 0.0000
0.7254 1.0000 0.0000
0.8099 1.0000 0.0000
0.8944 1.0000 0.0000
0.9789 1.0000 0.0000
1.0000 1.0000 0.0000
0.0000 0.0000 0.1403
0.0414 0.0000 0.1356
0.1259 0.0000 0.1309
0.2104 0.0000 0.1261
0.2949 0.0000 0.1214
0.3794 0.0000 0.1167
0.4639 0.0000 0.1120
0.5484 0.0000 0.1072
0.6329 0.0000 0.1025
0.7175 0.0000 0.0978
0.8020 0.0000 0.0930
0.8865 0.0000 0.0883
0.9710 0.0000 0.0836
1.0000 0.0000 0.0788
1.0000 0.0000 0.0741
1.0000 0.0000 0.0694
1.0000 0.0000 0.0647
0.0000 0.0305 0.1244
0.0259 0.0259 0.1197
0.1104 0.0213 0.1150
0.1950 0.0168 0.1102
0.2795 0.0122 0.1055
0.3640 0.0076 0.1008
0.4485 0.0030 0.0960
0.5330 0.0000 0.0913
0.6175 0.0000 0.0866
0.7020 0.0000 0.0819
0.7865 0.0000 0.0771
0.8710 0.0000 0.0724
0.9555 0.0000 0.0677
1.0000 0.0000 0.0629
1.0000 0.0000 0.0582
1.0000 0.0000 0.0535
1.0000 0.0000 0.0487
0.0000 0.1042 0.1085
0.0105 0.0996 0.1038
0.0950 0.0950 0.0991
0.1795 0.0904 0.0943
0.2640 0.0858 0.0896
0.3485 0.0812 0.0849
0.4330 0.0766 0.0801
0.5175 0.0720 0.0754
0.6020 0.0674 0.0707
0.6866 0.0629 0.0659
0.7711 0.0583 0.0612
0.8556 0.0537 0.0565
0.9401 0.0491 0.0518
1.0000 0.0445 0.0470
1.0000 0.0399 0.0423
1.0000 0.0353 0.0376
1.0000 0.0307 0.0328
0.0000 0.1778 0.0926
0.0000 0.1732 0.0879
0.0796 0.1687 0.0831
0.1641 0.1641 0.0784
0.2486 0.1595 0.0737
0.3331 0.1549 0.0689
0.4176 0.1503 0.0642
0.5021 0.1457 0.0595
0.5866 0.1411 0.0548
0.6711 0.1365 0.0500
0.7556 0.1319 0.0453
0.8401 0.1273 0.0406
0.9246 0.1227 0.0358
1.0000 0.1181 0.0311
1.0000 0.1135 0.0264
1.0000 0.1090 0.0216
1.0000 0.1044 0.0169
0.0000 0.2515 0.0767
0.0000 0.2469 0.0720
0.0641 0.2423 0.0672
0.1486 0.2377 0.0625
0.2331 0.2331 0.0578
0.3176 0.2285 0.0530
0.4021 0.2239 0.0483
0.4866 0.2193 0.0436
0.5712 0.2148 0.0388
0.6557 0.2102 0.0341
0.7402 0.2056 0.0294
0.8247 0.2010 0.0247
0.9092 0.1964 0.0199
0.9937 0.1918 0.0152
1.0000 0.1872 0.0105
1.0000 0.1826 0.0057
1.0000 0.1780 0.0010
0.0000 0.3251 0.0608
0.0000 0.3205 0.0560
0.0487 0.3160 0.0513
0.1332 0.3114 0.0466
0.2177 0.3068 0.0419
0.3022 0.3022 0.0371
0.3867 0.2976 0.0324
0.4712 0.2930 0.0277
0.5557 0.2884 0.0229
0.6402 0.2838 0.0182
0.7247 0.2792 0.0135
0.8092 0.2746 0.0087
0.8937 0.2700 0.0040
0.9782 0.2654 0.0000
1.0000 0.2608 0.0000
1.0000 0.2563 0.0000
1.0000 0.2517 0.0000
0.0000 0.3988 0.0449
0.0000 0.3942 0.0401
0.0332 0.3896 0.0354
0.1177 0.3850 0.0307
0.2022 0.3804 0.0259
0.2867 0.3758 0.0212
0.3712 0.3712 0.0165
0.4557 0.3666 0.0118
0.5403 0.3621 0.0070
0.6248 0.3575 0.0023
0.7093 0.3529 0.0000
0.7938 0.3483 0.0000
0.8783 0.3437 0.0000
0.9628 0.3391 0.0000
1.0000 0.3345 0.0000
1.0000 0.3299 0.0000
1.0000 0.3253 0.0000
0.0000 0.4724 0.0290
0.0000 0.4679 0.0242
0.0178 0.4633 0.0195
0.1023 0.4587 0.0148
0.1868 0.4541 0.0100
0.2713 0.4495 0.0053
0.3558 0.4449 0.0006
0.4403 0.4403 0.0000
0.5248 0.4357 0.0000
0.6093 0.4311 0.0000
0.6938 0.4265 0.0000
0.7783 0.4219 0.0000
0.8628 0.4173 0.0000
0.9473 0.4127 0.0000
1.0000 0.4082 0.0000
1.0000 0.4036 0.0000
1.0000 0.3990 0.0000
0.0000 0.5461 0.0130
0.0000 0.5415 0.0083
0.0023 0.5369 0.0036
0.0868 0.5323 0.0000
0.1713 0.5277 0.0000
0.2558 0.5231 0.0000
0.3403 0.5185 0.0000
0.4248 0.5139 0.0000
0.5094 0.5094 0.0000
0.5939 0.5048 0.0000
0.6784 0.5002 0.0000
0.7629 0.4956 0.0000
0.8474 0.4910 0.0000
0.9319 0.4864 0.0000
1.0000 0.4818 0.0000
1.0000 0.4772 0.0000
1.0000 0.4726 0.0000
0.0000 0.6197 0.0000
0.0000 0.6152 0.0000
0.0000 0.6106 0.0000
0.0714 0.6060 0.0000
0.1559 0.6014 0.0000
0.2404 0.5968 0.0000
0.3249 0.5922 0.0000
0.4094 0.5876 0.0000
0.4939 0.5830 0.0000
0.5784 0.5784 0.0000
0.6629 0.5738 0.0000
0.7474 0.5692 0.0000
0.8319 0.5646 0.0000
0.9164 0.5600 0.0000
1.0000 0.5555 0.0000
1.0000 0.5509 0.0000
1.0000 0.5463 0.0000
0.0000 0.6934 0.0000
0.0000 0.6888 0.0000
0.0000 0.6842 0.0000
0.0559 0.6796 0.0000
0.1404 0.6750 0.0000
0.2249 0.6704 0.0000
0.3094 0.6658 0.0000
0.3940 0.6613 0.0000
0.4785 0.6567 0.0000
0.5630 0.6521 0.0000
0.6475 0.6475 0.0000
0.7320 0.6429 0.0000
0.8165 0.6383 0.0000
0.9010 0.6337 0.0000
0.9855 0.6291 0.0000
1.0000 0.6245 0.0000
1.0000 0.6199 0.0000
0.0000 0.7670 0.0000
0.0000 0.7625 0.0000
0.0000 0.7579 0.0000
0.0405 0.7533 0.0000
0.1250 0.7487 0.0000
0.2095 0.7441 0.0000
0.2940 0.7395 0.0000
0.3785 0.7349 0.0000
0.4630 0.7303 0.0000
0.5475 0.7257 0.0000
0.6320 0.7211 0.0000
0.7165 0.7165 0.0000
0.8010 0.7119 0.0000
0.8856 0.7074 0.0000
0.9701 0.7028 0.0000
1.0000 0.6982 0.0000
1.0000 0.6936 0.0000
0.0000 0.8407 0.0000
0.0000 0.8361 0.0000
0.0000 0.8315 0.0000
0.0250 0.8269 0.0000
0.1095 0.8223 0.0000
0.1940 0.8177 0.0000
0.2785 0.8131 0.0000
0.3631 0.8086 0.0000
0.4476 0.8040 0.0000
0.5321 0.7994 0.0000
0.6166 0.7948 0.0000
0.7011 0.7902 0.0000
0.7856 0.7856 0.0000
0.8701 0.7810 0.0000
0.9546 0.7764 0.0000
1.0000 0.7718 0.0000
1.0000 0.7672 0.0000
0.0000 0.9144 0.0000
0.0000 0.9098 0.0000
0.0000 0.9052 0.0000
0.0096 0.9006 0.0000
0.0941 0.8960 0.0000
0.1786 0.8914 0.0000
0.2631 0.8868 0.0000
0.3476 0.8822 0.0000
0.4321 0.8776 0.0000
0.5166 0.8730 0.0000
0.6011 0.8684 0.0000
0.6856 0.8638 0.0000
0.7701 0.8592 0.0000
0.8547 0.8547 0.0000
0.9392 0.8501 0.0000
1.0000 0.8455 0.0000
1.0000 0.8409 0.0000
0.0000 0.9880 0.0000
0.0000 0.9834 0.0000
0.0000 0.9788 0.0000
0.0000 0.9742 0.0000
0.0786 0.9696 0.0000
0.1631 0.9650 0.0000
0.2477 0.9605 0.0000
0.3322 0.9559 0.0000
0.4167 0.9513 0.0000
0.5012 0.9467 0.0000
0.5857 0.9421 0.0000
0.6702 0.9375 0.0000
0.7547 0.9329 0.0000
0.8392 0.9283 0.0000
0.9237 0.9237 0.0000
1.0000 0.9191 0.0000
1.0000 0.9145 0.0000
0.0000 1.0000 0.0000
0.0000 1.0000 0.0000
0.0000 1.0000 0.0000
0.0000 1.0000 0.0000
0.0632 1.0000 0.0000
0.1477 1.0000 0.0000
0.2322 1.0000 0.0000
0.3167 1.0000 0.0000
0.4012 1.0000 0.0000
0.4857 1.0000 0.0000
0.5702 1.0000 0.0000
0.6547 1.0000 0.0000
0.7393 1.0000 0.0000
0.8238 1.0000 0.0000
0.9083 0.9974 0.0000
0.9928 0.9928 0.0000
1.0000 0.9882 0.0000
0.0000 1.0000 0.0000
0.0000 1.0000 0.0000
0.0000 1.0000 0.0000
0.0000 1.0000 0.0000
0.0477 1.0000 0.0000
0.1322 1.0000 0.0000
0.2168 1.0000 0.0000
0.3013 1.0000 0.0000
0.3858 1.0000 0.0000
0.4703 1.0000 0.0000
0.5548 1.0000 0.0000
0.6393 1.0000 0.0000
0.7238 1.0000 0.0000
0.8083 1.0000 0.0000
0.8928 1.0000 0.0000
0.9773 1.0000 0.0000
1.0000 1.0000 0.0000
0.0000 0.0000 0.2305
0.0398 0.0000 0.2258
0.1243 0.0000 0.2210
0.2088 0.0000 0.2163
0.2934 0.0000 0.2116
0.3779 0.0000 0.2069
0.4624 0.0000 0.2021
0.5469 0.0000 0.1974
0.6314 0.0000 0.1927
0.7159 0.0000 0.1879
0.8004 0.0000 0.1832
0.8849 0.0000 0.1785
0.9694 0.0000 0.1737
1.0000 0.0000 0.1690
1.0000 0.0000 0.1643
1.0000 0.0000 0.1596
1.0000 0.0000 0.1548
0.0000 0.0290 0.2146
0.0244 0.0244 0.2099
0.1089 0.0198 0.2051
0.1934 0.0152 0.2004
0.2779 0.0106 0.1957
0.3624 0.0060 0.1909
0.4469 0.0014 0.1862
0.5314 0.0000 0.1815
0.6159 0.0000 0.1767
0.7004 0.0000 0.1720
0.7850 0.0000 0.1673
0.8695 0.0000 0.1626
0.9540 0.0000 0.1578
1.0000 0.0000 0.1531
1.0000 0.0000 0.1484
1.0000 0.0000 0.1436
