luts/appetite.cube
# edite look: Appetite (CC0)
TITLE "Appetite"
LUT_3D_SIZE 17
DOMAIN_MIN 0.0 0.0 0.0
DOMAIN_MAX 1.0 1.0 1.0
0.0215 0.0097 0.0000
0.0965 0.0072 0.0000
0.1714 0.0047 0.0000
0.2463 0.0022 0.0000
0.3213 0.0000 0.0000
0.3962 0.0000 0.0000
0.4711 0.0000 0.0000
0.5460 0.0000 0.0000
0.6210 0.0000 0.0000
0.6959 0.0000 0.0000
0.7708 0.0000 0.0000
0.8457 0.0000 0.0000
0.9207 0.0000 0.0000
0.9956 0.0000 0.0000
1.0000 0.0000 0.0000
1.0000 0.0000 0.0000
1.0000 0.0000 0.0000
0.0134 0.0761 0.0000
0.0883 0.0736 0.0000
0.1633 0.0711 0.0000
0.2382 0.0686 0.0000
0.3131 0.0661 0.0000
0.3881 0.0636 0.0000
0.4630 0.0610 0.0000
0.5379 0.0585 0.0000
0.6128 0.0560 0.0000
0.6878 0.0535 0.0000
0.7627 0.0510 0.0000
0.8376 0.0485 0.0000
0.9125 0.0460 0.0000
0.9875 0.0435 0.0000
1.0000 0.0409 0.0000
1.0000 0.0384 0.0000
1.0000 0.0359 0.0000
0.0053 0.1425 0.0000
0.0802 0.1400 0.0000
0.1551 0.1374 0.0000
0.2301 0.1349 0.0000
0.3050 0.1324 0.0000
0.3799 0.1299 0.0000
0.4549 0.1274 0.0000
0.5298 0.1249 0.0000
0.6047 0.1224 0.0000
0.6796 0.1199 0.0000
0.7546 0.1174 0.0000
0.8295 0.1148 0.0000
0.9044 0.1123 0.0000
0.9793 0.1098 0.0000
1.0000 0.1073 0.0000
1.0000 0.1048 0.0000
1.0000 0.1023 0.0000
0.0000 0.2088 0.0000
0.0721 0.2063 0.0000
0.1470 0.2038 0.0000
0.2219 0.2013 0.0000
0.2969 0.1988 0.0000
0.3718 0.1963 0.0000
0.4467 0.1938 0.0000
0.5217 0.1913 0.0000
0.5966 0.1887 0.0000
0.6715 0.1862 0.0000
0.7464 0.1837 0.0000
0.8214 0.1812 0.0000
0.8963 0.1787 0.0000
0.9712 0.1762 0.0000
1.0000 0.1737 0.0000
1.0000 0.1712 0.0000
1.0000 0.1686 0.0000
0.0000 0.2752 0.0000
0.0640 0.2727 0.0000
0.1389 0.2702 0.0000
0.2138 0.2677 0.0000
0.2887 0.2651 0.0000
0.3637 0.2626 0.0000
0.4386 0.2601 0.0000
0.5135 0.2576 0.0000
0.5885 0.2551 0.0000
0.6634 0.2526 0.0000
0.7383 0.2501 0.0000
0.8132 0.2476 0.0000
0.8882 0.2451 0.0000
0.9631 0.2425 0.0000
1.0000 0.2400 0.0000
1.0000 0.2375 0.0000
1.0000 0.2350 0.0000
0.0000 0.3416 0.0000
0.0558 0.3390 0.0000
0.1308 0.3365 0.0000
0.2057 0.3340 0.0000
0.2806 0.3315 0.0000
0.3555 0.3290 0.0000
0.4305 0.3265 0.0000
0.5054 0.3240 0.0000
0.5803 0.3215 0.0000
0.6553 0.3190 0.0000
0.7302 0.3164 0.0000
0.8051 0.3139 0.0000
0.8800 0.3114 0.0000
0.9550 0.3089 0.0000
1.0000 0.3064 0.0000
1.0000 0.3039 0.0000
1.0000 0.3014 0.0000
0.0000 0.4079 0.0000
0.0477 0.4054 0.0000
0.1226 0.4029 0.0000
0.1976 0.4004 0.0000
0.2725 0.3979 0.0000
0.3474 0.3954 0.0000
0.4223 0.3928 0.0000
0.4973 0.3903 0.0000
0.5722 0.3878 0.0000
0.6471 0.3853 0.0000
0.7221 0.3828 0.0000
0.7970 0.3803 0.0000
0.8719 0.3778 0.0000
0.9468 0.3753 0.0000
1.0000 0.3728 0.0000
1.0000 0.3702 0.0000
1.0000 0.3677 0.0000
0.0000 0.4743 0.0000
0.0396 0.4718 0.0000
0.1145 0.4693 0.0000
0.1894 0.4667 0.0000
0.2644 0.4642 0.0000
0.3393 0.4617 0.0000
0.4142 0.4592 0.0000
0.4891 0.4567 0.0000
0.5641 0.4542 0.0000
0.6390 0.4517 0.0000
0.7139 0.4492 0.0000
0.7888 0.4466 0.0000
0.8638 0.4441 0.0000
0.9387 0.4416 0.0000
1.0000 0.4391 0.0000
1.0000 0.4366 0.0000
1.0000 0.4341 0.0000
0.0000 0.5406 0.0000
0.0315 0.5381 0.0000
0.1064 0.5356 0.0000
0.1813 0.5331 0.0000
0.2562 0.5306 0.0000
0.3312 0.5281 0.0000
0.4061 0.5256 0.0000
0.4810 0.5231 0.0000
0.5559 0.5205 0.0000
0.6309 0.5180 0.0000
0.7058 0.5155 0.0000
0.7807 0.5130 0.0000
0.8556 0.5105 0.0000
0.9306 0.5080 0.0000
1.0000 0.5055 0.0000
1.0000 0.5030 0.0000
1.0000 0.5005 0.0000
0.0000 0.6070 0.0000
0.0233 0.6045 0.0000
0.0983 0.6020 0.0000
0.1732 0.5995 0.0000
0.2481 0.5970 0.0000
0.3230 0.5944 0.0000
0.3980 0.5919 0.0000
0.4729 0.5894 0.0000
0.5478 0.5869 0.0000
0.6227 0.5844 0.0000
0.6977 0.5819 0.0000
0.7726 0.5794 0.0000
0.8475 0.5769 0.0000
0.9224 0.5743 0.0000
0.9974 0.5718 0.0000
1.0000 0.5693 0.0000
1.0000 0.5668 0.0000
0.0000 0.6734 0.0000
0.0152 0.6708 0.0000
0.0901 0.6683 0.0000
0.1651 0.6658 0.0000
0.2400 0.6633 0.0000
0.3149 0.6608 0.0000
0.3898 0.6583 0.0000
0.4648 0.6558 0.0000
0.5397 0.6533 0.0000
0.6146 0.6508 0.0000
0.6895 0.6482 0.0000
0.7645 0.6457 0.0000
0.8394 0.6432 0.0000
0.9143 0.6407 0.0000
0.9892 0.6382 0.0000
1.0000 0.6357 0.0000
1.0000 0.6332 0.0000
0.0000 0.7397 0.0000
0.0071 0.7372 0.0000
0.0820 0.7347 0.0000
0.1569 0.7322 0.0000
0.2319 0.7297 0.0000
0.3068 0.7272 0.0000
0.3817 0.7247 0.0000
0.4566 0.7221 0.0000
0.5316 0.7196 0.0000
0.6065 0.7171 0.0000
0.6814 0.7146 0.0000
0.7563 0.7121 0.0000
0.8313 0.7096 0.0000
0.9062 0.7071 0.0000
0.9811 0.7046 0.0000
1.0000 0.7020 0.0000
1.0000 0.6995 0.0000
0.0000 0.8061 0.0000
0.0000 0.8036 0.0000
0.0739 0.8011 0.0000
0.1488 0.7985 0.0000
0.2237 0.7960 0.0000
0.2987 0.7935 0.0000
0.3736 0.7910 0.0000
0.4485 0.7885 0.0000
0.5234 0.7860 0.0000
0.5984 0.7835 0.0000
0.6733 0.7810 0.0000
0.7482 0.7785 0.0000
0.8231 0.7759 0.0000
0.8981 0.7734 0.0000
0.9730 0.7709 0.0000
1.0000 0.7684 0.0000
1.0000 0.7659 0.0000
0.0000 0.8724 0.0000
0.0000 0.8699 0.0000
0.0658 0.8674 0.0000
0.1407 0.8649 0.0000
0.2156 0.8624 0.0000
0.2905 0.8599 0.0000
0.3655 0.8574 0.0000
0.4404 0.8549 0.0000
0.5153 0.8524 0.0000
0.5902 0.8498 0.0000
0.6652 0.8473 0.0000
0.7401 0.8448 0.0000
0.8150 0.8423 0.0000
0.8899 0.8398 0.0000
0.9649 0.8373 0.0000
1.0000 0.8348 0.0000
1.0000 0.8323 0.0000
0.0000 0.9388 0.0000
0.0000 0.9363 0.0000
0.0576 0.9338 0.0000
0.1326 0.9313 0.0000
0.2075 0.9288 0.0000
0.2824 0.9262 0.0000
0.3573 0.9237 0.0000
0.4323 0.9212 0.0000
0.5072 0.9187 0.0000
0.5821 0.9162 0.0000
0.6570 0.9137 0.0000
0.7320 0.9112 0.0000
0.8069 0.9087 0.0000
0.8818 0.9062 0.0000
0.9567 0.9036 0.0000
1.0000 0.9011 0.0000
1.0000 0.8986 0.0000
0.0000 1.0000 0.0000
0.0000 1.0000 0.0000
0.0495 1.0000 0.0000
0.1244 0.9976 0.0000
0.1994 0.9951 0.0000
0.2743 0.9926 0.0000
0.3492 0.9901 0.0000
0.4241 0.9876 0.0000
0.4991 0.9851 0.0000
0.5740 0.9826 0.0000
0.6489 0.9800 0.0000
0.7238 0.9775 0.0000
0.7988 0.9750 0.0000
0.8737 0.9725 0.0000
0.9486 0.9700 0.0000
1.0000 0.9675 0.0000
1.0000 0.9650 0.0000
0.0000 1.0000 0.0000
0.0000 1.0000 0.0000
0.0414 1.0000 0.0000
0.1163 1.0000 0.0000
0.1912 1.0000 0.0000
0.2662 1.0000 0.0000
0.3411 1.0000 0.0000
0.4160 1.0000 0.0000
0.4909 1.0000 0.0000
0.5659 1.0000 0.0000
0.6408 1.0000 0.0000
0.7157 1.0000 0.0000
0.7906 1.0000 0.0000
0.8656 1.0000 0.0000
0.9405 1.0000 0.0000
1.0000 1.0000 0.0000
1.0000 1.0000 0.0000
0.0208 0.0090 0.0687
0.0957 0.0064 0.0662
0.1706 0.0039 0.0637
0.2455 0.0014 0.0612
0.3205 0.0000 0.0587
0.3954 0.0000 0.0561
0.4703 0.0000 0.0536
0.5452 0.0000 0.0511
0.6202 0.0000 0.0486
0.6951 0.0000 0.0461
0.7700 0.0000 0.0436
0.8449 0.0000 0.0411
0.9199 0.0000 0.0386
0.9948 0.0000 0.0360
1.0000 0.0000 0.0335
1.0000 0.0000 0.0310
1.0000 0.0000 0.0285
0.0126 0.0753 0.0606
0.0876 0.0728 0.0581
0.1625 0.0703 0.0555
0.2374 0.0678 0.0530
0.3123 0.0653 0.0505
0.3873 0.0628 0.0480
0.4622 0.0603 0.0455
0.5371 0.0577 0.0430
0.6120 0.0552 0.0405
0.6870 0.0527 0.0380
0.7619 0.0502 0.0355
0.8368 0.0477 0.0329
0.9117 0.0452 0.0304
0.9867 0.0427 0.0279
1.0000 0.0402 0.0254
1.0000 0.0377 0.0229
1.0000 0.0351 0.0204
0.0045 0.1417 0.0524
0.0794 0.1392 0.0499
0.1544 0.1367 0.0474
0.2293 0.1341 0.0449
0.3042 0.1316 0.0424
0.3791 0.1291 0.0399
0.4541 0.1266 0.0374
0.5290 0.1241 0.0349
0.6039 0.1216 0.0324
0.6788 0.1191 0.0298
0.7538 0.1166 0.0273
0.8287 0.1141 0.0248
0.9036 0.1115 0.0223
0.9785 0.1090 0.0198
1.0000 0.1065 0.0173
1.0000 0.1040 0.0148
1.0000 0.1015 0.0123
0.0000 0.2080 0.0443
0.0713 0.2055 0.0418
0.1462 0.2030 0.0393
0.2212 0.2005 0.0368
0.2961 0.1980 0.0343
0.3710 0.1955 0.0318
0.4459 0.1930 0.0292
0.5209 0.1905 0.0267
0.5958 0.1880 0.0242
0.6707 0.1854 0.0217
0.7456 0.1829 0.0192
0.8206 0.1804 0.0167
0.8955 0.1779 0.0142
0.9704 0.1754 0.0117
1.0000 0.1729 0.0092
1.0000 0.1704 0.0066
1.0000 0.1679 0.0041
0.0000 0.2744 0.0362
0.0632 0.2719 0.0337
0.1381 0.2694 0.0312
0.2130 0.2669 0.0287
0.2880 0.2644 0.0261
0.3629 0.2618 0.0236
0.4378 0.2593 0.0211
0.5127 0.2568 0.0186
0.5877 0.2543 0.0161
0.6626 0.2518 0.0136
0.7375 0.2493 0.0111
0.8124 0.2468 0.0086
0.8874 0.2443 0.0061
0.9623 0.2418 0.0035
1.0000 0.2392 0.0010
1.0000 0.2367 0.0000
1.0000 0.2342 0.0000
0.0000 0.3408 0.0281
0.0551 0.3383 0.0256
0.1300 0.3357 0.0230
0.2049 0.3332 0.0205
0.2798 0.3307 0.0180
0.3548 0.3282 0.0155
0.4297 0.3257 0.0130
0.5046 0.3232 0.0105
0.5795 0.3207 0.0080
0.6545 0.3182 0.0055
0.7294 0.3157 0.0030
0.8043 0.3131 0.0004
0.8792 0.3106 0.0000
0.9542 0.3081 0.0000
1.0000 0.3056 0.0000
1.0000 0.3031 0.0000
1.0000 0.3006 0.0000
0.0000 0.4071 0.0199
0.0469 0.4046 0.0174
0.1219 0.4021 0.0149
0.1968 0.3996 0.0124
0.2717 0.3971 0.0099
0.3466 0.3946 0.0074
0.4216 0.3921 0.0049
0.4965 0.3895 0.0024
0.5714 0.3870 0.0000
0.6463 0.3845 0.0000
0.7213 0.3820 0.0000
0.7962 0.3795 0.0000
0.8711 0.3770 0.0000
0.9460 0.3745 0.0000
1.0000 0.3720 0.0000
1.0000 0.3695 0.0000
1.0000 0.3669 0.0000
0.0000 0.4735 0.0118
0.0388 0.4710 0.0093
0.1137 0.4685 0.0068
0.1887 0.4660 0.0043
0.2636 0.4634 0.0018
0.3385 0.4609 0.0000
0.4134 0.4584 0.0000
0.4884 0.4559 0.0000
0.5633 0.4534 0.0000
0.6382 0.4509 0.0000
0.7131 0.4484 0.0000
0.7881 0.4459 0.0000
0.8630 0.4434 0.0000
0.9379 0.4408 0.0000
1.0000 0.4383 0.0000
1.0000 0.4358 0.0000
1.0000 0.4333 0.0000
0.0000 0.5398 0.0037
0.0307 0.5373 0.0012
0.1056 0.5348 0.0000
0.1805 0.5323 0.0000
0.2555 0.5298 0.0000
0.3304 0.5273 0.0000
0.4053 0.5248 0.0000
0.4802 0.5223 0.0000
0.5552 0.5198 0.0000
0.6301 0.5172 0.0000
0.7050 0.5147 0.0000
0.7799 0.5122 0.0000
0.8549 0.5097 0.0000
0.9298 0.5072 0.0000
1.0000 0.5047 0.0000
1.0000 0.5022 0.0000
1.0000 0.4997 0.0000
0.0000 0.6062 0.0000
0.0225 0.6037 0.0000
0.0975 0.6012 0.0000
0.1724 0.5987 0.0000
0.2473 0.5962 0.0000
0.3223 0.5937 0.0000
0.3972 0.5911 0.0000
0.4721 0.5886 0.0000
0.5470 0.5861 0.0000
0.6220 0.5836 0.0000
0.6969 0.5811 0.0000
0.7718 0.5786 0.0000
0.8467 0.5761 0.0000
0.9217 0.5736 0.0000
0.9966 0.5711 0.0000
1.0000 0.5685 0.0000
1.0000 0.5660 0.0000
0.0000 0.6726 0.0000
0.0144 0.6701 0.0000
0.0893 0.6675 0.0000
0.1643 0.6650 0.0000
0.2392 0.6625 0.0000
0.3141 0.6600 0.0000
0.3891 0.6575 0.0000
0.4640 0.6550 0.0000
0.5389 0.6525 0.0000
0.6138 0.6500 0.0000
0.6888 0.6475 0.0000
0.7637 0.6449 0.0000
0.8386 0.6424 0.0000
0.9135 0.6399 0.0000
0.9885 0.6374 0.0000
1.0000 0.6349 0.0000
1.0000 0.6324 0.0000
0.0000 0.7389 0.0000
0.0063 0.7364 0.0000
0.0812 0.7339 0.0000
0.1561 0.7314 0.0000
0.2311 0.7289 0.0000
0.3060 0.7264 0.0000
0.3809 0.7239 0.0000
0.4559 0.7214 0.0000
0.5308 0.7188 0.0000
0.6057 0.7163 0.0000
0.6806 0.7138 0.0000
0.7556 0.7113 0.0000
0.8305 0.7088 0.0000
0.9054 0.7063 0.0000
0.9803 0.7038 0.0000
1.0000 0.7013 0.0000
1.0000 0.6987 0.0000
0.0000 0.8053 0.0000
0.0000 0.8028 0.0000
0.0731 0.8003 0.0000
0.1480 0.7978 0.0000
0.2229 0.7952 0.0000
0.2979 0.7927 0.0000
0.3728 0.7902 0.0000
0.4477 0.7877 0.0000
0.5227 0.7852 0.0000
0.5976 0.7827 0.0000
0.6725 0.7802 0.0000
0.7474 0.7777 0.0000
0.8224 0.7752 0.0000
0.8973 0.7726 0.0000
0.9722 0.7701 0.0000
1.0000 0.7676 0.0000
1.0000 0.7651 0.0000
0.0000 0.8717 0.0000
0.0000 0.8691 0.0000
0.0650 0.8666 0.0000
0.1399 0.8641 0.0000
0.2148 0.8616 0.0000
0.2897 0.8591 0.0000
0.3647 0.8566 0.0000
0.4396 0.8541 0.0000
0.5145 0.8516 0.0000
0.5895 0.8491 0.0000
0.6644 0.8465 0.0000
0.7393 0.8440 0.0000
0.8142 0.8415 0.0000
0.8892 0.8390 0.0000
0.9641 0.8365 0.0000
1.0000 0.8340 0.0000
1.0000 0.8315 0.0000
0.0000 0.9380 0.0000
0.0000 0.9355 0.0000
0.0568 0.9330 0.0000
0.1318 0.9305 0.0000
0.2067 0.9280 0.0000
0.2816 0.9255 0.0000
0.3565 0.9229 0.0000
0.4315 0.9204 0.0000
0.5064 0.9179 0.0000
0.5813 0.9154 0.0000
0.6563 0.9129 0.0000
0.7312 0.9104 0.0000
0.8061 0.9079 0.0000
0.8810 0.9054 0.0000
0.9560 0.9029 0.0000
1.0000 0.9003 0.0000
1.0000 0.8978 0.0000
0.0000 1.0000 0.0000
0.0000 1.0000 0.0000
0.0487 0.9994 0.0000
0.1236 0.9968 0.0000
0.1986 0.9943 0.0000
0.2735 0.9918 0.0000
0.3484 0.9893 0.0000
0.4233 0.9868 0.0000
0.4983 0.9843 0.0000
0.5732 0.9818 0.0000
0.6481 0.9793 0.0000
0.7231 0.9768 0.0000
0.7980 0.9742 0.0000
0.8729 0.9717 0.0000
0.9478 0.9692 0.0000
1.0000 0.9667 0.0000
1.0000 0.9642 0.0000
0.0000 1.0000 0.0000
0.0000 1.0000 0.0000
0.0406 1.0000 0.0000
0.1155 1.0000 0.0000
0.1904 1.0000 0.0000
0.2654 1.0000 0.0000
0.3403 1.0000 0.0000
0.4152 1.0000 0.0000
0.4901 1.0000 0.0000
0.5651 1.0000 0.0000
0.6400 1.0000 0.0000
0.7149 1.0000 0.0000
0.7898 1.0000 0.0000
0.8648 1.0000 0.0000
0.9397 1.0000 0.0000
1.0000 1.0000 0.0000
1.0000 1.0000 0.0000
0.0200 0.0082 0.1394
0.0949 0.0057 0.1369
0.1698 0.0031 0.1344
0.2448 0.0006 0.1319
0.3197 0.0000 0.1294
0.3946 0.0000 0.1269
0.4695 0.0000 0.1244
0.5445 0.0000 0.1219
0.6194 0.0000 0.1194
0.6943 0.0000 0.1168
0.7692 0.0000 0.1143
0.8442 0.0000 0.1118
0.9191 0.0000 0.1093
0.9940 0.0000 0.1068
1.0000 0.0000 0.1043
1.0000 0.0000 0.1018
1.0000 0.0000 0.0993
0.0118 0.0745 0.1313
0.0868 0.0720 0.1288
0.1617 0.0695 0.1263
0.2366 0.0670 0.1238
0.3115 0.0645 0.1213
0.3865 0.0620 0.1188
0.4614 0.0595 0.1163
0.5363 0.0570 0.1137
0.6113 0.0544 0.1112
0.6862 0.0519 0.1087
0.7611 0.0494 0.1062
0.8360 0.0469 0.1037
0.9110 0.0444 0.1012
0.9859 0.0419 0.0987
1.0000 0.0394 0.0962
1.0000 0.0369 0.0936
1.0000 0.0344 0.0911
0.0037 0.1409 0.1232
0.0786 0.1384 0.1207
0.1536 0.1359 0.1182
0.2285 0.1334 0.1157
0.3034 0.1308 0.1131
0.3783 0.1283 0.1106
0.4533 0.1258 0.1081
0.5282 0.1233 0.1056
0.6031 0.1208 0.1031
0.6781 0.1183 0.1006
0.7530 0.1158 0.0981
0.8279 0.1133 0.0956
0.9028 0.1108 0.0931
0.9778 0.1082 0.0905
1.0000 0.1057 0.0880
1.0000 0.1032 0.0855
1.0000 0.1007 0.0830
0.0000 0.2073 0.1151
0.0705 0.2047 0.1126
0.1454 0.2022 0.1100
0.2204 0.1997 0.1075
0.2953 0.1972 0.1050
0.3702 0.1947 0.1025
0.4451 0.1922 0.1000
0.5201 0.1897 0.0975
0.5950 0.1872 0.0950
0.6699 0.1847 0.0925
0.7449 0.1821 0.0900
0.8198 0.1796 0.0874
0.8947 0.1771 0.0849
0.9696 0.1746 0.0824
1.0000 0.1721 0.0799
1.0000 0.1696 0.0774
1.0000 0.1671 0.0749
0.0000 0.2736 0.1069
0.0624 0.2711 0.1044
0.1373 0.2686 0.1019
0.2122 0.2661 0.0994
0.2872 0.2636 0.0969
0.3621 0.2611 0.0944
0.4370 0.2585 0.0919
0.5119 0.2560 0.0894
0.5869 0.2535 0.0868
0.6618 0.2510 0.0843
0.7367 0.2485 0.0818
0.8117 0.2460 0.0793
0.8866 0.2435 0.0768
0.9615 0.2410 0.0743
1.0000 0.2385 0.0718
1.0000 0.2359 0.0693
1.0000 0.2334 0.0668
0.0000 0.3400 0.0988
0.0543 0.3375 0.0963
0.1292 0.3350 0.0938
0.2041 0.3324 0.0913
0.2790 0.3299 0.0888
0.3540 0.3274 0.0863
0.4289 0.3249 0.0837
0.5038 0.3224 0.0812
0.5787 0.3199 0.0787
0.6537 0.3174 0.0762
0.7286 0.3149 0.0737
0.8035 0.3124 0.0712
0.8785 0.3098 0.0687
0.9534 0.3073 0.0662
1.0000 0.3048 0.0637
1.0000 0.3023 0.0611
1.0000 0.2998 0.0586
0.0000 0.4063 0.0907
0.0461 0.4038 0.0882
0.1211 0.4013 0.0857
0.1960 0.3988 0.0832
0.2709 0.3963 0.0806
0.3458 0.3938 0.0781
0.4208 0.3913 0.0756
0.4957 0.3888 0.0731
0.5706 0.3862 0.0706
0.6455 0.3837 0.0681
0.7205 0.3812 0.0656
0.7954 0.3787 0.0631
0.8703 0.3762 0.0606
0.9453 0.3737 0.0580
1.0000 0.3712 0.0555
1.0000 0.3687 0.0530
1.0000 0.3662 0.0505
0.0000 0.4727 0.0826
0.0380 0.4702 0.0800
0.1129 0.4677 0.0775
0.1879 0.4652 0.0750
0.2628 0.4627 0.0725
0.3377 0.4601 0.0700
0.4126 0.4576 0.0675
0.4876 0.4551 0.0650
0.5625 0.4526 0.0625
0.6374 0.4501 0.0600
0.7123 0.4476 0.0574
0.7873 0.4451 0.0549
0.8622 0.4426 0.0524
0.9371 0.4401 0.0499
1.0000 0.4375 0.0474
1.0000 0.4350 0.0449
1.0000 0.4325 0.0424
0.0000 0.5391 0.0744
0.0299 0.5365 0.0719
0.1048 0.5340 0.0694
0.1797 0.5315 0.0669
0.2547 0.5290 0.0644
0.3296 0.5265 0.0619
0.4045 0.5240 0.0594
0.4794 0.5215 0.0569
0.5544 0.5190 0.0543
0.6293 0.5165 0.0518
0.7042 0.5139 0.0493
0.7791 0.5114 0.0468
0.8541 0.5089 0.0443
0.9290 0.5064 0.0418
1.0000 0.5039 0.0393
1.0000 0.5014 0.0368
1.0000 0.4989 0.0343
0.0000 0.6054 0.0663
0.0218 0.6029 0.0638
0.0967 0.6004 0.0613
0.1716 0.5979 0.0588
0.2465 0.5954 0.0563
0.3215 0.5929 0.0538
0.3964 0.5904 0.0512
0.4713 0.5878 0.0487
0.5462 0.5853 0.0462
0.6212 0.5828 0.0437
0.6961 0.5803 0.0412
0.7710 0.5778 0.0387
0.8459 0.5753 0.0362
0.9209 0.5728 0.0337
0.9958 0.5703 0.0311
1.0000 0.5678 0.0286
1.0000 0.5652 0.0261
0.0000 0.6718 0.0582
0.0136 0.6693 0.0557
0.0886 0.6668 0.0532
0.1635 0.6642 0.0506
0.2384 0.6617 0.0481
0.3133 0.6592 0.0456
0.3883 0.6567 0.0431
0.4632 0.6542 0.0406
0.5381 0.6517 0.0381
0.6130 0.6492 0.0356
0.6880 0.6467 0.0331
0.7629 0.6442 0.0306
0.8378 0.6416 0.0280
0.9127 0.6391 0.0255
0.9877 0.6366 0.0230
1.0000 0.6341 0.0205
1.0000 0.6316 0.0180
0.0000 0.7381 0.0501
0.0055 0.7356 0.0475
0.0804 0.7331 0.0450
0.1554 0.7306 0.0425
0.2303 0.7281 0.0400
0.3052 0.7256 0.0375
0.3801 0.7231 0.0350
0.4551 0.7206 0.0325
0.5300 0.7181 0.0300
0.6049 0.7155 0.0275
0.6798 0.7130 0.0249
0.7548 0.7105 0.0224
0.8297 0.7080 0.0199
0.9046 0.7055 0.0174
0.9795 0.7030 0.0149
1.0000 0.7005 0.0124
1.0000 0.6980 0.0099
0.0000 0.8045 0.0419
0.0000 0.8020 0.0394
0.0723 0.7995 0.0369
0.1472 0.7970 0.0344
0.2222 0.7945 0.0319
0.2971 0.7919 0.0294
0.3720 0.7894 0.0269
0.4469 0.7869 0.0243
0.5219 0.7844 0.0218
0.5968 0.7819 0.0193
0.6717 0.7794 0.0168
0.7466 0.7769 0.0143
0.8216 0.7744 0.0118
0.8965 0.7719 0.0093
0.9714 0.7693 0.0068
1.0000 0.7668 0.0043
1.0000 0.7643 0.0017
0.0000 0.8709 0.0338
0.0000 0.8684 0.0313
0.0642 0.8658 0.0288
0.1391 0.8633 0.0263
0.2140 0.8608 0.0238
0.2890 0.8583 0.0212
0.3639 0.8558 0.0187
0.4388 0.8533 0.0162
0.5137 0.8508 0.0137
0.5887 0.8483 0.0112
0.6636 0.8458 0.0087
0.7385 0.8432 0.0062
0.8134 0.8407 0.0037
0.8884 0.8382 0.0012
0.9633 0.8357 0.0000
1.0000 0.8332 0.0000
1.0000 0.8307 0.0000
0.0000 0.9372 0.0257
0.0000 0.9347 0.0232
0.0561 0.9322 0.0207
0.1310 0.9297 0.0181
0.2059 0.9272 0.0156
0.2808 0.9247 0.0131
0.3558 0.9222 0.0106
0.4307 0.9196 0.0081
0.5056 0.9171 0.0056
0.5805 0.9146 0.0031
0.6555 0.9121 0.0006
0.7304 0.9096 0.0000
0.8053 0.9071 0.0000
0.8802 0.9046 0.0000
0.9552 0.9021 0.0000
1.0000 0.8996 0.0000
1.0000 0.8970 0.0000
0.0000 1.0000 0.0175
0.0000 1.0000 0.0150
0.0479 0.9986 0.0125
0.1229 0.9961 0.0100
0.1978 0.9935 0.0075
0.2727 0.9910 0.0050
0.3476 0.9885 0.0025
0.4226 0.9860 0.0000
0.4975 0.9835 0.0000
0.5724 0.9810 0.0000
0.6473 0.9785 0.0000
0.7223 0.9760 0.0000
0.7972 0.9735 0.0000
0.8721 0.9709 0.0000
0.9470 0.9684 0.0000
1.0000 0.9659 0.0000
1.0000 0.9634 0.0000
0.0000 1.0000 0.0094
0.0000 1.0000 0.0069
0.0398 1.0000 0.0044
0.1147 1.0000 0.0019
0.1897 1.0000 0.0000
0.2646 1.0000 0.0000
0.3395 1.0000 0.0000
0.4144 1.0000 0.0000
0.4894 1.0000 0.0000
0.5643 1.0000 0.0000
0.6392 1.0000 0.0000
0.7141 1.0000 0.0000
0.7891 1.0000 0.0000
0.8640 1.0000 0.0000
0.9389 1.0000 0.0000
1.0000 1.0000 0.0000
1.0000 1.0000 0.0000
0.0192 0.0074 0.2102
0.0941 0.0049 0.2077
0.1690 0.0024 0.2052
0.2440 0.0000 0.2027
0.3189 0.0000 0.2002
0.3938 0.0000 0.1976
0.4687 0.0000 0.1951
0.5437 0.0000 0.1926
0.6186 0.0000 0.1901
0.6935 0.0000 0.1876
0.7684 0.0000 0.1851
0.8434 0.0000 0.1826
0.9183 0.0000 0.1801
0.9932 0.0000 0.1775
1.0000 0.0000 0.1750
1.0000 0.0000 0.1725
1.0000 0.0000 0.1700
0.0111 0.0737 0.2021
0.0860 0.0712 0.1996
0.1609 0.0687 0.1970
0.2358 0.0662 0.1945
0.3108 0.0637 0.1920
0.3857 0.0612 0.1895
0.4606 0.0587 0.1870
0.5355 0.0562 0.1845
0.6105 0.0537 0.1820
0.6854 0.0511 0.1795
0.7603 0.0486 0.1770
0.8352 0.0461 0.1744
0.9102 0.0436 0.1719
0.9851 0.0411 0.1694
1.0000 0.0386 0.1669
1.0000 0.0361 0.1644
