luts/appetite.cube
# edite look: Appetite (CC0)
TITLE "Appetite"
LUT_3D_SIZE 5
DOMAIN_MIN 0.0 0.0 0.0
DOMAIN_MAX 1.0 1.0 1.0
0.0215 0.0097 0.0000
0.3213 0.0000 0.0000
0.6210 0.0000 0.0000
0.9207 0.0000 0.0000
1.0000 0.0000 0.0000
0.0000 0.2752 0.0000
0.2887 0.2651 0.0000
0.5885 0.2551 0.0000
0.8882 0.2451 0.0000
1.0000 0.2350 0.0000
0.0000 0.5406 0.0000
0.2562 0.5306 0.0000
0.5559 0.5205 0.0000
0.8556 0.5105 0.0000
1.0000 0.5005 0.0000
0.0000 0.8061 0.0000
0.2237 0.7960 0.0000
0.5234 0.7860 0.0000
0.8231 0.7759 0.0000
1.0000 0.7659 0.0000
0.0000 1.0000 0.0000
0.1912 1.0000 0.0000
0.4909 1.0000 0.0000
0.7906 1.0000 0.0000
1.0000 1.0000 0.0000
0.0184 0.0066 0.2809
0.3181 0.0000 0.2709
0.6178 0.0000 0.2609
0.9175 0.0000 0.2508
1.0000 0.0000 0.2408
0.0000 0.2720 0.2484
0.2856 0.2620 0.2384
0.5853 0.2519 0.2283
0.8850 0.2419 0.2183
1.0000 0.2319 0.2083
0.0000 0.5375 0.2159
0.2531 0.5274 0.2059
0.5528 0.5174 0.1958
0.8525 0.5073 0.1858
1.0000 0.4973 0.1758
0.0000 0.8029 0.1834
0.2206 0.7929 0.1734
0.5203 0.7828 0.1633
0.8200 0.7728 0.1533
1.0000 0.7627 0.1432
0.0000 1.0000 0.1509
0.1881 1.0000 0.1409
0.4878 1.0000 0.1308
0.7875 1.0000 0.1208
1.0000 1.0000 0.1107
0.0152 0.0034 0.5639
0.3149 0.0000 0.5539
0.6147 0.0000 0.5439
0.9144 0.0000 0.5338
1.0000 0.0000 0.5238
0.0000 0.2689 0.5314
0.2824 0.2588 0.5214
0.5821 0.2488 0.5113
0.8819 0.2388 0.5013
1.0000 0.2287 0.4913
0.0000 0.5343 0.4989
0.2499 0.5243 0.4889
0.5496 0.5142 0.4788
0.8493 0.5042 0.4688
1.0000 0.4942 0.4588
0.0000 0.7998 0.4664
0.2174 0.7897 0.4564
0.5171 0.7797 0.4463
0.8168 0.7696 0.4363
1.0000 0.7596 0.4262
0.0000 1.0000 0.4339
0.1849 1.0000 0.4239
0.4846 1.0000 0.4138
0.7843 1.0000 0.4038
1.0000 1.0000 0.3937
0.0121 0.0003 0.8469
0.3118 0.0000 0.8369
0.6115 0.0000 0.8269
0.9112 0.0000 0.8168
1.0000 0.0000 0.8068
0.0000 0.2657 0.8144
0.2793 0.2557 0.8044
0.5790 0.2456 0.7943
0.8787 0.2356 0.7843
1.0000 0.2256 0.7743
0.0000 0.5312 0.7819
0.2468 0.5211 0.7719
0.5465 0.5111 0.7618
0.8462 0.5010 0.7518
1.0000 0.4910 0.7417
0.0000 0.7966 0.7494
0.2143 0.7866 0.7394
0.5140 0.7765 0.7293
0.8137 0.7665 0.7193
1.0000 0.7564 0.7092
0.0000 1.0000 0.7169
0.1818 1.0000 0.7069
0.4815 1.0000 0.6968
0.7812 1.0000 0.6868
1.0000 1.0000 0.6767
0.0089 0.0000 1.0000
0.3086 0.0000 1.0000
0.6084 0.0000 1.0000
0.9081 0.0000 1.0000
1.0000 0.0000 1.0000
0.0000 0.2626 1.0000
0.2761 0.2525 1.0000
0.5758 0.2425 1.0000
0.8755 0.2324 1.0000
1.0000 0.2224 1.0000
0.0000 0.5280 1.0000
0.2436 0.5180 1.0000
0.5433 0.5079 1.0000
0.8430 0.4979 1.0000
1.0000 0.4878 1.0000
0.0000 0.7935 1.0000
0.2111 0.7834 1.0000
0.5108 0.7734 1.0000
0.8105 0.7633 1.0000
1.0000 0.7533 0.9922
0.0000 1.0000 0.9999
0.1786 1.0000 0.9899
0.4783 1.0000 0.9798
0.7780 1.0000 0.9698
1.0000 1.0000 0.9597
