luts/appetite.cube
# edite look: Appetite (CC0)
TITLE "Appetite"
LUT_3D_SIZE 9
DOMAIN_MIN 0.0 0.0 0.0
DOMAIN_MAX 1.0 1.0 1.0
0.0215 0.0097 0.0000
0.1714 0.0047 0.0000
0.3213 0.0000 0.0000
0.4711 0.0000 0.0000
0.6210 0.0000 0.0000
0.7708 0.0000 0.0000
0.9207 0.0000 0.0000
1.0000 0.0000 0.0000
1.0000 0.0000 0.0000
0.0053 0.1425 0.0000
0.1551 0.1374 0.0000
0.3050 0.1324 0.0000
0.4549 0.1274 0.0000
0.6047 0.1224 0.0000
0.7546 0.1174 0.0000
0.9044 0.1123 0.0000
1.0000 0.1073 0.0000
1.0000 0.1023 0.0000
0.0000 0.2752 0.0000
0.1389 0.2702 0.0000
0.2887 0.2651 0.0000
0.4386 0.2601 0.0000
0.5885 0.2551 0.0000
0.7383 0.2501 0.0000
0.8882 0.2451 0.0000
1.0000 0.2400 0.0000
1.0000 0.2350 0.0000
0.0000 0.4079 0.0000
0.1226 0.4029 0.0000
0.2725 0.3979 0.0000
0.4223 0.3928 0.0000
0.5722 0.3878 0.0000
0.7221 0.3828 0.0000
0.8719 0.3778 0.0000
1.0000 0.3728 0.0000
1.0000 0.3677 0.0000
0.0000 0.5406 0.0000
0.1064 0.5356 0.0000
0.2562 0.5306 0.0000
0.4061 0.5256 0.0000
0.5559 0.5205 0.0000
0.7058 0.5155 0.0000
0.8556 0.5105 0.0000
1.0000 0.5055 0.0000
1.0000 0.5005 0.0000
0.0000 0.6734 0.0000
0.0901 0.6683 0.0000
0.2400 0.6633 0.0000
0.3898 0.6583 0.0000
0.5397 0.6533 0.0000
0.6895 0.6482 0.0000
0.8394 0.6432 0.0000
0.9892 0.6382 0.0000
1.0000 0.6332 0.0000
0.0000 0.8061 0.0000
0.0739 0.8011 0.0000
0.2237 0.7960 0.0000
0.3736 0.7910 0.0000
0.5234 0.7860 0.0000
0.6733 0.7810 0.0000
0.8231 0.7759 0.0000
0.9730 0.7709 0.0000
1.0000 0.7659 0.0000
0.0000 0.9388 0.0000
0.0576 0.9338 0.0000
0.2075 0.9288 0.0000
0.3573 0.9237 0.0000
0.5072 0.9187 0.0000
0.6570 0.9137 0.0000
0.8069 0.9087 0.0000
0.9567 0.9036 0.0000
1.0000 0.8986 0.0000
0.0000 1.0000 0.0000
0.0414 1.0000 0.0000
0.1912 1.0000 0.0000
0.3411 1.0000 0.0000
0.4909 1.0000 0.0000
0.6408 1.0000 0.0000
0.7906 1.0000 0.0000
0.9405 1.0000 0.0000
1.0000 1.0000 0.0000
0.0200 0.0082 0.1394
0.1698 0.0031 0.1344
0.3197 0.0000 0.1294
0.4695 0.0000 0.1244
0.6194 0.0000 0.1194
0.7692 0.0000 0.1143
0.9191 0.0000 0.1093
1.0000 0.0000 0.1043
1.0000 0.0000 0.0993
0.0037 0.1409 0.1232
0.1536 0.1359 0.1182
0.3034 0.1308 0.1131
0.4533 0.1258 0.1081
0.6031 0.1208 0.1031
0.7530 0.1158 0.0981
0.9028 0.1108 0.0931
1.0000 0.1057 0.0880
1.0000 0.1007 0.0830
0.0000 0.2736 0.1069
0.1373 0.2686 0.1019
0.2872 0.2636 0.0969
0.4370 0.2585 0.0919
0.5869 0.2535 0.0868
0.7367 0.2485 0.0818
0.8866 0.2435 0.0768
1.0000 0.2385 0.0718
1.0000 0.2334 0.0668
0.0000 0.4063 0.0907
0.1211 0.4013 0.0857
0.2709 0.3963 0.0806
0.4208 0.3913 0.0756
0.5706 0.3862 0.0706
0.7205 0.3812 0.0656
0.8703 0.3762 0.0606
1.0000 0.3712 0.0555
1.0000 0.3662 0.0505
0.0000 0.5391 0.0744
0.1048 0.5340 0.0694
0.2547 0.5290 0.0644
0.4045 0.5240 0.0594
0.5544 0.5190 0.0543
0.7042 0.5139 0.0493
0.8541 0.5089 0.0443
1.0000 0.5039 0.0393
1.0000 0.4989 0.0343
0.0000 0.6718 0.0582
0.0886 0.6668 0.0532
0.2384 0.6617 0.0481
0.3883 0.6567 0.0431
0.5381 0.6517 0.0381
0.6880 0.6467 0.0331
0.8378 0.6416 0.0280
0.9877 0.6366 0.0230
1.0000 0.6316 0.0180
0.0000 0.8045 0.0419
0.0723 0.7995 0.0369
0.2222 0.7945 0.0319
0.3720 0.7894 0.0269
0.5219 0.7844 0.0218
0.6717 0.7794 0.0168
0.8216 0.7744 0.0118
0.9714 0.7693 0.0068
1.0000 0.7643 0.0017
0.0000 0.9372 0.0257
0.0561 0.9322 0.0207
0.2059 0.9272 0.0156
0.3558 0.9222 0.0106
0.5056 0.9171 0.0056
0.6555 0.9121 0.0006
0.8053 0.9071 0.0000
0.9552 0.9021 0.0000
1.0000 0.8970 0.0000
0.0000 1.0000 0.0094
0.0398 1.0000 0.0044
0.1897 1.0000 0.0000
0.3395 1.0000 0.0000
0.4894 1.0000 0.0000
0.6392 1.0000 0.0000
0.7891 1.0000 0.0000
0.9389 1.0000 0.0000
1.0000 1.0000 0.0000
0.0184 0.0066 0.2809
0.1682 0.0016 0.2759
0.3181 0.0000 0.2709
0.4680 0.0000 0.2659
0.6178 0.0000 0.2609
0.7677 0.0000 0.2558
0.9175 0.0000 0.2508
1.0000 0.0000 0.2458
1.0000 0.0000 0.2408
0.0021 0.1393 0.2647
0.1520 0.1343 0.2597
0.3018 0.1293 0.2546
0.4517 0.1242 0.2496
0.6016 0.1192 0.2446
0.7514 0.1142 0.2396
0.9013 0.1092 0.2346
1.0000 0.1042 0.2295
1.0000 0.0991 0.2245
0.0000 0.2720 0.2484
0.1357 0.2670 0.2434
0.2856 0.2620 0.2384
0.4354 0.2570 0.2334
0.5853 0.2519 0.2283
0.7352 0.2469 0.2233
0.8850 0.2419 0.2183
1.0000 0.2369 0.2133
1.0000 0.2319 0.2083
0.0000 0.4048 0.2322
0.1195 0.3997 0.2272
0.2693 0.3947 0.2221
0.4192 0.3897 0.2171
0.5690 0.3847 0.2121
0.7189 0.3796 0.2071
0.8688 0.3746 0.2021
1.0000 0.3696 0.1970
1.0000 0.3646 0.1920
0.0000 0.5375 0.2159
0.1032 0.5325 0.2109
0.2531 0.5274 0.2059
0.4029 0.5224 0.2009
0.5528 0.5174 0.1958
0.7026 0.5124 0.1908
0.8525 0.5073 0.1858
1.0000 0.5023 0.1808
1.0000 0.4973 0.1758
0.0000 0.6702 0.1997
0.0870 0.6652 0.1947
0.2368 0.6602 0.1896
0.3867 0.6551 0.1846
0.5365 0.6501 0.1796
0.6864 0.6451 0.1746
0.8362 0.6401 0.1695
0.9861 0.6350 0.1645
1.0000 0.6300 0.1595
0.0000 0.8029 0.1834
0.0707 0.7979 0.1784
0.2206 0.7929 0.1734
0.3704 0.7879 0.1684
0.5203 0.7828 0.1633
0.6701 0.7778 0.1583
0.8200 0.7728 0.1533
0.9698 0.7678 0.1483
1.0000 0.7627 0.1432
0.0000 0.9357 0.1672
0.0545 0.9306 0.1622
0.2043 0.9256 0.1571
0.3542 0.9206 0.1521
0.5040 0.9156 0.1471
0.6539 0.9105 0.1421
0.8037 0.9055 0.1370
0.9536 0.9005 0.1320
1.0000 0.8955 0.1270
0.0000 1.0000 0.1509
0.0382 1.0000 0.1459
0.1881 1.0000 0.1409
0.3379 1.0000 0.1359
0.4878 1.0000 0.1308
0.6376 1.0000 0.1258
0.7875 1.0000 0.1208
0.9373 1.0000 0.1158
1.0000 1.0000 0.1107
0.0168 0.0050 0.4224
0.1667 0.0000 0.4174
0.3165 0.0000 0.4124
0.4664 0.0000 0.4074
0.6162 0.0000 0.4024
0.7661 0.0000 0.3973
0.9159 0.0000 0.3923
1.0000 0.0000 0.3873
1.0000 0.0000 0.3823
0.0006 0.1377 0.4062
0.1504 0.1327 0.4012
0.3003 0.1277 0.3961
0.4501 0.1227 0.3911
0.6000 0.1177 0.3861
0.7498 0.1126 0.3811
0.8997 0.1076 0.3761
1.0000 0.1026 0.3710
1.0000 0.0976 0.3660
0.0000 0.2705 0.3899
0.1342 0.2654 0.3849
0.2840 0.2604 0.3799
0.4339 0.2554 0.3749
0.5837 0.2504 0.3698
0.7336 0.2454 0.3648
0.8834 0.2403 0.3598
1.0000 0.2353 0.3548
1.0000 0.2303 0.3498
0.0000 0.4032 0.3737
0.1179 0.3982 0.3687
0.2678 0.3931 0.3636
0.4176 0.3881 0.3586
0.5675 0.3831 0.3536
0.7173 0.3781 0.3486
0.8672 0.3731 0.3436
1.0000 0.3680 0.3385
1.0000 0.3630 0.3335
0.0000 0.5359 0.3574
0.1017 0.5309 0.3524
0.2515 0.5259 0.3474
0.4014 0.5208 0.3424
0.5512 0.5158 0.3373
0.7011 0.5108 0.3323
0.8509 0.5058 0.3273
1.0000 0.5007 0.3223
1.0000 0.4957 0.3173
0.0000 0.6686 0.3412
0.0854 0.6636 0.3362
0.2353 0.6586 0.3311
0.3851 0.6536 0.3261
0.5350 0.6485 0.3211
0.6848 0.6435 0.3161
0.8347 0.6385 0.3110
0.9845 0.6335 0.3060
1.0000 0.6284 0.3010
0.0000 0.8014 0.3249
0.0692 0.7963 0.3199
0.2190 0.7913 0.3149
0.3689 0.7863 0.3099
0.5187 0.7813 0.3048
0.6686 0.7762 0.2998
0.8184 0.7712 0.2948
0.9683 0.7662 0.2898
1.0000 0.7612 0.2847
0.0000 0.9341 0.3087
0.0529 0.9291 0.3037
0.2028 0.9240 0.2986
0.3526 0.9190 0.2936
0.5025 0.9140 0.2886
0.6523 0.9090 0.2836
0.8022 0.9039 0.2785
0.9520 0.8989 0.2735
1.0000 0.8939 0.2685
0.0000 1.0000 0.2924
0.0366 1.0000 0.2874
0.1865 1.0000 0.2824
0.3364 1.0000 0.2774
0.4862 1.0000 0.2723
0.6361 1.0000 0.2673
0.7859 1.0000 0.2623
0.9358 1.0000 0.2573
1.0000 1.0000 0.2522
0.0152 0.0034 0.5639
0.1651 0.0000 0.5589
0.3149 0.0000 0.5539
0.4648 0.0000 0.5489
0.6147 0.0000 0.5439
0.7645 0.0000 0.5388
0.9144 0.0000 0.5338
1.0000 0.0000 0.5288
1.0000 0.0000 0.5238
0.0000 0.1362 0.5477
0.1488 0.1311 0.5427
0.2987 0.1261 0.5376
0.4485 0.1211 0.5326
0.5984 0.1161 0.5276
0.7483 0.1111 0.5226
0.8981 0.1060 0.5176
1.0000 0.1010 0.5125
1.0000 0.0960 0.5075
0.0000 0.2689 0.5314
0.1326 0.2639 0.5264
0.2824 0.2588 0.5214
0.4323 0.2538 0.5164
0.5821 0.2488 0.5113
0.7320 0.2438 0.5063
0.8819 0.2388 0.5013
1.0000 0.2337 0.4963
1.0000 0.2287 0.4913
0.0000 0.4016 0.5152
0.1163 0.3966 0.5102
0.2662 0.3916 0.5051
0.4160 0.3865 0.5001
0.5659 0.3815 0.4951
0.7157 0.3765 0.4901
0.8656 0.3715 0.4850
1.0000 0.3665 0.4800
1.0000 0.3614 0.4750
0.0000 0.5343 0.4989
0.1001 0.5293 0.4939
0.2499 0.5243 0.4889
0.3998 0.5193 0.4839
0.5496 0.5142 0.4788
0.6995 0.5092 0.4738
0.8493 0.5042 0.4688
0.9992 0.4992 0.4638
1.0000 0.4942 0.4588
0.0000 0.6671 0.4827
0.0838 0.6620 0.4777
0.2337 0.6570 0.4726
0.3835 0.6520 0.4676
0.5334 0.6470 0.4626
0.6832 0.6419 0.4576
0.8331 0.6369 0.4525
0.9829 0.6319 0.4475
1.0000 0.6269 0.4425
0.0000 0.7998 0.4664
0.0676 0.7948 0.4614
0.2174 0.7897 0.4564
0.3673 0.7847 0.4514
0.5171 0.7797 0.4463
0.6670 0.7747 0.4413
0.8168 0.7696 0.4363
0.9667 0.7646 0.4313
1.0000 0.7596 0.4262
0.0000 0.9325 0.4502
0.0513 0.9275 0.4452
0.2012 0.9225 0.4401
0.3510 0.9174 0.4351
0.5009 0.9124 0.4301
0.6507 0.9074 0.4251
0.8006 0.9024 0.4200
0.9504 0.8973 0.4150
1.0000 0.8923 0.4100
0.0000 1.0000 0.4339
0.0351 1.0000 0.4289
0.1849 1.0000 0.4239
0.3348 1.0000 0.4189
0.4846 1.0000 0.4138
0.6345 1.0000 0.4088
0.7843 1.0000 0.4038
0.9342 1.0000 0.3988
1.0000 1.0000 0.3937
0.0137 0.0019 0.7054
0.1635 0.0000 0.7004
0.3134 0.0000 0.6954
0.4632 0.0000 0.6904
0.6131 0.0000 0.6854
0.7629 0.0000 0.6803
0.9128 0.0000 0.6753
1.0000 0.0000 0.6703
1.0000 0.0000 0.6653
0.0000 0.1346 0.6892
0.1473 0.1296 0.6842
0.2971 0.1245 0.6791
0.4470 0.1195 0.6741
0.5968 0.1145 0.6691
0.7467 0.1095 0.6641
0.8965 0.1045 0.6591
1.0000 0.0994 0.6540
1.0000 0.0944 0.6490
0.0000 0.2673 0.6729
0.1310 0.2623 0.6679
0.2809 0.2573 0.6629
0.4307 0.2522 0.6579
0.5806 0.2472 0.6528
0.7304 0.2422 0.6478
0.8803 0.2372 0.6428
1.0000 0.2322 0.6378
1.0000 0.2271 0.6328
0.0000 0.4000 0.6567
0.1148 0.3950 0.6517
0.2646 0.3900 0.6466
0.4145 0.3850 0.6416
0.5643 0.3799 0.6366
0.7142 0.3749 0.6316
0.8640 0.3699 0.6265
1.0000 0.3649 0.6215
1.0000 0.3599 0.6165
0.0000 0.5328 0.6404
0.0985 0.5277 0.6354
0.2484 0.5227 0.6304
0.3982 0.5177 0.6254
0.5481 0.5127 0.6203
0.6979 0.5076 0.6153
0.8478 0.5026 0.6103
0.9976 0.4976 0.6053
1.0000 0.4926 0.6003
0.0000 0.6655 0.6242
0.0823 0.6605 0.6192
0.2321 0.6554 0.6141
0.3820 0.6504 0.6091
0.5318 0.6454 0.6041
0.6817 0.6404 0.5991
0.8315 0.6353 0.5940
0.9814 0.6303 0.5890
1.0000 0.6253 0.5840
0.0000 0.7982 0.6079
0.0660 0.7932 0.6029
0.2159 0.7882 0.5979
0.3657 0.7831 0.5929
0.5156 0.7781 0.5878
0.6654 0.7731 0.5828
0.8153 0.7681 0.5778
0.9651 0.7630 0.5728
1.0000 0.7580 0.5677
0.0000 0.9309 0.5917
0.0498 0.9259 0.5867
0.1996 0.9209 0.5816
0.3495 0.9159 0.5766
0.4993 0.9108 0.5716
0.6492 0.9058 0.5666
0.7990 0.9008 0.5615
0.9489 0.8958 0.5565
1.0000 0.8907 0.5515
0.0000 1.0000 0.5754
0.0335 1.0000 0.5704
0.1833 1.0000 0.5654
0.3332 1.0000 0.5604
0.4831 1.0000 0.5553
0.6329 1.0000 0.5503
0.7828 1.0000 0.5453
0.9326 1.0000 0.5403
1.0000 1.0000 0.5352
0.0121 0.0003 0.8469
0.1619 0.0000 0.8419
0.3118 0.0000 0.8369
0.4616 0.0000 0.8319
0.6115 0.0000 0.8269
0.7614 0.0000 0.8218
0.9112 0.0000 0.8168
1.0000 0.0000 0.8118
1.0000 0.0000 0.8068
0.0000 0.1330 0.8307
0.1457 0.1280 0.8257
0.2955 0.1230 0.8206
0.4454 0.1179 0.8156
0.5952 0.1129 0.8106
0.7451 0.1079 0.8056
0.8950 0.1029 0.8006
1.0000 0.0979 0.7955
1.0000 0.0928 0.7905
0.0000 0.2657 0.8144
0.1294 0.2607 0.8094
0.2793 0.2557 0.8044
0.4291 0.2507 0.7994
0.5790 0.2456 0.7943
0.7288 0.2406 0.7893
0.8787 0.2356 0.7843
1.0000 0.2306 0.7793
1.0000 0.2256 0.7743
0.0000 0.3985 0.7982
0.1132 0.3934 0.7932
0.2630 0.3884 0.7881
0.4129 0.3834 0.7831
0.5627 0.3784 0.7781
0.7126 0.3733 0.7731
0.8624 0.3683 0.7680
1.0000 0.3633 0.7630
1.0000 0.3583 0.7580
0.0000 0.5312 0.7819
0.0969 0.5262 0.7769
0.2468 0.5211 0.7719
0.3966 0.5161 0.7669
0.5465 0.5111 0.7618
0.6963 0.5061 0.7568
0.8462 0.5010 0.7518
0.9960 0.4960 0.7468
1.0000 0.4910 0.7417
0.0000 0.6639 0.7657
0.0807 0.6589 0.7607
0.2305 0.6539 0.7556
0.3804 0.6488 0.7506
0.5302 0.6438 0.7456
0.6801 0.6388 0.7406
0.8299 0.6338 0.7355
0.9798 0.6287 0.7305
1.0000 0.6237 0.7255
0.0000 0.7966 0.7494
0.0644 0.7916 0.7444
0.2143 0.7866 0.7394
0.3641 0.7816 0.7344
0.5140 0.7765 0.7293
0.6638 0.7715 0.7243
0.8137 0.7665 0.7193
0.9635 0.7615 0.7143
1.0000 0.7564 0.7092
0.0000 0.9293 0.7332
0.0482 0.9243 0.7281
0.1980 0.9193 0.7231
0.3479 0.9143 0.7181
0.4977 0.9093 0.7131
0.6476 0.9042 0.7081
0.7974 0.8992 0.7030
0.9473 0.8942 0.6980
1.0000 0.8892 0.6930
0.0000 1.0000 0.7169
0.0319 1.0000 0.7119
0.1818 1.0000 0.7069
0.3316 1.0000 0.7019
0.4815 1.0000 0.6968
0.6313 1.0000 0.6918
0.7812 1.0000 0.6868
0.9310 1.0000 0.6818
1.0000 1.0000 0.6767
0.0105 0.0000 0.9884
0.1604 0.0000 0.9834
0.3102 0.0000 0.9784
0.4601 0.0000 0.9734
0.6099 0.0000 0.9684
0.7598 0.0000 0.9633
0.9096 0.0000 0.9583
1.0000 0.0000 0.9533
1.0000 0.0000 0.9483
0.0000 0.1314 0.9722
0.1441 0.1264 0.9672
0.2940 0.1214 0.9621
0.4438 0.1164 0.9571
0.5937 0.1113 0.9521
0.7435 0.1063 0.9471
0.8934 0.1013 0.9421
1.0000 0.0963 0.9370
1.0000 0.0913 0.9320
0.0000 0.2642 0.9559
0.1279 0.2591 0.9509
0.2777 0.2541 0.9459
0.4276 0.2491 0.9409
0.5774 0.2441 0.9358
0.7273 0.2390 0.9308
0.8771 0.2340 0.9258
1.0000 0.2290 0.9208
1.0000 0.2240 0.9158
0.0000 0.3969 0.9397
0.1116 0.3919 0.9347
0.2615 0.3868 0.9296
0.4113 0.3818 0.9246
0.5612 0.3768 0.9196
0.7110 0.3718 0.9146
0.8609 0.3667 0.9095
1.0000 0.3617 0.9045
1.0000 0.3567 0.8995
0.0000 0.5296 0.9234
0.0954 0.5246 0.9184
0.2452 0.5196 0.9134
0.3951 0.5145 0.9084
0.5449 0.5095 0.9033
0.6948 0.5045 0.8983
0.8446 0.4995 0.8933
0.9945 0.4944 0.8883
1.0000 0.4894 0.8832
0.0000 0.6623 0.9072
0.0791 0.6573 0.9022
0.2290 0.6523 0.8971
0.3788 0.6473 0.8921
0.5287 0.6422 0.8871
0.6785 0.6372 0.8821
0.8284 0.6322 0.8770
0.9782 0.6272 0.8720
1.0000 0.6221 0.8670
0.0000 0.7950 0.8909
0.0629 0.7900 0.8859
0.2127 0.7850 0.8809
0.3626 0.7800 0.8759
0.5124 0.7750 0.8708
0.6623 0.7699 0.8658
0.8121 0.7649 0.8608
0.9620 0.7599 0.8558
1.0000 0.7549 0.8507
0.0000 0.9278 0.8747
0.0466 0.9227 0.8696
0.1965 0.9177 0.8646
0.3463 0.9127 0.8596
0.4962 0.9077 0.8546
0.6460 0.9027 0.8496
0.7959 0.8976 0.8445
0.9457 0.8926 0.8395
1.0000 0.8876 0.8345
0.0000 1.0000 0.8584
0.0303 1.0000 0.8534
0.1802 1.0000 0.8484
0.3301 1.0000 0.8434
0.4799 1.0000 0.8383
0.6298 1.0000 0.8333
0.7796 1.0000 0.8283
0.9295 1.0000 0.8233
1.0000 1.0000 0.8182
0.0089 0.0000 1.0000
0.1588 0.0000 1.0000
0.3086 0.0000 1.0000
0.4585 0.0000 1.0000
0.6084 0.0000 1.0000
0.7582 0.0000 1.0000
0.9081 0.0000 1.0000
1.0000 0.0000 1.0000
1.0000 0.0000 1.0000
0.0000 0.1299 1.0000
0.1425 0.1248 1.0000
0.2924 0.1198 1.0000
0.4422 0.1148 1.0000
0.5921 0.1098 1.0000
0.7419 0.1047 1.0000
0.8918 0.0997 1.0000
1.0000 0.0947 1.0000
1.0000 0.0897 1.0000
0.0000 0.2626 1.0000
0.1263 0.2576 1.0000
0.2761 0.2525 1.0000
0.4260 0.2475 1.0000
0.5758 0.2425 1.0000
0.7257 0.2375 1.0000
0.8755 0.2324 1.0000
1.0000 0.2274 1.0000
1.0000 0.2224 1.0000
0.0000 0.3953 1.0000
0.1100 0.3903 1.0000
0.2599 0.3853 1.0000
0.4097 0.3802 1.0000
0.5596 0.3752 1.0000
0.7094 0.3702 1.0000
0.8593 0.3652 1.0000
1.0000 0.3601 1.0000
1.0000 0.3551 1.0000
0.0000 0.5280 1.0000
0.0938 0.5230 1.0000
0.2436 0.5180 1.0000
0.3935 0.5130 1.0000
0.5433 0.5079 1.0000
0.6932 0.5029 1.0000
0.8430 0.4979 1.0000
0.9929 0.4929 1.0000
1.0000 0.4878 1.0000
0.0000 0.6608 1.0000
0.0775 0.6557 1.0000
0.2274 0.6507 1.0000
0.3772 0.6457 1.0000
0.5271 0.6407 1.0000
0.6769 0.6356 1.0000
0.8268 0.6306 1.0000
0.9766 0.6256 1.0000
1.0000 0.6206 1.0000
0.0000 0.7935 1.0000
0.0613 0.7885 1.0000
0.2111 0.7834 1.0000
0.3610 0.7784 1.0000
0.5108 0.7734 1.0000
0.6607 0.7684 1.0000
0.8105 0.7633 1.0000
0.9604 0.7583 0.9973
1.0000 0.7533 0.9922
0.0000 0.9262 1.0000
0.0450 0.9212 1.0000
0.1949 0.9162 1.0000
0.3447 0.9111 1.0000
0.4946 0.9061 0.9961
0.6444 0.9011 0.9911
0.7943 0.8961 0.9860
0.9441 0.8910 0.9810
1.0000 0.8860 0.9760
0.0000 1.0000 0.9999
0.0288 1.0000 0.9949
0.1786 1.0000 0.9899
0.3285 1.0000 0.9848
0.4783 1.0000 0.9798
0.6282 1.0000 0.9748
0.7780 1.0000 0.9698
0.9279 1.0000 0.9648
1.0000 1.0000 0.9597
