luts/bleach.cube
# edite look: Bleach (CC0)
TITLE "Bleach"
LUT_3D_SIZE 17
DOMAIN_MIN 0.0 0.0 0.0
DOMAIN_MAX 1.0 1.0 1.0
0.0000 0.0000 0.0000
0.0000 0.0000 0.0000
0.0000 0.0000 0.0000
0.0221 0.0000 0.0000
0.0620 0.0000 0.0000
0.1018 0.0000 0.0000
0.1417 0.0000 0.0000
0.1816 0.0000 0.0000
0.2215 0.0000 0.0000
0.2613 0.0000 0.0000
0.3012 0.0000 0.0000
0.3411 0.0059 0.0059
0.3809 0.0153 0.0153
0.4208 0.0247 0.0247
0.4607 0.0341 0.0341
0.5005 0.0435 0.0435
0.5404 0.0529 0.0529
0.0000 0.0000 0.0000
0.0000 0.0000 0.0000
0.0139 0.0000 0.0000
0.0537 0.0000 0.0000
0.0936 0.0022 0.0000
0.1335 0.0116 0.0000
0.1733 0.0210 0.0000
0.2132 0.0304 0.0000
0.2531 0.0398 0.0093
0.2930 0.0492 0.0187
0.3328 0.0586 0.0281
0.3727 0.0680 0.0375
0.4126 0.0774 0.0469
0.4524 0.0868 0.0563
0.4923 0.0962 0.0657
0.5322 0.1056 0.0751
0.5720 0.1150 0.0845
0.0000 0.0267 0.0000
0.0056 0.0361 0.0000
0.0455 0.0455 0.0000
0.0854 0.0549 0.0000
0.1252 0.0643 0.0034
0.1651 0.0737 0.0128
0.2050 0.0831 0.0222
0.2448 0.0925 0.0316
0.2847 0.1019 0.0410
0.3246 0.1113 0.0504
0.3644 0.1207 0.0598
0.4043 0.1301 0.0692
0.4442 0.1395 0.0786
0.4841 0.1489 0.0880
0.5239 0.1583 0.0974
0.5638 0.1677 0.1068
0.6037 0.1771 0.1162
0.0000 0.0888 0.0000
0.0372 0.0982 0.0068
0.0771 0.1076 0.0162
0.1170 0.1170 0.0256
0.1569 0.1264 0.0350
0.1967 0.1358 0.0444
0.2366 0.1452 0.0538
0.2765 0.1546 0.0632
0.3163 0.1640 0.0726
0.3562 0.1734 0.0820
0.3961 0.1828 0.0914
0.4359 0.1922 0.1008
0.4758 0.2016 0.1102
0.5157 0.2110 0.1196
0.5556 0.2204 0.1290
0.5954 0.2298 0.1384
0.6353 0.2392 0.1478
0.0290 0.1509 0.0290
0.0689 0.1603 0.0384
0.1087 0.1697 0.0478
0.1486 0.1791 0.0572
0.1885 0.1885 0.0666
0.2283 0.1979 0.0760
0.2682 0.2073 0.0854
0.3081 0.2167 0.0948
0.3480 0.2261 0.1042
0.3878 0.2355 0.1136
0.4277 0.2449 0.1230
0.4676 0.2543 0.1324
0.5074 0.2637 0.1418
0.5473 0.2731 0.1512
0.5872 0.2825 0.1606
0.6270 0.2919 0.1700
0.6669 0.3013 0.1794
0.0606 0.2130 0.0606
0.1005 0.2224 0.0700
0.1404 0.2318 0.0794
0.1802 0.2412 0.0888
0.2201 0.2506 0.0982
0.2600 0.2600 0.1076
0.2998 0.2694 0.1170
0.3397 0.2788 0.1264
0.3796 0.2882 0.1358
0.4195 0.2976 0.1452
0.4593 0.3070 0.1546
0.4992 0.3164 0.1640
0.5391 0.3258 0.1734
0.5789 0.3352 0.1828
0.6188 0.3446 0.1922
0.6587 0.3540 0.2016
0.6985 0.3634 0.2110
0.0923 0.2751 0.0923
0.1321 0.2845 0.1017
0.1720 0.2939 0.1111
0.2119 0.3033 0.1205
0.2517 0.3127 0.1299
0.2916 0.3221 0.1393
0.3315 0.3315 0.1487
0.3713 0.3409 0.1581
0.4112 0.3503 0.1675
0.4511 0.3597 0.1769
0.4909 0.3691 0.1863
0.5308 0.3785 0.1957
0.5707 0.3879 0.2051
0.6106 0.3973 0.2145
0.6504 0.4067 0.2239
0.6903 0.4161 0.2333
0.7302 0.4255 0.2427
0.1239 0.3372 0.1239
0.1637 0.3466 0.1333
0.2036 0.3560 0.1427
0.2435 0.3654 0.1521
0.2834 0.3748 0.1615
0.3232 0.3842 0.1709
0.3631 0.3936 0.1803
0.4030 0.4030 0.1897
0.4428 0.4124 0.1991
0.4827 0.4218 0.2085
0.5226 0.4312 0.2179
0.5624 0.4406 0.2273
0.6023 0.4500 0.2367
0.6422 0.4594 0.2461
0.6821 0.4688 0.2555
0.7219 0.4782 0.2649
0.7618 0.4876 0.2743
0.1555 0.3993 0.1555
0.1954 0.4087 0.1649
0.2352 0.4181 0.1743
0.2751 0.4275 0.1837
0.3150 0.4369 0.1931
0.3549 0.4463 0.2025
0.3947 0.4557 0.2119
0.4346 0.4651 0.2213
0.4745 0.4745 0.2307
0.5143 0.4839 0.2401
0.5542 0.4933 0.2495
0.5941 0.5027 0.2589
0.6339 0.5121 0.2683
0.6738 0.5215 0.2777
0.7137 0.5309 0.2871
0.7535 0.5403 0.2965
0.7934 0.5497 0.3059
0.1871 0.4613 0.1871
0.2270 0.4707 0.1965
0.2669 0.4801 0.2059
0.3067 0.4895 0.2153
0.3466 0.4989 0.2247
0.3865 0.5084 0.2341
0.4263 0.5178 0.2435
0.4662 0.5272 0.2529
0.5061 0.5366 0.2623
0.5460 0.5460 0.2717
0.5858 0.5554 0.2811
0.6257 0.5648 0.2905
0.6656 0.5742 0.2999
0.7054 0.5836 0.3093
0.7453 0.5930 0.3187
0.7852 0.6024 0.3281
0.8250 0.6118 0.3375
0.2188 0.5234 0.2188
0.2586 0.5328 0.2282
0.2985 0.5422 0.2376
0.3384 0.5516 0.2470
0.3782 0.5610 0.2564
0.4181 0.5704 0.2658
0.4580 0.5798 0.2752
0.4978 0.5892 0.2846
0.5377 0.5986 0.2940
0.5776 0.6080 0.3034
0.6174 0.6174 0.3128
0.6573 0.6268 0.3222
0.6972 0.6363 0.3316
0.7371 0.6457 0.3410
0.7769 0.6551 0.3504
0.8168 0.6645 0.3598
0.8567 0.6739 0.3692
0.2504 0.5855 0.2504
0.2902 0.5949 0.2598
0.3301 0.6043 0.2692
0.3700 0.6137 0.2786
0.4099 0.6231 0.2880
0.4497 0.6325 0.2974
0.4896 0.6419 0.3068
0.5295 0.6513 0.3162
0.5693 0.6607 0.3256
0.6092 0.6701 0.3350
0.6491 0.6795 0.3444
0.6889 0.6889 0.3538
0.7288 0.6983 0.3632
0.7687 0.7077 0.3726
0.8086 0.7171 0.3820
0.8484 0.7265 0.3914
0.8883 0.7359 0.4008
0.2820 0.6476 0.2820
0.3219 0.6570 0.2914
0.3617 0.6664 0.3008
0.4016 0.6758 0.3102
0.4415 0.6852 0.3196
0.4814 0.6946 0.3290
0.5212 0.7040 0.3384
0.5611 0.7134 0.3478
0.6010 0.7228 0.3572
0.6408 0.7322 0.3666
0.6807 0.7416 0.3760
0.7206 0.7510 0.3854
0.7604 0.7604 0.3948
0.8003 0.7698 0.4042
0.8402 0.7792 0.4136
0.8800 0.7886 0.4230
0.9199 0.7980 0.4324
0.3136 0.7097 0.3136
0.3535 0.7191 0.3230
0.3934 0.7285 0.3324
0.4332 0.7379 0.3418
0.4731 0.7473 0.3512
0.5130 0.7567 0.3606
0.5528 0.7661 0.3700
0.5927 0.7755 0.3794
0.6326 0.7849 0.3888
0.6725 0.7943 0.3982
0.7123 0.8037 0.4076
0.7522 0.8131 0.4170
0.7921 0.8225 0.4264
0.8319 0.8319 0.4358
0.8718 0.8413 0.4452
0.9117 0.8507 0.4546
0.9515 0.8601 0.4640
0.3453 0.7718 0.3453
0.3851 0.7812 0.3547
0.4250 0.7906 0.3641
0.4649 0.8000 0.3735
0.5047 0.8094 0.3829
0.5446 0.8188 0.3923
0.5845 0.8282 0.4017
0.6243 0.8376 0.4111
0.6642 0.8470 0.4205
0.7041 0.8564 0.4299
0.7440 0.8658 0.4393
0.7838 0.8752 0.4487
0.8237 0.8846 0.4581
0.8636 0.8940 0.4675
0.9034 0.9034 0.4769
0.9433 0.9128 0.4863
0.9832 0.9222 0.4957
0.3769 0.8339 0.3769
0.4167 0.8433 0.3863
0.4566 0.8527 0.3957
0.4965 0.8621 0.4051
0.5364 0.8715 0.4145
0.5762 0.8809 0.4239
0.6161 0.8903 0.4333
0.6560 0.8997 0.4427
0.6958 0.9091 0.4521
0.7357 0.9185 0.4615
0.7756 0.9279 0.4709
0.8154 0.9373 0.4803
0.8553 0.9467 0.4897
0.8952 0.9561 0.4991
0.9351 0.9655 0.5085
0.9749 0.9749 0.5179
1.0000 0.9843 0.5273
0.4085 0.8960 0.4085
0.4484 0.9054 0.4179
0.4882 0.9148 0.4273
0.5281 0.9242 0.4367
0.5680 0.9336 0.4461
0.6079 0.9430 0.4555
0.6477 0.9524 0.4649
0.6876 0.9618 0.4743
0.7275 0.9712 0.4837
0.7673 0.9806 0.4931
0.8072 0.9900 0.5025
0.8471 0.9994 0.5119
0.8869 1.0000 0.5213
0.9268 1.0000 0.5307
0.9667 1.0000 0.5401
1.0000 1.0000 0.5495
1.0000 1.0000 0.5589
0.0000 0.0000 0.0000
0.0000 0.0000 0.0000
0.0000 0.0000 0.0000
0.0253 0.0000 0.0000
0.0652 0.0000 0.0000
0.1050 0.0000 0.0000
0.1449 0.0000 0.0000
0.1848 0.0000 0.0020
0.2246 0.0000 0.0114
0.2645 0.0000 0.0208
0.3044 0.0000 0.0302
0.3443 0.0091 0.0396
0.3841 0.0185 0.0490
0.4240 0.0279 0.0584
0.4639 0.0373 0.0678
0.5037 0.0467 0.0772
0.5436 0.0561 0.0866
0.0000 0.0000 0.0000
0.0000 0.0000 0.0000
0.0171 0.0000 0.0000
0.0569 0.0000 0.0000
0.0968 0.0054 0.0054
0.1367 0.0148 0.0148
0.1765 0.0242 0.0242
0.2164 0.0336 0.0336
0.2563 0.0430 0.0430
0.2961 0.0524 0.0524
0.3360 0.0618 0.0618
0.3759 0.0712 0.0712
0.4158 0.0806 0.0806
0.4556 0.0900 0.0900
0.4955 0.0994 0.0994
0.5354 0.1088 0.1088
0.5752 0.1182 0.1182
0.0000 0.0299 0.0000
0.0088 0.0393 0.0088
0.0487 0.0487 0.0182
0.0886 0.0581 0.0276
0.1284 0.0675 0.0370
0.1683 0.0769 0.0464
0.2082 0.0863 0.0558
0.2480 0.0957 0.0652
0.2879 0.1051 0.0746
0.3278 0.1145 0.0840
0.3676 0.1239 0.0934
0.4075 0.1333 0.1028
0.4474 0.1427 0.1122
0.4872 0.1521 0.1216
0.5271 0.1615 0.1310
0.5670 0.1709 0.1404
0.6069 0.1803 0.1498
0.0006 0.0920 0.0310
0.0404 0.1014 0.0404
0.0803 0.1108 0.0498
0.1202 0.1202 0.0592
0.1600 0.1296 0.0686
0.1999 0.1390 0.0780
0.2398 0.1484 0.0874
0.2797 0.1578 0.0968
0.3195 0.1672 0.1062
0.3594 0.1766 0.1156
0.3993 0.1860 0.1250
0.4391 0.1954 0.1344
0.4790 0.2048 0.1438
0.5189 0.2142 0.1532
0.5587 0.2236 0.1626
0.5986 0.2330 0.1721
0.6385 0.2424 0.1815
0.0322 0.1541 0.0627
0.0721 0.1635 0.0721
0.1119 0.1729 0.0815
0.1518 0.1823 0.0909
0.1917 0.1917 0.1003
0.2315 0.2011 0.1097
0.2714 0.2105 0.1191
0.3113 0.2199 0.1285
0.3512 0.2293 0.1379
0.3910 0.2387 0.1473
0.4309 0.2481 0.1567
0.4708 0.2575 0.1661
0.5106 0.2669 0.1755
0.5505 0.2763 0.1849
0.5904 0.2857 0.1943
0.6302 0.2951 0.2037
0.6701 0.3045 0.2131
0.0638 0.2162 0.0943
0.1037 0.2256 0.1037
0.1436 0.2350 0.1131
0.1834 0.2444 0.1225
0.2233 0.2538 0.1319
0.2632 0.2632 0.1413
0.3030 0.2726 0.1507
0.3429 0.2820 0.1601
0.3828 0.2914 0.1695
0.4226 0.3008 0.1789
0.4625 0.3102 0.1883
0.5024 0.3196 0.1977
0.5423 0.3290 0.2071
0.5821 0.3384 0.2165
0.6220 0.3478 0.2259
0.6619 0.3572 0.2353
0.7017 0.3666 0.2447
0.0954 0.2783 0.1259
0.1353 0.2877 0.1353
0.1752 0.2971 0.1447
0.2151 0.3065 0.1541
0.2549 0.3159 0.1635
0.2948 0.3253 0.1729
0.3347 0.3347 0.1823
0.3745 0.3441 0.1917
0.4144 0.3535 0.2011
0.4543 0.3629 0.2105
0.4941 0.3723 0.2199
0.5340 0.3817 0.2293
0.5739 0.3911 0.2387
0.6137 0.4005 0.2481
0.6536 0.4099 0.2575
0.6935 0.4193 0.2669
0.7334 0.4287 0.2763
0.1271 0.3404 0.1575
0.1669 0.3498 0.1669
0.2068 0.3592 0.1763
0.2467 0.3686 0.1857
0.2865 0.3780 0.1951
0.3264 0.3874 0.2045
0.3663 0.3968 0.2139
0.4062 0.4062 0.2233
0.4460 0.4156 0.2327
0.4859 0.4250 0.2421
0.5258 0.4344 0.2515
0.5656 0.4438 0.2609
0.6055 0.4532 0.2703
0.6454 0.4626 0.2797
0.6852 0.4720 0.2892
0.7251 0.4814 0.2986
0.7650 0.4908 0.3080
0.1587 0.4024 0.1892
0.1986 0.4118 0.1986
0.2384 0.4212 0.2080
0.2783 0.4306 0.2174
0.3182 0.4400 0.2268
0.3580 0.4494 0.2362
0.3979 0.4589 0.2456
0.4378 0.4683 0.2550
0.4777 0.4777 0.2644
0.5175 0.4871 0.2738
0.5574 0.4965 0.2832
0.5973 0.5059 0.2926
0.6371 0.5153 0.3020
0.6770 0.5247 0.3114
0.7169 0.5341 0.3208
0.7567 0.5435 0.3302
0.7966 0.5529 0.3396
0.1903 0.4645 0.2208
0.2302 0.4739 0.2302
0.2701 0.4833 0.2396
0.3099 0.4927 0.2490
0.3498 0.5021 0.2584
0.3897 0.5115 0.2678
0.4295 0.5209 0.2772
0.4694 0.5303 0.2866
0.5093 0.5397 0.2960
0.5491 0.5491 0.3054
0.5890 0.5585 0.3148
0.6289 0.5679 0.3242
0.6688 0.5773 0.3336
0.7086 0.5868 0.3430
0.7485 0.5962 0.3524
0.7884 0.6056 0.3618
0.8282 0.6150 0.3712
0.2219 0.5266 0.2524
0.2618 0.5360 0.2618
0.3017 0.5454 0.2712
0.3416 0.5548 0.2806
0.3814 0.5642 0.2900
0.4213 0.5736 0.2994
0.4612 0.5830 0.3088
0.5010 0.5924 0.3182
0.5409 0.6018 0.3276
0.5808 0.6112 0.3370
0.6206 0.6206 0.3464
0.6605 0.6300 0.3558
0.7004 0.6394 0.3652
0.7403 0.6488 0.3746
0.7801 0.6582 0.3840
0.8200 0.6676 0.3934
0.8599 0.6770 0.4028
0.2536 0.5887 0.2840
0.2934 0.5981 0.2934
0.3333 0.6075 0.3028
0.3732 0.6169 0.3122
0.4130 0.6263 0.3216
0.4529 0.6357 0.3310
0.4928 0.6451 0.3404
0.5327 0.6545 0.3498
0.5725 0.6639 0.3592
0.6124 0.6733 0.3686
0.6523 0.6827 0.3780
0.6921 0.6921 0.3874
0.7320 0.7015 0.3968
0.7719 0.7109 0.4063
0.8117 0.7203 0.4157
0.8516 0.7297 0.4251
0.8915 0.7391 0.4345
0.2852 0.6508 0.3157
0.3251 0.6602 0.3251
0.3649 0.6696 0.3345
0.4048 0.6790 0.3439
0.4447 0.6884 0.3533
0.4845 0.6978 0.3627
0.5244 0.7072 0.3721
0.5643 0.7166 0.3815
0.6042 0.7260 0.3909
0.6440 0.7354 0.4003
0.6839 0.7448 0.4097
0.7238 0.7542 0.4191
0.7636 0.7636 0.4285
0.8035 0.7730 0.4379
0.8434 0.7824 0.4473
0.8832 0.7918 0.4567
0.9231 0.8012 0.4661
0.3168 0.7129 0.3473
0.3567 0.7223 0.3567
0.3966 0.7317 0.3661
0.4364 0.7411 0.3755
0.4763 0.7505 0.3849
0.5162 0.7599 0.3943
0.5560 0.7693 0.4037
0.5959 0.7787 0.4131
0.6358 0.7881 0.4225
0.6756 0.7975 0.4319
0.7155 0.8069 0.4413
0.7554 0.8163 0.4507
0.7953 0.8257 0.4601
0.8351 0.8351 0.4695
0.8750 0.8445 0.4789
0.9149 0.8539 0.4883
0.9547 0.8633 0.4977
0.3484 0.7750 0.3789
0.3883 0.7844 0.3883
0.4282 0.7938 0.3977
0.4681 0.8032 0.4071
0.5079 0.8126 0.4165
0.5478 0.8220 0.4259
0.5877 0.8314 0.4353
0.6275 0.8408 0.4447
0.6674 0.8502 0.4541
0.7073 0.8596 0.4635
0.7471 0.8690 0.4729
0.7870 0.8784 0.4823
0.8269 0.8878 0.4917
0.8668 0.8972 0.5011
0.9066 0.9066 0.5105
0.9465 0.9160 0.5199
0.9864 0.9254 0.5293
0.3801 0.8371 0.4105
0.4199 0.8465 0.4199
0.4598 0.8559 0.4293
0.4997 0.8653 0.4387
0.5395 0.8747 0.4481
0.5794 0.8841 0.4575
0.6193 0.8935 0.4669
0.6592 0.9029 0.4763
0.6990 0.9123 0.4857
0.7389 0.9217 0.4951
0.7788 0.9311 0.5045
0.8186 0.9405 0.5140
0.8585 0.9499 0.5234
0.8984 0.9593 0.5328
0.9382 0.9687 0.5422
0.9781 0.9781 0.5516
1.0000 0.9875 0.5610
0.4117 0.8992 0.4422
0.4516 0.9086 0.4516
0.4914 0.9180 0.4610
0.5313 0.9274 0.4704
0.5712 0.9368 0.4798
0.6110 0.9462 0.4892
0.6509 0.9556 0.4986
0.6908 0.9650 0.5080
0.7307 0.9744 0.5174
0.7705 0.9838 0.5268
0.8104 0.9932 0.5362
0.8503 1.0000 0.5456
0.8901 1.0000 0.5550
0.9300 1.0000 0.5644
0.9699 1.0000 0.5738
1.0000 1.0000 0.5832
1.0000 1.0000 0.5926
0.0000 0.0000 0.0000
0.0000 0.0000 0.0000
0.0000 0.0000 0.0000
0.0285 0.0000 0.0000
0.0684 0.0000 0.0074
0.1082 0.0000 0.0168
0.1481 0.0000 0.0262
0.1880 0.0000 0.0356
0.2278 0.0000 0.0450
0.2677 0.0000 0.0544
0.3076 0.0029 0.0638
0.3475 0.0123 0.0732
0.3873 0.0217 0.0826
0.4272 0.0311 0.0920
0.4671 0.0405 0.1014
0.5069 0.0499 0.1108
0.5468 0.0593 0.1202
0.0000 0.0000 0.0014
0.0000 0.0000 0.0108
0.0202 0.0000 0.0202
0.0601 0.0000 0.0297
0.1000 0.0086 0.0391
0.1399 0.0180 0.0485
0.1797 0.0274 0.0579
0.2196 0.0368 0.0673
0.2595 0.0462 0.0767
0.2993 0.0556 0.0861
0.3392 0.0650 0.0955
0.3791 0.0744 0.1049
0.4189 0.0838 0.1143
0.4588 0.0932 0.1237
0.4987 0.1026 0.1331
0.5386 0.1120 0.1425
0.5784 0.1214 0.1519
0.0000 0.0331 0.0331
0.0120 0.0425 0.0425
0.0519 0.0519 0.0519
0.0917 0.0613 0.0613
0.1316 0.0707 0.0707
0.1715 0.0801 0.0801
0.2114 0.0895 0.0895
0.2512 0.0989 0.0989
0.2911 0.1083 0.1083
0.3310 0.1177 0.1177
0.3708 0.1271 0.1271
0.4107 0.1365 0.1365
0.4506 0.1459 0.1459
0.4904 0.1553 0.1553
0.5303 0.1647 0.1647
0.5702 0.1741 0.1741
0.6101 0.1835 0.1835
0.0038 0.0952 0.0647
0.0436 0.1046 0.0741
0.0835 0.1140 0.0835
0.1234 0.1234 0.0929
0.1632 0.1328 0.1023
0.2031 0.1422 0.1117
0.2430 0.1516 0.1211
0.2828 0.1610 0.1305
0.3227 0.1704 0.1399
0.3626 0.1798 0.1493
0.4025 0.1892 0.1587
0.4423 0.1986 0.1681
0.4822 0.2080 0.1775
0.5221 0.2174 0.1869
0.5619 0.2268 0.1963
0.6018 0.2362 0.2057
0.6417 0.2456 0.2151
0.0354 0.1573 0.0963
0.0753 0.1667 0.1057
0.1151 0.1761 0.1151
0.1550 0.1855 0.1245
0.1949 0.1949 0.1339
0.2347 0.2043 0.1433
0.2746 0.2137 0.1527
0.3145 0.2231 0.1621
0.3543 0.2325 0.1715
0.3942 0.2419 0.1809
0.4341 0.2513 0.1903
0.4740 0.2607 0.1997
0.5138 0.2701 0.2091
0.5537 0.2795 0.2185
0.5936 0.2889 0.2279
0.6334 0.2983 0.2373
0.6733 0.3077 0.2467
0.0670 0.2194 0.1279
0.1069 0.2288 0.1373
0.1468 0.2382 0.1468
0.1866 0.2476 0.1562
0.2265 0.2570 0.1656
0.2664 0.2664 0.1750
0.3062 0.2758 0.1844
0.3461 0.2852 0.1938
0.3860 0.2946 0.2032
0.4258 0.3040 0.2126
0.4657 0.3134 0.2220
0.5056 0.3228 0.2314
0.5454 0.3322 0.2408
0.5853 0.3416 0.2502
0.6252 0.3510 0.2596
0.6651 0.3604 0.2690
0.7049 0.3698 0.2784
0.0986 0.2814 0.1596
0.1385 0.2909 0.1690
0.1784 0.3003 0.1784
0.2182 0.3097 0.1878
0.2581 0.3191 0.1972
0.2980 0.3285 0.2066
0.3379 0.3379 0.2160
0.3777 0.3473 0.2254
0.4176 0.3567 0.2348
0.4575 0.3661 0.2442
0.4973 0.3755 0.2536
0.5372 0.3849 0.2630
0.5771 0.3943 0.2724
0.6169 0.4037 0.2818
0.6568 0.4131 0.2912
0.6967 0.4225 0.3006
0.7366 0.4319 0.3100
0.1303 0.3435 0.1912
0.1701 0.3529 0.2006
0.2100 0.3623 0.2100
0.2499 0.3717 0.2194
0.2897 0.3811 0.2288
0.3296 0.3905 0.2382
0.3695 0.3999 0.2476
0.4093 0.4093 0.2570
0.4492 0.4188 0.2664
0.4891 0.4282 0.2758
0.5290 0.4376 0.2852
0.5688 0.4470 0.2946
0.6087 0.4564 0.3040
0.6486 0.4658 0.3134
0.6884 0.4752 0.3228
0.7283 0.4846 0.3322
0.7682 0.4940 0.3416
0.1619 0.4056 0.2228
0.2018 0.4150 0.2322
0.2416 0.4244 0.2416
0.2815 0.4338 0.2510
0.3214 0.4432 0.2604
0.3612 0.4526 0.2698
0.4011 0.4620 0.2792
0.4410 0.4714 0.2886
0.4808 0.4808 0.2980
0.5207 0.4902 0.3074
0.5606 0.4996 0.3168
0.6005 0.5090 0.3262
0.6403 0.5184 0.3356
0.6802 0.5278 0.3450
0.7201 0.5372 0.3544
0.7599 0.5467 0.3638
0.7998 0.5561 0.3732
0.1935 0.4677 0.2544
0.2334 0.4771 0.2639
0.2733 0.4865 0.2733
0.3131 0.4959 0.2827
0.3530 0.5053 0.2921
0.3929 0.5147 0.3015
0.4327 0.5241 0.3109
0.4726 0.5335 0.3203
0.5125 0.5429 0.3297
0.5523 0.5523 0.3391
0.5922 0.5617 0.3485
0.6321 0.5711 0.3579
0.6719 0.5805 0.3673
0.7118 0.5899 0.3767
0.7517 0.5993 0.3861
0.7916 0.6087 0.3955
0.8314 0.6181 0.4049
0.2251 0.5298 0.2861
0.2650 0.5392 0.2955
0.3049 0.5486 0.3049
0.3447 0.5580 0.3143
0.3846 0.5674 0.3237
0.4245 0.5768 0.3331
0.4644 0.5862 0.3425
0.5042 0.5956 0.3519
0.5441 0.6050 0.3613
0.5840 0.6144 0.3707
0.6238 0.6238 0.3801
0.6637 0.6332 0.3895
0.7036 0.6426 0.3989
0.7434 0.6520 0.4083
0.7833 0.6614 0.4177
0.8232 0.6708 0.4271
0.8631 0.6802 0.4365
0.2568 0.5919 0.3177
0.2966 0.6013 0.3271
0.3365 0.6107 0.3365
0.3764 0.6201 0.3459
0.4162 0.6295 0.3553
0.4561 0.6389 0.3647
0.4960 0.6483 0.3741
0.5359 0.6577 0.3835
0.5757 0.6671 0.3929
0.6156 0.6765 0.4023
0.6555 0.6859 0.4117
0.6953 0.6953 0.4211
0.7352 0.7047 0.4305
0.7751 0.7141 0.4399
0.8149 0.7235 0.4493
0.8548 0.7329 0.4587
0.8947 0.7423 0.4681
0.2884 0.6540 0.3493
0.3283 0.6634 0.3587
0.3681 0.6728 0.3681
0.4080 0.6822 0.3775
0.4479 0.6916 0.3869
0.4877 0.7010 0.3963
0.5276 0.7104 0.4057
0.5675 0.7198 0.4151
0.6073 0.7292 0.4245
0.6472 0.7386 0.4339
0.6871 0.7480 0.4433
0.7270 0.7574 0.4527
0.7668 0.7668 0.4621
0.8067 0.7762 0.4715
0.8466 0.7856 0.4809
0.8864 0.7950 0.4903
0.9263 0.8044 0.4997
0.3200 0.7161 0.3810
0.3599 0.7255 0.3904
0.3998 0.7349 0.3998
0.4396 0.7443 0.4092
0.4795 0.7537 0.4186
0.5194 0.7631 0.4280
0.5592 0.7725 0.4374
0.5991 0.7819 0.4468
0.6390 0.7913 0.4562
0.6788 0.8007 0.4656
0.7187 0.8101 0.4750
0.7586 0.8195 0.4844
0.7984 0.8289 0.4938
0.8383 0.8383 0.5032
0.8782 0.8477 0.5126
0.9181 0.8571 0.5220
0.9579 0.8665 0.5314
0.3516 0.7782 0.4126
0.3915 0.7876 0.4220
0.4314 0.7970 0.4314
0.4712 0.8064 0.4408
0.5111 0.8158 0.4502
0.5510 0.8252 0.4596
0.5909 0.8346 0.4690
0.6307 0.8440 0.4784
0.6706 0.8534 0.4878
0.7105 0.8628 0.4972
0.7503 0.8722 0.5066
0.7902 0.8816 0.5160
0.8301 0.8910 0.5254
0.8699 0.9004 0.5348
0.9098 0.9098 0.5442
0.9497 0.9192 0.5536
0.9896 0.9286 0.5630
0.3833 0.8403 0.4442
0.4231 0.8497 0.4536
0.4630 0.8591 0.4630
0.5029 0.8685 0.4724
0.5427 0.8779 0.4818
0.5826 0.8873 0.4912
0.6225 0.8967 0.5006
0.6624 0.9061 0.5100
0.7022 0.9155 0.5194
0.7421 0.9249 0.5288
0.7820 0.9343 0.5382
0.8218 0.9437 0.5476
0.8617 0.9531 0.5570
0.9016 0.9625 0.5664
0.9414 0.9719 0.5758
0.9813 0.9813 0.5852
1.0000 0.9907 0.5946
0.4149 0.9024 0.4758
0.4548 0.9118 0.4852
0.4946 0.9212 0.4946
0.5345 0.9306 0.5040
0.5744 0.9400 0.5134
0.6142 0.9494 0.5228
0.6541 0.9588 0.5322
0.6940 0.9682 0.5416
0.7338 0.9776 0.5510
0.7737 0.9870 0.5604
0.8136 0.9964 0.5698
0.8535 1.0000 0.5792
0.8933 1.0000 0.5886
0.9332 1.0000 0.5980
0.9731 1.0000 0.6074
1.0000 1.0000 0.6168
1.0000 1.0000 0.6262
0.0000 0.0000 0.0035
0.0000 0.0000 0.0129
0.0000 0.0000 0.0223
0.0317 0.0000 0.0317
0.0716 0.0000 0.0411
0.1114 0.0000 0.0505
0.1513 0.0000 0.0599
0.1912 0.0000 0.0693
0.2310 0.0000 0.0787
0.2709 0.0000 0.0881
0.3108 0.0061 0.0975
0.3506 0.0155 0.1069
0.3905 0.0249 0.1163
0.4304 0.0343 0.1257
0.4703 0.0437 0.1351
0.5101 0.0531 0.1445
0.5500 0.0625 0.1539
0.0000 0.0000 0.0351
0.0000 0.0000 0.0445
0.0234 0.0000 0.0539
0.0633 0.0024 0.0633
0.1032 0.0118 0.0727
0.1431 0.0212 0.0821
0.1829 0.0306 0.0915
0.2228 0.0400 0.1009
0.2627 0.0494 0.1103
0.3025 0.0588 0.1197
0.3424 0.0682 0.1291
0.3823 0.0776 0.1385
0.4221 0.0870 0.1479
0.4620 0.0964 0.1573
0.5019 0.1058 0.1667
0.5417 0.1152 0.1761
