luts/bleach.cube
# edite look: Bleach (CC0)
TITLE "Bleach"
LUT_3D_SIZE 5
DOMAIN_MIN 0.0 0.0 0.0
DOMAIN_MAX 1.0 1.0 1.0
0.0000 0.0000 0.0000
0.0620 0.0000 0.0000
0.2215 0.0000 0.0000
0.3809 0.0153 0.0153
0.5404 0.0529 0.0529
0.0290 0.1509 0.0290
0.1885 0.1885 0.0666
0.3480 0.2261 0.1042
0.5074 0.2637 0.1418
0.6669 0.3013 0.1794
0.1555 0.3993 0.1555
0.3150 0.4369 0.1931
0.4745 0.4745 0.2307
0.6339 0.5121 0.2683
0.7934 0.5497 0.3059
0.2820 0.6476 0.2820
0.4415 0.6852 0.3196
0.6010 0.7228 0.3572
0.7604 0.7604 0.3948
0.9199 0.7980 0.4324
0.4085 0.8960 0.4085
0.5680 0.9336 0.4461
0.7275 0.9712 0.4837
0.8869 1.0000 0.5213
1.0000 1.0000 0.5589
0.0000 0.0000 0.0371
0.0747 0.0000 0.0747
0.2342 0.0000 0.1124
0.3937 0.0281 0.1500
0.5532 0.0657 0.1876
0.0418 0.1636 0.1636
0.2013 0.2013 0.2013
0.3607 0.2389 0.2389
0.5202 0.2765 0.2765
0.6797 0.3141 0.3141
0.1683 0.4120 0.2901
0.3278 0.4496 0.3278
0.4872 0.4872 0.3654
0.6467 0.5248 0.4030
0.8062 0.5624 0.4406
0.2948 0.6604 0.4166
0.4543 0.6980 0.4543
0.6137 0.7356 0.4919
0.7732 0.7732 0.5295
0.9327 0.8108 0.5671
0.4213 0.9088 0.5431
0.5808 0.9464 0.5808
0.7402 0.9840 0.6184
0.8997 1.0000 0.6560
1.0000 1.0000 0.6936
0.0000 0.0000 0.1718
0.0875 0.0000 0.2094
0.2470 0.0032 0.2470
0.4065 0.0409 0.2846
0.5660 0.0785 0.3222
0.0545 0.1764 0.2983
0.2140 0.2140 0.3359
0.3735 0.2516 0.3735
0.5330 0.2892 0.4111
0.6925 0.3268 0.4487
0.1810 0.4248 0.4248
0.3405 0.4624 0.4624
0.5000 0.5000 0.5000
0.6595 0.5376 0.5376
0.8190 0.5752 0.5752
0.3075 0.6732 0.5513
0.4670 0.7108 0.5889
0.6265 0.7484 0.6265
0.7860 0.7860 0.6641
0.9455 0.8236 0.7017
0.4340 0.9215 0.6778
0.5935 0.9591 0.7154
0.7530 0.9968 0.7530
0.9125 1.0000 0.7906
1.0000 1.0000 0.8282
0.0000 0.0000 0.3064
0.1003 0.0000 0.3440
0.2598 0.0160 0.3816
0.4192 0.0536 0.4192
0.5787 0.0912 0.4569
0.0673 0.1892 0.4329
0.2268 0.2268 0.4705
0.3863 0.2644 0.5081
0.5457 0.3020 0.5457
0.7052 0.3396 0.5834
0.1938 0.4376 0.5594
0.3533 0.4752 0.5970
0.5128 0.5128 0.6346
0.6722 0.5504 0.6722
0.8317 0.5880 0.7099
0.3203 0.6859 0.6859
0.4798 0.7235 0.7235
0.6393 0.7611 0.7611
0.7987 0.7987 0.7987
0.9582 0.8364 0.8364
0.4468 0.9343 0.8124
0.6063 0.9719 0.8500
0.7658 1.0000 0.8876
0.9253 1.0000 0.9253
1.0000 1.0000 0.9629
0.0000 0.0000 0.4411
0.1131 0.0000 0.4787
0.2725 0.0288 0.5163
0.4320 0.0664 0.5539
0.5915 0.1040 0.5915
0.0801 0.2020 0.5676
0.2396 0.2396 0.6052
0.3990 0.2772 0.6428
0.5585 0.3148 0.6804
0.7180 0.3524 0.7180
0.2066 0.4503 0.6941
0.3661 0.4879 0.7317
0.5255 0.5255 0.7693
0.6850 0.5631 0.8069
0.8445 0.6007 0.8445
0.3331 0.6987 0.8206
0.4926 0.7363 0.8582
0.6520 0.7739 0.8958
0.8115 0.8115 0.9334
0.9710 0.8491 0.9710
0.4596 0.9471 0.9471
0.6191 0.9847 0.9847
0.7785 1.0000 1.0000
0.9380 1.0000 1.0000
1.0000 1.0000 1.0000
