luts/bleach.cube
# edite look: Bleach (CC0)
TITLE "Bleach"
LUT_3D_SIZE 9
DOMAIN_MIN 0.0 0.0 0.0
DOMAIN_MAX 1.0 1.0 1.0
0.0000 0.0000 0.0000
0.0000 0.0000 0.0000
0.0620 0.0000 0.0000
0.1417 0.0000 0.0000
0.2215 0.0000 0.0000
0.3012 0.0000 0.0000
0.3809 0.0153 0.0153
0.4607 0.0341 0.0341
0.5404 0.0529 0.0529
0.0000 0.0267 0.0000
0.0455 0.0455 0.0000
0.1252 0.0643 0.0034
0.2050 0.0831 0.0222
0.2847 0.1019 0.0410
0.3644 0.1207 0.0598
0.4442 0.1395 0.0786
0.5239 0.1583 0.0974
0.6037 0.1771 0.1162
0.0290 0.1509 0.0290
0.1087 0.1697 0.0478
0.1885 0.1885 0.0666
0.2682 0.2073 0.0854
0.3480 0.2261 0.1042
0.4277 0.2449 0.1230
0.5074 0.2637 0.1418
0.5872 0.2825 0.1606
0.6669 0.3013 0.1794
0.0923 0.2751 0.0923
0.1720 0.2939 0.1111
0.2517 0.3127 0.1299
0.3315 0.3315 0.1487
0.4112 0.3503 0.1675
0.4909 0.3691 0.1863
0.5707 0.3879 0.2051
0.6504 0.4067 0.2239
0.7302 0.4255 0.2427
0.1555 0.3993 0.1555
0.2352 0.4181 0.1743
0.3150 0.4369 0.1931
0.3947 0.4557 0.2119
0.4745 0.4745 0.2307
0.5542 0.4933 0.2495
0.6339 0.5121 0.2683
0.7137 0.5309 0.2871
0.7934 0.5497 0.3059
0.2188 0.5234 0.2188
0.2985 0.5422 0.2376
0.3782 0.5610 0.2564
0.4580 0.5798 0.2752
0.5377 0.5986 0.2940
0.6174 0.6174 0.3128
0.6972 0.6363 0.3316
0.7769 0.6551 0.3504
0.8567 0.6739 0.3692
0.2820 0.6476 0.2820
0.3617 0.6664 0.3008
0.4415 0.6852 0.3196
0.5212 0.7040 0.3384
0.6010 0.7228 0.3572
0.6807 0.7416 0.3760
0.7604 0.7604 0.3948
0.8402 0.7792 0.4136
0.9199 0.7980 0.4324
0.3453 0.7718 0.3453
0.4250 0.7906 0.3641
0.5047 0.8094 0.3829
0.5845 0.8282 0.4017
0.6642 0.8470 0.4205
0.7440 0.8658 0.4393
0.8237 0.8846 0.4581
0.9034 0.9034 0.4769
0.9832 0.9222 0.4957
0.4085 0.8960 0.4085
0.4882 0.9148 0.4273
0.5680 0.9336 0.4461
0.6477 0.9524 0.4649
0.7275 0.9712 0.4837
0.8072 0.9900 0.5025
0.8869 1.0000 0.5213
0.9667 1.0000 0.5401
1.0000 1.0000 0.5589
0.0000 0.0000 0.0000
0.0000 0.0000 0.0000
0.0684 0.0000 0.0074
0.1481 0.0000 0.0262
0.2278 0.0000 0.0450
0.3076 0.0029 0.0638
0.3873 0.0217 0.0826
0.4671 0.0405 0.1014
0.5468 0.0593 0.1202
0.0000 0.0331 0.0331
0.0519 0.0519 0.0519
0.1316 0.0707 0.0707
0.2114 0.0895 0.0895
0.2911 0.1083 0.1083
0.3708 0.1271 0.1271
0.4506 0.1459 0.1459
0.5303 0.1647 0.1647
0.6101 0.1835 0.1835
0.0354 0.1573 0.0963
0.1151 0.1761 0.1151
0.1949 0.1949 0.1339
0.2746 0.2137 0.1527
0.3543 0.2325 0.1715
0.4341 0.2513 0.1903
0.5138 0.2701 0.2091
0.5936 0.2889 0.2279
0.6733 0.3077 0.2467
0.0986 0.2814 0.1596
0.1784 0.3003 0.1784
0.2581 0.3191 0.1972
0.3379 0.3379 0.2160
0.4176 0.3567 0.2348
0.4973 0.3755 0.2536
0.5771 0.3943 0.2724
0.6568 0.4131 0.2912
0.7366 0.4319 0.3100
0.1619 0.4056 0.2228
0.2416 0.4244 0.2416
0.3214 0.4432 0.2604
0.4011 0.4620 0.2792
0.4808 0.4808 0.2980
0.5606 0.4996 0.3168
0.6403 0.5184 0.3356
0.7201 0.5372 0.3544
0.7998 0.5561 0.3732
0.2251 0.5298 0.2861
0.3049 0.5486 0.3049
0.3846 0.5674 0.3237
0.4644 0.5862 0.3425
0.5441 0.6050 0.3613
0.6238 0.6238 0.3801
0.7036 0.6426 0.3989
0.7833 0.6614 0.4177
0.8631 0.6802 0.4365
0.2884 0.6540 0.3493
0.3681 0.6728 0.3681
0.4479 0.6916 0.3869
0.5276 0.7104 0.4057
0.6073 0.7292 0.4245
0.6871 0.7480 0.4433
0.7668 0.7668 0.4621
0.8466 0.7856 0.4809
0.9263 0.8044 0.4997
0.3516 0.7782 0.4126
0.4314 0.7970 0.4314
0.5111 0.8158 0.4502
0.5909 0.8346 0.4690
0.6706 0.8534 0.4878
0.7503 0.8722 0.5066
0.8301 0.8910 0.5254
0.9098 0.9098 0.5442
0.9896 0.9286 0.5630
0.4149 0.9024 0.4758
0.4946 0.9212 0.4946
0.5744 0.9400 0.5134
0.6541 0.9588 0.5322
0.7338 0.9776 0.5510
0.8136 0.9964 0.5698
0.8933 1.0000 0.5886
0.9731 1.0000 0.6074
1.0000 1.0000 0.6262
0.0000 0.0000 0.0371
0.0000 0.0000 0.0559
0.0747 0.0000 0.0747
0.1545 0.0000 0.0936
0.2342 0.0000 0.1124
0.3140 0.0093 0.1312
0.3937 0.0281 0.1500
0.4734 0.0469 0.1688
0.5532 0.0657 0.1876
0.0000 0.0395 0.1004
0.0583 0.0583 0.1192
0.1380 0.0771 0.1380
0.2177 0.0959 0.1568
0.2975 0.1147 0.1756
0.3772 0.1335 0.1944
0.4570 0.1523 0.2132
0.5367 0.1711 0.2320
0.6164 0.1899 0.2508
0.0418 0.1636 0.1636
0.1215 0.1824 0.1824
0.2013 0.2013 0.2013
0.2810 0.2201 0.2201
0.3607 0.2389 0.2389
0.4405 0.2577 0.2577
0.5202 0.2765 0.2765
0.5999 0.2953 0.2953
0.6797 0.3141 0.3141
0.1050 0.2878 0.2269
0.1848 0.3066 0.2457
0.2645 0.3254 0.2645
0.3442 0.3442 0.2833
0.4240 0.3630 0.3021
0.5037 0.3818 0.3209
0.5835 0.4006 0.3397
0.6632 0.4194 0.3585
0.7429 0.4382 0.3773
0.1683 0.4120 0.2901
0.2480 0.4308 0.3089
0.3278 0.4496 0.3278
0.4075 0.4684 0.3466
0.4872 0.4872 0.3654
0.5670 0.5060 0.3842
0.6467 0.5248 0.4030
0.7264 0.5436 0.4218
0.8062 0.5624 0.4406
0.2315 0.5362 0.3534
0.3113 0.5550 0.3722
0.3910 0.5738 0.3910
0.4707 0.5926 0.4098
0.5505 0.6114 0.4286
0.6302 0.6302 0.4474
0.7100 0.6490 0.4662
0.7897 0.6678 0.4850
0.8694 0.6866 0.5038
0.2948 0.6604 0.4166
0.3745 0.6792 0.4355
0.4543 0.6980 0.4543
0.5340 0.7168 0.4731
0.6137 0.7356 0.4919
0.6935 0.7544 0.5107
0.7732 0.7732 0.5295
0.8529 0.7920 0.5483
0.9327 0.8108 0.5671
0.3580 0.7846 0.4799
0.4378 0.8034 0.4987
0.5175 0.8222 0.5175
0.5972 0.8410 0.5363
0.6770 0.8598 0.5551
0.7567 0.8786 0.5739
0.8365 0.8974 0.5927
0.9162 0.9162 0.6115
0.9959 0.9350 0.6303
0.4213 0.9088 0.5431
0.5010 0.9276 0.5620
0.5808 0.9464 0.5808
0.6605 0.9652 0.5996
0.7402 0.9840 0.6184
0.8200 1.0000 0.6372
0.8997 1.0000 0.6560
0.9794 1.0000 0.6748
1.0000 1.0000 0.6936
0.0000 0.0000 0.1045
0.0014 0.0000 0.1233
0.0811 0.0000 0.1421
0.1609 0.0000 0.1609
0.2406 0.0000 0.1797
0.3204 0.0157 0.1985
0.4001 0.0345 0.2173
0.4798 0.0533 0.2361
0.5596 0.0721 0.2549
0.0000 0.0458 0.1677
0.0646 0.0646 0.1865
0.1444 0.0834 0.2053
0.2241 0.1022 0.2241
0.3039 0.1211 0.2429
0.3836 0.1399 0.2617
0.4633 0.1587 0.2805
0.5431 0.1775 0.2993
0.6228 0.1963 0.3181
0.0482 0.1700 0.2310
0.1279 0.1888 0.2498
0.2076 0.2076 0.2686
0.2874 0.2264 0.2874
0.3671 0.2452 0.3062
0.4469 0.2640 0.3250
0.5266 0.2828 0.3438
0.6063 0.3016 0.3626
0.6861 0.3204 0.3814
0.1114 0.2942 0.2942
0.1911 0.3130 0.3130
0.2709 0.3318 0.3318
0.3506 0.3506 0.3506
0.4304 0.3694 0.3694
0.5101 0.3882 0.3882
0.5898 0.4070 0.4070
0.6696 0.4258 0.4258
0.7493 0.4446 0.4446
0.1747 0.4184 0.3575
0.2544 0.4372 0.3763
0.3341 0.4560 0.3951
0.4139 0.4748 0.4139
0.4936 0.4936 0.4327
0.5734 0.5124 0.4515
0.6531 0.5312 0.4703
0.7328 0.5500 0.4891
0.8126 0.5688 0.5079
0.2379 0.5426 0.4207
0.3176 0.5614 0.4395
0.3974 0.5802 0.4583
0.4771 0.5990 0.4771
0.5569 0.6178 0.4959
0.6366 0.6366 0.5147
0.7163 0.6554 0.5335
0.7961 0.6742 0.5523
0.8758 0.6930 0.5711
0.3012 0.6668 0.4840
0.3809 0.6856 0.5028
0.4606 0.7044 0.5216
0.5404 0.7232 0.5404
0.6201 0.7420 0.5592
0.6999 0.7608 0.5780
0.7796 0.7796 0.5968
0.8593 0.7984 0.6156
0.9391 0.8172 0.6344
0.3644 0.7910 0.5472
0.4441 0.8098 0.5660
0.5239 0.8286 0.5848
0.6036 0.8474 0.6036
0.6834 0.8662 0.6224
0.7631 0.8850 0.6412
0.8428 0.9038 0.6600
0.9226 0.9226 0.6788
1.0000 0.9414 0.6976
0.4277 0.9152 0.6105
0.5074 0.9340 0.6293
0.5871 0.9528 0.6481
0.6669 0.9716 0.6669
0.7466 0.9904 0.6857
0.8264 1.0000 0.7045
0.9061 1.0000 0.7233
0.9858 1.0000 0.7421
1.0000 1.0000 0.7609
0.0000 0.0000 0.1718
0.0078 0.0000 0.1906
0.0875 0.0000 0.2094
0.1673 0.0000 0.2282
0.2470 0.0032 0.2470
0.3267 0.0220 0.2658
0.4065 0.0409 0.2846
0.4862 0.0597 0.3034
0.5660 0.0785 0.3222
0.0000 0.0522 0.2350
0.0710 0.0710 0.2538
0.1508 0.0898 0.2726
0.2305 0.1086 0.2914
0.3102 0.1274 0.3102
0.3900 0.1462 0.3291
0.4697 0.1650 0.3479
0.5495 0.1838 0.3667
0.6292 0.2026 0.3855
0.0545 0.1764 0.2983
0.1343 0.1952 0.3171
0.2140 0.2140 0.3359
0.2938 0.2328 0.3547
0.3735 0.2516 0.3735
0.4532 0.2704 0.3923
0.5330 0.2892 0.4111
0.6127 0.3080 0.4299
0.6925 0.3268 0.4487
0.1178 0.3006 0.3615
0.1975 0.3194 0.3803
0.2773 0.3382 0.3991
0.3570 0.3570 0.4179
0.4367 0.3758 0.4367
0.5165 0.3946 0.4556
0.5962 0.4134 0.4744
0.6760 0.4322 0.4932
0.7557 0.4510 0.5120
0.1810 0.4248 0.4248
0.2608 0.4436 0.4436
0.3405 0.4624 0.4624
0.4203 0.4812 0.4812
0.5000 0.5000 0.5000
0.5797 0.5188 0.5188
0.6595 0.5376 0.5376
0.7392 0.5564 0.5564
0.8190 0.5752 0.5752
0.2443 0.5490 0.4880
0.3240 0.5678 0.5068
0.4038 0.5866 0.5256
0.4835 0.6054 0.5444
0.5633 0.6242 0.5633
0.6430 0.6430 0.5821
0.7227 0.6618 0.6009
0.8025 0.6806 0.6197
0.8822 0.6994 0.6385
0.3075 0.6732 0.5513
0.3873 0.6920 0.5701
0.4670 0.7108 0.5889
0.5468 0.7296 0.6077
0.6265 0.7484 0.6265
0.7062 0.7672 0.6453
0.7860 0.7860 0.6641
0.8657 0.8048 0.6829
0.9455 0.8236 0.7017
0.3708 0.7974 0.6145
0.4505 0.8162 0.6333
0.5303 0.8350 0.6521
0.6100 0.8538 0.6709
0.6898 0.8726 0.6898
0.7695 0.8914 0.7086
0.8492 0.9102 0.7274
0.9290 0.9290 0.7462
1.0000 0.9478 0.7650
0.4340 0.9215 0.6778
0.5138 0.9403 0.6966
0.5935 0.9591 0.7154
0.6733 0.9780 0.7342
0.7530 0.9968 0.7530
0.8327 1.0000 0.7718
0.9125 1.0000 0.7906
0.9922 1.0000 0.8094
1.0000 1.0000 0.8282
0.0000 0.0000 0.2391
0.0142 0.0000 0.2579
0.0939 0.0000 0.2767
0.1736 0.0000 0.2955
0.2534 0.0096 0.3143
0.3331 0.0284 0.3331
0.4129 0.0472 0.3519
0.4926 0.0660 0.3707
0.5723 0.0848 0.3895
0.0000 0.0586 0.3024
0.0774 0.0774 0.3212
0.1572 0.0962 0.3400
0.2369 0.1150 0.3588
0.3166 0.1338 0.3776
0.3964 0.1526 0.3964
0.4761 0.1714 0.4152
0.5559 0.1902 0.4340
0.6356 0.2090 0.4528
0.0609 0.1828 0.3656
0.1407 0.2016 0.3844
0.2204 0.2204 0.4032
0.3001 0.2392 0.4220
0.3799 0.2580 0.4408
0.4596 0.2768 0.4596
0.5394 0.2956 0.4784
0.6191 0.3144 0.4972
0.6988 0.3332 0.5160
0.1242 0.3070 0.4289
0.2039 0.3258 0.4477
0.2837 0.3446 0.4665
0.3634 0.3634 0.4853
0.4431 0.3822 0.5041
0.5229 0.4010 0.5229
0.6026 0.4198 0.5417
0.6824 0.4386 0.5605
0.7621 0.4574 0.5793
0.1874 0.4312 0.4921
0.2672 0.4500 0.5109
0.3469 0.4688 0.5297
0.4266 0.4876 0.5485
0.5064 0.5064 0.5673
0.5861 0.5252 0.5861
0.6659 0.5440 0.6049
0.7456 0.5628 0.6237
0.8253 0.5816 0.6425
0.2507 0.5554 0.5554
0.3304 0.5742 0.5742
0.4102 0.5930 0.5930
0.4899 0.6118 0.6118
0.5696 0.6306 0.6306
0.6494 0.6494 0.6494
0.7291 0.6682 0.6682
0.8089 0.6870 0.6870
0.8886 0.7058 0.7058
0.3139 0.6796 0.6186
0.3937 0.6984 0.6374
0.4734 0.7172 0.6562
0.5531 0.7360 0.6750
0.6329 0.7548 0.6938
0.7126 0.7736 0.7126
0.7924 0.7924 0.7314
0.8721 0.8112 0.7502
0.9518 0.8300 0.7690
0.3772 0.8037 0.6819
0.4569 0.8225 0.7007
0.5367 0.8413 0.7195
0.6164 0.8601 0.7383
0.6961 0.8789 0.7571
0.7759 0.8978 0.7759
0.8556 0.9166 0.7947
0.9354 0.9354 0.8135
1.0000 0.9542 0.8323
0.4404 0.9279 0.7451
0.5202 0.9467 0.7639
0.5999 0.9655 0.7827
0.6796 0.9843 0.8015
0.7594 1.0000 0.8203
0.8391 1.0000 0.8391
0.9189 1.0000 0.8579
0.9986 1.0000 0.8767
1.0000 1.0000 0.8955
0.0000 0.0000 0.3064
0.0206 0.0000 0.3252
0.1003 0.0000 0.3440
0.1800 0.0000 0.3628
0.2598 0.0160 0.3816
0.3395 0.0348 0.4004
0.4192 0.0536 0.4192
0.4990 0.0724 0.4380
0.5787 0.0912 0.4569
0.0041 0.0650 0.3697
0.0838 0.0838 0.3885
0.1635 0.1026 0.4073
0.2433 0.1214 0.4261
0.3230 0.1402 0.4449
0.4028 0.1590 0.4637
0.4825 0.1778 0.4825
0.5622 0.1966 0.5013
0.6420 0.2154 0.5201
0.0673 0.1892 0.4329
0.1471 0.2080 0.4517
0.2268 0.2268 0.4705
0.3065 0.2456 0.4893
0.3863 0.2644 0.5081
0.4660 0.2832 0.5269
0.5457 0.3020 0.5457
0.6255 0.3208 0.5645
0.7052 0.3396 0.5834
0.1306 0.3134 0.4962
0.2103 0.3322 0.5150
0.2900 0.3510 0.5338
0.3698 0.3698 0.5526
0.4495 0.3886 0.5714
0.5293 0.4074 0.5902
0.6090 0.4262 0.6090
0.6887 0.4450 0.6278
0.7685 0.4638 0.6466
0.1938 0.4376 0.5594
0.2736 0.4564 0.5782
0.3533 0.4752 0.5970
0.4330 0.4940 0.6158
0.5128 0.5128 0.6346
0.5925 0.5316 0.6534
0.6722 0.5504 0.6722
0.7520 0.5692 0.6911
0.8317 0.5880 0.7099
0.2571 0.5618 0.6227
0.3368 0.5806 0.6415
0.4165 0.5994 0.6603
0.4963 0.6182 0.6791
0.5760 0.6370 0.6979
0.6558 0.6558 0.7167
0.7355 0.6746 0.7355
0.8152 0.6934 0.7543
0.8950 0.7122 0.7731
0.3203 0.6859 0.6859
0.4001 0.7047 0.7047
0.4798 0.7235 0.7235
0.5595 0.7423 0.7423
0.6393 0.7611 0.7611
0.7190 0.7799 0.7799
0.7987 0.7987 0.7987
0.8785 0.8176 0.8176
0.9582 0.8364 0.8364
0.3836 0.8101 0.7492
0.4633 0.8289 0.7680
0.5430 0.8477 0.7868
0.6228 0.8665 0.8056
0.7025 0.8853 0.8244
0.7823 0.9041 0.8432
0.8620 0.9229 0.8620
0.9417 0.9417 0.8808
1.0000 0.9605 0.8996
0.4468 0.9343 0.8124
0.5266 0.9531 0.8312
0.6063 0.9719 0.8500
0.6860 0.9907 0.8688
0.7658 1.0000 0.8876
0.8455 1.0000 0.9064
0.9253 1.0000 0.9253
1.0000 1.0000 0.9441
1.0000 1.0000 0.9629
0.0000 0.0000 0.3738
0.0269 0.0000 0.3926
0.1067 0.0000 0.4114
0.1864 0.0036 0.4302
0.2662 0.0224 0.4490
0.3459 0.0412 0.4678
0.4256 0.0600 0.4866
0.5054 0.0788 0.5054
0.5851 0.0976 0.5242
0.0104 0.0714 0.4370
0.0902 0.0902 0.4558
0.1699 0.1090 0.4746
0.2497 0.1278 0.4934
0.3294 0.1466 0.5122
0.4091 0.1654 0.5310
0.4889 0.1842 0.5498
0.5686 0.2030 0.5686
0.6484 0.2218 0.5874
0.0737 0.1956 0.5003
0.1534 0.2144 0.5191
0.2332 0.2332 0.5379
0.3129 0.2520 0.5567
0.3927 0.2708 0.5755
0.4724 0.2896 0.5943
0.5521 0.3084 0.6131
0.6319 0.3272 0.6319
0.7116 0.3460 0.6507
0.1369 0.3198 0.5635
0.2167 0.3386 0.5823
0.2964 0.3574 0.6011
0.3762 0.3762 0.6199
0.4559 0.3950 0.6387
0.5356 0.4138 0.6575
0.6154 0.4326 0.6763
0.6951 0.4514 0.6951
0.7749 0.4702 0.7139
0.2002 0.4439 0.6268
0.2799 0.4628 0.6456
0.3597 0.4816 0.6644
0.4394 0.5004 0.6832
0.5192 0.5192 0.7020
0.5989 0.5380 0.7208
0.6786 0.5568 0.7396
0.7584 0.5756 0.7584
0.8381 0.5944 0.7772
0.2634 0.5681 0.6900
0.3432 0.5869 0.7088
0.4229 0.6057 0.7276
0.5027 0.6245 0.7464
0.5824 0.6433 0.7652
0.6621 0.6621 0.7840
0.7419 0.6809 0.8028
0.8216 0.6997 0.8216
0.9014 0.7186 0.8404
0.3267 0.6923 0.7533
0.4064 0.7111 0.7721
0.4862 0.7299 0.7909
0.5659 0.7487 0.8097
0.6457 0.7675 0.8285
0.7254 0.7863 0.8473
0.8051 0.8051 0.8661
0.8849 0.8239 0.8849
0.9646 0.8427 0.9037
0.3899 0.8165 0.8165
0.4697 0.8353 0.8353
0.5494 0.8541 0.8541
0.6292 0.8729 0.8729
0.7089 0.8917 0.8917
0.7886 0.9105 0.9105
0.8684 0.9293 0.9293
0.9481 0.9481 0.9481
1.0000 0.9669 0.9669
0.4532 0.9407 0.8798
0.5329 0.9595 0.8986
0.6127 0.9783 0.9174
0.6924 0.9971 0.9362
0.7722 1.0000 0.9550
0.8519 1.0000 0.9738
0.9316 1.0000 0.9926
1.0000 1.0000 1.0000
1.0000 1.0000 1.0000
0.0000 0.0000 0.4411
0.0333 0.0000 0.4599
0.1131 0.0000 0.4787
0.1928 0.0100 0.4975
0.2725 0.0288 0.5163
0.3523 0.0476 0.5351
0.4320 0.0664 0.5539
0.5118 0.0852 0.5727
0.5915 0.1040 0.5915
0.0168 0.0778 0.5043
0.0966 0.0966 0.5231
0.1763 0.1154 0.5419
0.2560 0.1342 0.5607
0.3358 0.1530 0.5795
0.4155 0.1718 0.5983
0.4953 0.1906 0.6171
0.5750 0.2094 0.6359
0.6547 0.2282 0.6547
0.0801 0.2020 0.5676
0.1598 0.2208 0.5864
0.2396 0.2396 0.6052
0.3193 0.2584 0.6240
0.3990 0.2772 0.6428
0.4788 0.2960 0.6616
0.5585 0.3148 0.6804
0.6383 0.3336 0.6992
0.7180 0.3524 0.7180
0.1433 0.3261 0.6308
0.2231 0.3449 0.6496
0.3028 0.3637 0.6684
0.3826 0.3826 0.6872
0.4623 0.4014 0.7060
0.5420 0.4202 0.7248
0.6218 0.4390 0.7436
0.7015 0.4578 0.7624
0.7812 0.4766 0.7812
0.2066 0.4503 0.6941
0.2863 0.4691 0.7129
0.3661 0.4879 0.7317
0.4458 0.5067 0.7505
0.5255 0.5255 0.7693
0.6053 0.5443 0.7881
0.6850 0.5631 0.8069
0.7648 0.5819 0.8257
0.8445 0.6007 0.8445
0.2698 0.5745 0.7573
0.3496 0.5933 0.7761
0.4293 0.6121 0.7949
0.5091 0.6309 0.8137
0.5888 0.6497 0.8325
0.6685 0.6685 0.8513
0.7483 0.6873 0.8701
0.8280 0.7061 0.8889
0.9077 0.7249 0.9077
0.3331 0.6987 0.8206
0.4128 0.7175 0.8394
0.4926 0.7363 0.8582
0.5723 0.7551 0.8770
0.6520 0.7739 0.8958
0.7318 0.7927 0.9146
0.8115 0.8115 0.9334
0.8913 0.8303 0.9522
0.9710 0.8491 0.9710
0.3963 0.8229 0.8838
0.4761 0.8417 0.9026
0.5558 0.8605 0.9214
0.6356 0.8793 0.9402
0.7153 0.8981 0.9590
0.7950 0.9169 0.9778
0.8748 0.9357 0.9966
0.9545 0.9545 1.0000
1.0000 0.9733 1.0000
0.4596 0.9471 0.9471
0.5393 0.9659 0.9659
0.6191 0.9847 0.9847
0.6988 1.0000 1.0000
0.7785 1.0000 1.0000
0.8583 1.0000 1.0000
0.9380 1.0000 1.0000
1.0000 1.0000 1.0000
1.0000 1.0000 1.0000
