luts/faded.cube
# edite look: Faded (CC0)
TITLE "Faded"
LUT_3D_SIZE 5
DOMAIN_MIN 0.0 0.0 0.0
DOMAIN_MAX 1.0 1.0 1.0
0.1336 0.1259 0.1105
0.3125 0.1339 0.1185
0.4915 0.1419 0.1265
0.6704 0.1498 0.1344
0.8493 0.1578 0.1424
0.1602 0.3220 0.1371
0.3392 0.3299 0.1451
0.5181 0.3379 0.1531
0.6970 0.3459 0.1610
0.8759 0.3539 0.1690
0.1868 0.5180 0.1637
0.3658 0.5260 0.1717
0.5447 0.5340 0.1797
0.7236 0.5420 0.1876
0.9025 0.5499 0.1956
0.2134 0.7141 0.1903
0.3924 0.7221 0.1983
0.5713 0.7300 0.2063
0.7502 0.7380 0.2142
0.9291 0.7460 0.2222
0.2400 0.9101 0.2169
0.4190 0.9181 0.2249
0.5979 0.9261 0.2329
0.7768 0.9341 0.2408
0.9557 0.9420 0.2488
0.1362 0.1285 0.2759
0.3151 0.1365 0.2839
0.4941 0.1445 0.2918
0.6730 0.1524 0.2998
0.8519 0.1604 0.3078
0.1628 0.3245 0.3025
0.3417 0.3325 0.3105
0.5207 0.3405 0.3184
0.6996 0.3485 0.3264
0.8785 0.3565 0.3344
0.1894 0.5206 0.3291
0.3683 0.5286 0.3371
0.5473 0.5366 0.3451
0.7262 0.5445 0.3530
0.9051 0.5525 0.3610
0.2160 0.7167 0.3557
0.3949 0.7246 0.3637
0.5739 0.7326 0.3717
0.7528 0.7406 0.3796
0.9317 0.7486 0.3876
0.2426 0.9127 0.3823
0.4215 0.9207 0.3903
0.6005 0.9287 0.3983
0.7794 0.9366 0.4062
0.9583 0.9446 0.4142
0.1388 0.1311 0.4413
0.3177 0.1391 0.4493
0.4966 0.1470 0.4572
0.6756 0.1550 0.4652
0.8545 0.1630 0.4732
0.1654 0.3271 0.4679
0.3443 0.3351 0.4759
0.5232 0.3431 0.4838
0.7022 0.3511 0.4918
0.8811 0.3590 0.4998
0.1920 0.5232 0.4945
0.3709 0.5312 0.5025
0.5498 0.5391 0.5104
0.7288 0.5471 0.5184
0.9077 0.5551 0.5264
0.2186 0.7192 0.5211
0.3975 0.7272 0.5291
0.5764 0.7352 0.5370
0.7554 0.7432 0.5450
0.9343 0.7511 0.5530
0.2452 0.9153 0.5477
0.4241 0.9233 0.5557
0.6030 0.9312 0.5636
0.7820 0.9392 0.5716
0.9609 0.9472 0.5796
0.1414 0.1337 0.6067
0.3203 0.1416 0.6147
0.4992 0.1496 0.6226
0.6781 0.1576 0.6306
0.8571 0.1656 0.6386
0.1680 0.3297 0.6333
0.3469 0.3377 0.6413
0.5258 0.3457 0.6492
0.7047 0.3536 0.6572
0.8837 0.3616 0.6652
0.1946 0.5258 0.6599
0.3735 0.5337 0.6679
0.5524 0.5417 0.6758
0.7313 0.5497 0.6838
0.9103 0.5577 0.6918
0.2212 0.7218 0.6865
0.4001 0.7298 0.6945
0.5790 0.7378 0.7024
0.7579 0.7457 0.7104
0.9369 0.7537 0.7184
0.2478 0.9179 0.7131
0.4267 0.9258 0.7211
0.6056 0.9338 0.7290
0.7846 0.9418 0.7370
0.9635 0.9498 0.7450
0.1439 0.1362 0.7721
0.3229 0.1442 0.7800
0.5018 0.1522 0.7880
0.6807 0.1602 0.7960
0.8596 0.1681 0.8040
0.1705 0.3323 0.7987
0.3495 0.3403 0.8066
0.5284 0.3482 0.8146
0.7073 0.3562 0.8226
0.8862 0.3642 0.8306
0.1972 0.5283 0.8253
0.3761 0.5363 0.8332
0.5550 0.5443 0.8412
0.7339 0.5523 0.8492
0.9128 0.5603 0.8572
0.2238 0.7244 0.8519
0.4027 0.7324 0.8599
0.5816 0.7403 0.8678
0.7605 0.7483 0.8758
0.9395 0.7563 0.8838
0.2504 0.9204 0.8785
0.4293 0.9284 0.8865
0.6082 0.9364 0.8944
0.7871 0.9444 0.9024
0.9661 0.9524 0.9104
