luts/faded.cube
# edite look: Faded (CC0)
TITLE "Faded"
LUT_3D_SIZE 9
DOMAIN_MIN 0.0 0.0 0.0
DOMAIN_MAX 1.0 1.0 1.0
0.1336 0.1259 0.1105
0.2231 0.1299 0.1145
0.3125 0.1339 0.1185
0.4020 0.1379 0.1225
0.4915 0.1419 0.1265
0.5809 0.1459 0.1304
0.6704 0.1498 0.1344
0.7599 0.1538 0.1384
0.8493 0.1578 0.1424
0.1469 0.2239 0.1238
0.2364 0.2279 0.1278
0.3258 0.2319 0.1318
0.4153 0.2359 0.1358
0.5048 0.2399 0.1398
0.5942 0.2439 0.1437
0.6837 0.2479 0.1477
0.7732 0.2519 0.1517
0.8626 0.2559 0.1557
0.1602 0.3220 0.1371
0.2497 0.3260 0.1411
0.3392 0.3299 0.1451
0.4286 0.3339 0.1491
0.5181 0.3379 0.1531
0.6075 0.3419 0.1570
0.6970 0.3459 0.1610
0.7865 0.3499 0.1650
0.8759 0.3539 0.1690
0.1735 0.4200 0.1504
0.2630 0.4240 0.1544
0.3525 0.4280 0.1584
0.4419 0.4320 0.1624
0.5314 0.4359 0.1664
0.6208 0.4399 0.1703
0.7103 0.4439 0.1743
0.7998 0.4479 0.1783
0.8892 0.4519 0.1823
0.1868 0.5180 0.1637
0.2763 0.5220 0.1677
0.3658 0.5260 0.1717
0.4552 0.5300 0.1757
0.5447 0.5340 0.1797
0.6341 0.5380 0.1836
0.7236 0.5420 0.1876
0.8131 0.5459 0.1916
0.9025 0.5499 0.1956
0.2001 0.6160 0.1770
0.2896 0.6200 0.1810
0.3791 0.6240 0.1850
0.4685 0.6280 0.1890
0.5580 0.6320 0.1930
0.6474 0.6360 0.1970
0.7369 0.6400 0.2009
0.8264 0.6440 0.2049
0.9158 0.6480 0.2089
0.2134 0.7141 0.1903
0.3029 0.7181 0.1943
0.3924 0.7221 0.1983
0.4818 0.7260 0.2023
0.5713 0.7300 0.2063
0.6607 0.7340 0.2103
0.7502 0.7380 0.2142
0.8397 0.7420 0.2182
0.9291 0.7460 0.2222
0.2267 0.8121 0.2036
0.3162 0.8161 0.2076
0.4057 0.8201 0.2116
0.4951 0.8241 0.2156
0.5846 0.8281 0.2196
0.6740 0.8320 0.2236
0.7635 0.8360 0.2275
0.8530 0.8400 0.2315
0.9424 0.8440 0.2355
0.2400 0.9101 0.2169
0.3295 0.9141 0.2209
0.4190 0.9181 0.2249
0.5084 0.9221 0.2289
0.5979 0.9261 0.2329
0.6873 0.9301 0.2369
0.7768 0.9341 0.2408
0.8663 0.9380 0.2448
0.9557 0.9420 0.2488
0.1349 0.1272 0.1932
0.2244 0.1312 0.1972
0.3138 0.1352 0.2012
0.4033 0.1392 0.2052
0.4928 0.1432 0.2092
0.5822 0.1472 0.2131
0.6717 0.1511 0.2171
0.7612 0.1551 0.2211
0.8506 0.1591 0.2251
0.1482 0.2252 0.2065
0.2377 0.2292 0.2105
0.3271 0.2332 0.2145
0.4166 0.2372 0.2185
0.5061 0.2412 0.2225
0.5955 0.2452 0.2264
0.6850 0.2492 0.2304
0.7745 0.2532 0.2344
0.8639 0.2571 0.2384
0.1615 0.3233 0.2198
0.2510 0.3272 0.2238
0.3404 0.3312 0.2278
0.4299 0.3352 0.2318
0.5194 0.3392 0.2358
0.6088 0.3432 0.2397
0.6983 0.3472 0.2437
0.7878 0.3512 0.2477
0.8772 0.3552 0.2517
0.1748 0.4213 0.2331
0.2643 0.4253 0.2371
0.3537 0.4293 0.2411
0.4432 0.4333 0.2451
0.5327 0.4372 0.2491
0.6221 0.4412 0.2530
0.7116 0.4452 0.2570
0.8011 0.4492 0.2610
0.8905 0.4532 0.2650
0.1881 0.5193 0.2464
0.2776 0.5233 0.2504
0.3670 0.5273 0.2544
0.4565 0.5313 0.2584
0.5460 0.5353 0.2624
0.6354 0.5393 0.2663
0.7249 0.5432 0.2703
0.8144 0.5472 0.2743
0.9038 0.5512 0.2783
0.2014 0.6173 0.2597
0.2909 0.6213 0.2637
0.3803 0.6253 0.2677
0.4698 0.6293 0.2717
0.5593 0.6333 0.2757
0.6487 0.6373 0.2796
0.7382 0.6413 0.2836
0.8277 0.6453 0.2876
0.9171 0.6492 0.2916
0.2147 0.7154 0.2730
0.3042 0.7194 0.2770
0.3936 0.7233 0.2810
0.4831 0.7273 0.2850
0.5726 0.7313 0.2890
0.6620 0.7353 0.2929
0.7515 0.7393 0.2969
0.8410 0.7433 0.3009
0.9304 0.7473 0.3049
0.2280 0.8134 0.2863
0.3175 0.8174 0.2903
0.4069 0.8214 0.2943
0.4964 0.8254 0.2983
0.5859 0.8293 0.3023
0.6753 0.8333 0.3062
0.7648 0.8373 0.3102
0.8543 0.8413 0.3142
0.9437 0.8453 0.3182
0.2413 0.9114 0.2996
0.3308 0.9154 0.3036
0.4202 0.9194 0.3076
0.5097 0.9234 0.3116
0.5992 0.9274 0.3156
0.6886 0.9314 0.3196
0.7781 0.9353 0.3235
0.8676 0.9393 0.3275
0.9570 0.9433 0.3315
0.1362 0.1285 0.2759
0.2257 0.1325 0.2799
0.3151 0.1365 0.2839
0.4046 0.1405 0.2879
0.4941 0.1445 0.2918
0.5835 0.1484 0.2958
0.6730 0.1524 0.2998
0.7624 0.1564 0.3038
0.8519 0.1604 0.3078
0.1495 0.2265 0.2892
0.2390 0.2305 0.2932
0.3284 0.2345 0.2972
0.4179 0.2385 0.3012
0.5074 0.2425 0.3051
0.5968 0.2465 0.3091
0.6863 0.2505 0.3131
0.7757 0.2544 0.3171
0.8652 0.2584 0.3211
0.1628 0.3245 0.3025
0.2523 0.3285 0.3065
0.3417 0.3325 0.3105
0.4312 0.3365 0.3145
0.5207 0.3405 0.3184
0.6101 0.3445 0.3224
0.6996 0.3485 0.3264
0.7890 0.3525 0.3304
0.8785 0.3565 0.3344
0.1761 0.4226 0.3158
0.2656 0.4266 0.3198
0.3550 0.4306 0.3238
0.4445 0.4345 0.3278
0.5340 0.4385 0.3318
0.6234 0.4425 0.3357
0.7129 0.4465 0.3397
0.8023 0.4505 0.3437
0.8918 0.4545 0.3477
0.1894 0.5206 0.3291
0.2789 0.5246 0.3331
0.3683 0.5286 0.3371
0.4578 0.5326 0.3411
0.5473 0.5366 0.3451
0.6367 0.5405 0.3490
0.7262 0.5445 0.3530
0.8156 0.5485 0.3570
0.9051 0.5525 0.3610
0.2027 0.6186 0.3424
0.2922 0.6226 0.3464
0.3816 0.6266 0.3504
0.4711 0.6306 0.3544
0.5606 0.6346 0.3584
0.6500 0.6386 0.3623
0.7395 0.6426 0.3663
0.8289 0.6465 0.3703
0.9184 0.6505 0.3743
0.2160 0.7167 0.3557
0.3055 0.7206 0.3597
0.3949 0.7246 0.3637
0.4844 0.7286 0.3677
0.5739 0.7326 0.3717
0.6633 0.7366 0.3756
0.7528 0.7406 0.3796
0.8422 0.7446 0.3836
0.9317 0.7486 0.3876
0.2293 0.8147 0.3690
0.3188 0.8187 0.3730
0.4082 0.8227 0.3770
0.4977 0.8266 0.3810
0.5872 0.8306 0.3850
0.6766 0.8346 0.3889
0.7661 0.8386 0.3929
0.8556 0.8426 0.3969
0.9450 0.8466 0.4009
0.2426 0.9127 0.3823
0.3321 0.9167 0.3863
0.4215 0.9207 0.3903
0.5110 0.9247 0.3943
0.6005 0.9287 0.3983
0.6899 0.9327 0.4022
0.7794 0.9366 0.4062
0.8689 0.9406 0.4102
0.9583 0.9446 0.4142
0.1375 0.1298 0.3586
0.2270 0.1338 0.3626
0.3164 0.1378 0.3666
0.4059 0.1418 0.3706
0.4953 0.1457 0.3745
0.5848 0.1497 0.3785
0.6743 0.1537 0.3825
0.7637 0.1577 0.3865
0.8532 0.1617 0.3905
0.1508 0.2278 0.3719
0.2403 0.2318 0.3759
0.3297 0.2358 0.3799
0.4192 0.2398 0.3839
0.5086 0.2438 0.3878
0.5981 0.2478 0.3918
0.6876 0.2517 0.3958
0.7770 0.2557 0.3998
0.8665 0.2597 0.4038
0.1641 0.3258 0.3852
0.2536 0.3298 0.3892
0.3430 0.3338 0.3932
0.4325 0.3378 0.3972
0.5219 0.3418 0.4011
0.6114 0.3458 0.4051
0.7009 0.3498 0.4091
0.7903 0.3538 0.4131
0.8798 0.3577 0.4171
0.1774 0.4239 0.3985
0.2669 0.4279 0.4025
0.3563 0.4318 0.4065
0.4458 0.4358 0.4105
0.5352 0.4398 0.4144
0.6247 0.4438 0.4184
0.7142 0.4478 0.4224
0.8036 0.4518 0.4264
0.8931 0.4558 0.4304
0.1907 0.5219 0.4118
0.2802 0.5259 0.4158
0.3696 0.5299 0.4198
0.4591 0.5339 0.4238
0.5485 0.5378 0.4277
0.6380 0.5418 0.4317
0.7275 0.5458 0.4357
0.8169 0.5498 0.4397
0.9064 0.5538 0.4437
0.2040 0.6199 0.4251
0.2935 0.6239 0.4291
0.3829 0.6279 0.4331
0.4724 0.6319 0.4371
0.5619 0.6359 0.4410
0.6513 0.6399 0.4450
0.7408 0.6439 0.4490
0.8302 0.6478 0.4530
0.9197 0.6518 0.4570
0.2173 0.7179 0.4384
0.3068 0.7219 0.4424
0.3962 0.7259 0.4464
0.4857 0.7299 0.4504
0.5752 0.7339 0.4544
0.6646 0.7379 0.4583
0.7541 0.7419 0.4623
0.8435 0.7459 0.4663
0.9330 0.7499 0.4703
0.2306 0.8160 0.4517
0.3201 0.8200 0.4557
0.4095 0.8239 0.4597
0.4990 0.8279 0.4637
0.5885 0.8319 0.4677
0.6779 0.8359 0.4716
0.7674 0.8399 0.4756
0.8568 0.8439 0.4796
0.9463 0.8479 0.4836
0.2439 0.9140 0.4650
0.3334 0.9180 0.4690
0.4228 0.9220 0.4730
0.5123 0.9260 0.4770
0.6018 0.9300 0.4810
0.6912 0.9339 0.4849
0.7807 0.9379 0.4889
0.8701 0.9419 0.4929
0.9596 0.9459 0.4969
0.1388 0.1311 0.4413
0.2282 0.1351 0.4453
0.3177 0.1391 0.4493
0.4072 0.1430 0.4532
0.4966 0.1470 0.4572
0.5861 0.1510 0.4612
0.6756 0.1550 0.4652
0.7650 0.1590 0.4692
0.8545 0.1630 0.4732
0.1521 0.2291 0.4546
0.2415 0.2331 0.4586
0.3310 0.2371 0.4626
0.4205 0.2411 0.4666
0.5099 0.2451 0.4705
0.5994 0.2490 0.4745
0.6889 0.2530 0.4785
0.7783 0.2570 0.4825
0.8678 0.2610 0.4865
0.1654 0.3271 0.4679
0.2548 0.3311 0.4719
0.3443 0.3351 0.4759
0.4338 0.3391 0.4799
0.5232 0.3431 0.4838
0.6127 0.3471 0.4878
0.7022 0.3511 0.4918
0.7916 0.3551 0.4958
0.8811 0.3590 0.4998
0.1787 0.4252 0.4812
0.2682 0.4291 0.4852
0.3576 0.4331 0.4892
0.4471 0.4371 0.4932
0.5365 0.4411 0.4971
0.6260 0.4451 0.5011
0.7155 0.4491 0.5051
0.8049 0.4531 0.5091
0.8944 0.4571 0.5131
0.1920 0.5232 0.4945
0.2815 0.5272 0.4985
0.3709 0.5312 0.5025
0.4604 0.5351 0.5065
0.5498 0.5391 0.5104
0.6393 0.5431 0.5144
0.7288 0.5471 0.5184
0.8182 0.5511 0.5224
0.9077 0.5551 0.5264
0.2053 0.6212 0.5078
0.2948 0.6252 0.5118
0.3842 0.6292 0.5158
0.4737 0.6332 0.5198
0.5631 0.6372 0.5237
0.6526 0.6412 0.5277
0.7421 0.6451 0.5317
0.8315 0.6491 0.5357
0.9210 0.6531 0.5397
0.2186 0.7192 0.5211
0.3081 0.7232 0.5251
0.3975 0.7272 0.5291
0.4870 0.7312 0.5331
0.5764 0.7352 0.5370
0.6659 0.7392 0.5410
0.7554 0.7432 0.5450
0.8448 0.7472 0.5490
0.9343 0.7511 0.5530
0.2319 0.8173 0.5344
0.3214 0.8212 0.5384
0.4108 0.8252 0.5424
0.5003 0.8292 0.5464
0.5897 0.8332 0.5503
0.6792 0.8372 0.5543
0.7687 0.8412 0.5583
0.8581 0.8452 0.5623
0.9476 0.8492 0.5663
0.2452 0.9153 0.5477
0.3347 0.9193 0.5517
0.4241 0.9233 0.5557
0.5136 0.9273 0.5597
0.6030 0.9312 0.5636
0.6925 0.9352 0.5676
0.7820 0.9392 0.5716
0.8714 0.9432 0.5756
0.9609 0.9472 0.5796
0.1401 0.1324 0.5240
0.2295 0.1364 0.5280
0.3190 0.1403 0.5320
0.4085 0.1443 0.5359
0.4979 0.1483 0.5399
0.5874 0.1523 0.5439
0.6768 0.1563 0.5479
0.7663 0.1603 0.5519
0.8558 0.1643 0.5559
0.1534 0.2304 0.5373
0.2428 0.2344 0.5413
0.3323 0.2384 0.5453
0.4218 0.2424 0.5492
0.5112 0.2463 0.5532
0.6007 0.2503 0.5572
0.6902 0.2543 0.5612
0.7796 0.2583 0.5652
0.8691 0.2623 0.5692
0.1667 0.3284 0.5506
0.2561 0.3324 0.5546
0.3456 0.3364 0.5586
0.4351 0.3404 0.5625
0.5245 0.3444 0.5665
0.6140 0.3484 0.5705
0.7035 0.3524 0.5745
0.7929 0.3563 0.5785
0.8824 0.3603 0.5825
0.1800 0.4264 0.5639
0.2694 0.4304 0.5679
0.3589 0.4344 0.5719
0.4484 0.4384 0.5758
0.5378 0.4424 0.5798
0.6273 0.4464 0.5838
0.7168 0.4504 0.5878
0.8062 0.4544 0.5918
0.8957 0.4584 0.5958
0.1933 0.5245 0.5772
0.2827 0.5285 0.5812
0.3722 0.5324 0.5852
0.4617 0.5364 0.5892
0.5511 0.5404 0.5931
0.6406 0.5444 0.5971
0.7301 0.5484 0.6011
0.8195 0.5524 0.6051
0.9090 0.5564 0.6091
0.2066 0.6225 0.5905
0.2960 0.6265 0.5945
0.3855 0.6305 0.5985
0.4750 0.6345 0.6025
0.5644 0.6385 0.6064
0.6539 0.6424 0.6104
0.7434 0.6464 0.6144
0.8328 0.6504 0.6184
0.9223 0.6544 0.6224
0.2199 0.7205 0.6038
0.3093 0.7245 0.6078
0.3988 0.7285 0.6118
0.4883 0.7325 0.6158
0.5777 0.7365 0.6197
0.6672 0.7405 0.6237
0.7567 0.7445 0.6277
0.8461 0.7484 0.6317
0.9356 0.7524 0.6357
0.2332 0.8186 0.6171
0.3226 0.8225 0.6211
0.4121 0.8265 0.6251
0.5016 0.8305 0.6291
0.5910 0.8345 0.6330
0.6805 0.8385 0.6370
0.7700 0.8425 0.6410
0.8594 0.8465 0.6450
0.9489 0.8505 0.6490
0.2465 0.9166 0.6304
0.3359 0.9206 0.6344
0.4254 0.9246 0.6384
0.5149 0.9285 0.6424
0.6043 0.9325 0.6463
0.6938 0.9365 0.6503
0.7833 0.9405 0.6543
0.8727 0.9445 0.6583
0.9622 0.9485 0.6623
0.1414 0.1337 0.6067
0.2308 0.1376 0.6107
0.3203 0.1416 0.6147
0.4098 0.1456 0.6186
0.4992 0.1496 0.6226
0.5887 0.1536 0.6266
0.6781 0.1576 0.6306
0.7676 0.1616 0.6346
0.8571 0.1656 0.6386
0.1547 0.2317 0.6200
0.2441 0.2357 0.6240
0.3336 0.2397 0.6280
0.4231 0.2436 0.6319
0.5125 0.2476 0.6359
0.6020 0.2516 0.6399
0.6914 0.2556 0.6439
0.7809 0.2596 0.6479
0.8704 0.2636 0.6519
0.1680 0.3297 0.6333
0.2574 0.3337 0.6373
0.3469 0.3377 0.6413
0.4364 0.3417 0.6452
0.5258 0.3457 0.6492
0.6153 0.3497 0.6532
0.7047 0.3536 0.6572
0.7942 0.3576 0.6612
0.8837 0.3616 0.6652
0.1813 0.4277 0.6466
0.2707 0.4317 0.6506
0.3602 0.4357 0.6546
0.4497 0.4397 0.6585
0.5391 0.4437 0.6625
0.6286 0.4477 0.6665
0.7180 0.4517 0.6705
0.8075 0.4557 0.6745
0.8970 0.4596 0.6785
0.1946 0.5258 0.6599
0.2840 0.5298 0.6639
0.3735 0.5337 0.6679
0.4630 0.5377 0.6718
0.5524 0.5417 0.6758
0.6419 0.5457 0.6798
0.7313 0.5497 0.6838
0.8208 0.5537 0.6878
0.9103 0.5577 0.6918
0.2079 0.6238 0.6732
0.2973 0.6278 0.6772
0.3868 0.6318 0.6812
0.4763 0.6358 0.6851
0.5657 0.6397 0.6891
0.6552 0.6437 0.6931
0.7446 0.6477 0.6971
0.8341 0.6517 0.7011
0.9236 0.6557 0.7051
0.2212 0.7218 0.6865
0.3106 0.7258 0.6905
0.4001 0.7298 0.6945
0.4896 0.7338 0.6984
0.5790 0.7378 0.7024
0.6685 0.7418 0.7064
0.7579 0.7457 0.7104
0.8474 0.7497 0.7144
0.9369 0.7537 0.7184
0.2345 0.8198 0.6998
0.3239 0.8238 0.7038
0.4134 0.8278 0.7078
0.5029 0.8318 0.7117
0.5923 0.8358 0.7157
0.6818 0.8398 0.7197
0.7712 0.8438 0.7237
0.8607 0.8478 0.7277
0.9502 0.8518 0.7317
0.2478 0.9179 0.7131
0.3372 0.9219 0.7171
0.4267 0.9258 0.7211
0.5162 0.9298 0.7251
0.6056 0.9338 0.7290
0.6951 0.9378 0.7330
0.7846 0.9418 0.7370
0.8740 0.9458 0.7410
0.9635 0.9498 0.7450
0.1427 0.1349 0.6894
0.2321 0.1389 0.6934
0.3216 0.1429 0.6973
0.4110 0.1469 0.7013
0.5005 0.1509 0.7053
0.5900 0.1549 0.7093
0.6794 0.1589 0.7133
0.7689 0.1629 0.7173
0.8584 0.1669 0.7213
0.1560 0.2330 0.7027
0.2454 0.2370 0.7067
0.3349 0.2410 0.7106
0.4243 0.2449 0.7146
0.5138 0.2489 0.7186
0.6033 0.2529 0.7226
0.6927 0.2569 0.7266
0.7822 0.2609 0.7306
0.8717 0.2649 0.7346
0.1693 0.3310 0.7160
0.2587 0.3350 0.7200
0.3482 0.3390 0.7239
0.4376 0.3430 0.7279
0.5271 0.3470 0.7319
0.6166 0.3509 0.7359
0.7060 0.3549 0.7399
0.7955 0.3589 0.7439
0.8850 0.3629 0.7479
0.1826 0.4290 0.7293
0.2720 0.4330 0.7333
0.3615 0.4370 0.7373
0.4509 0.4410 0.7412
0.5404 0.4450 0.7452
0.6299 0.4490 0.7492
0.7193 0.4530 0.7532
0.8088 0.4569 0.7572
0.8983 0.4609 0.7612
0.1959 0.5271 0.7426
0.2853 0.5310 0.7466
0.3748 0.5350 0.7506
0.4642 0.5390 0.7545
0.5537 0.5430 0.7585
0.6432 0.5470 0.7625
0.7326 0.5510 0.7665
0.8221 0.5550 0.7705
0.9116 0.5590 0.7745
0.2092 0.6251 0.7559
0.2986 0.6291 0.7599
0.3881 0.6331 0.7639
0.4775 0.6370 0.7678
0.5670 0.6410 0.7718
0.6565 0.6450 0.7758
0.7459 0.6490 0.7798
0.8354 0.6530 0.7838
0.9249 0.6570 0.7878
0.2225 0.7231 0.7692
0.3119 0.7271 0.7732
0.4014 0.7311 0.7772
0.4909 0.7351 0.7811
0.5803 0.7391 0.7851
0.6698 0.7430 0.7891
0.7592 0.7470 0.7931
0.8487 0.7510 0.7971
0.9382 0.7550 0.8011
0.2358 0.8211 0.7825
0.3252 0.8251 0.7865
0.4147 0.8291 0.7905
0.5042 0.8331 0.7944
0.5936 0.8371 0.7984
0.6831 0.8411 0.8024
0.7725 0.8451 0.8064
0.8620 0.8491 0.8104
0.9515 0.8530 0.8144
0.2491 0.9192 0.7958
0.3385 0.9231 0.7998
0.4280 0.9271 0.8038
0.5175 0.9311 0.8077
0.6069 0.9351 0.8117
0.6964 0.9391 0.8157
0.7858 0.9431 0.8197
0.8753 0.9471 0.8237
0.9648 0.9511 0.8277
0.1439 0.1362 0.7721
0.2334 0.1402 0.7761
0.3229 0.1442 0.7800
0.4123 0.1482 0.7840
0.5018 0.1522 0.7880
0.5913 0.1562 0.7920
0.6807 0.1602 0.7960
0.7702 0.1642 0.8000
0.8596 0.1681 0.8040
0.1572 0.2343 0.7854
0.2467 0.2383 0.7894
0.3362 0.2422 0.7933
0.4256 0.2462 0.7973
0.5151 0.2502 0.8013
0.6046 0.2542 0.8053
0.6940 0.2582 0.8093
0.7835 0.2622 0.8133
0.8729 0.2662 0.8173
0.1705 0.3323 0.7987
0.2600 0.3363 0.8027
0.3495 0.3403 0.8066
0.4389 0.3443 0.8106
0.5284 0.3482 0.8146
0.6179 0.3522 0.8186
0.7073 0.3562 0.8226
0.7968 0.3602 0.8266
0.8862 0.3642 0.8306
0.1838 0.4303 0.8120
0.2733 0.4343 0.8160
0.3628 0.4383 0.8199
0.4522 0.4423 0.8239
0.5417 0.4463 0.8279
0.6312 0.4503 0.8319
0.7206 0.4542 0.8359
0.8101 0.4582 0.8399
0.8995 0.4622 0.8439
0.1972 0.5283 0.8253
0.2866 0.5323 0.8293
0.3761 0.5363 0.8332
0.4655 0.5403 0.8372
0.5550 0.5443 0.8412
0.6445 0.5483 0.8452
0.7339 0.5523 0.8492
0.8234 0.5563 0.8532
0.9128 0.5603 0.8572
0.2105 0.6264 0.8386
0.2999 0.6304 0.8426
0.3894 0.6343 0.8465
0.4788 0.6383 0.8505
0.5683 0.6423 0.8545
0.6578 0.6463 0.8585
0.7472 0.6503 0.8625
0.8367 0.6543 0.8665
0.9262 0.6583 0.8705
0.2238 0.7244 0.8519
0.3132 0.7284 0.8559
0.4027 0.7324 0.8599
0.4921 0.7364 0.8638
0.5816 0.7403 0.8678
0.6711 0.7443 0.8718
0.7605 0.7483 0.8758
0.8500 0.7523 0.8798
0.9395 0.7563 0.8838
0.2371 0.8224 0.8652
0.3265 0.8264 0.8692
0.4160 0.8304 0.8732
0.5054 0.8344 0.8771
0.5949 0.8384 0.8811
0.6844 0.8424 0.8851
0.7738 0.8464 0.8891
0.8633 0.8503 0.8931
0.9528 0.8543 0.8971
0.2504 0.9204 0.8785
0.3398 0.9244 0.8825
0.4293 0.9284 0.8865
0.5187 0.9324 0.8904
0.6082 0.9364 0.8944
0.6977 0.9404 0.8984
0.7871 0.9444 0.9024
0.8766 0.9484 0.9064
0.9661 0.9524 0.9104
