luts/faded.cube
# edite look: Faded (CC0)
TITLE "Faded"
LUT_3D_SIZE 17
DOMAIN_MIN 0.0 0.0 0.0
DOMAIN_MAX 1.0 1.0 1.0
0.1336 0.1259 0.1105
0.1784 0.1279 0.1125
0.2231 0.1299 0.1145
0.2678 0.1319 0.1165
0.3125 0.1339 0.1185
0.3573 0.1359 0.1205
0.4020 0.1379 0.1225
0.4467 0.1399 0.1245
0.4915 0.1419 0.1265
0.5362 0.1439 0.1284
0.5809 0.1459 0.1304
0.6257 0.1479 0.1324
0.6704 0.1498 0.1344
0.7151 0.1518 0.1364
0.7599 0.1538 0.1384
0.8046 0.1558 0.1404
0.8493 0.1578 0.1424
0.1403 0.1749 0.1172
0.1850 0.1769 0.1191
0.2297 0.1789 0.1211
0.2745 0.1809 0.1231
0.3192 0.1829 0.1251
0.3639 0.1849 0.1271
0.4087 0.1869 0.1291
0.4534 0.1889 0.1311
0.4981 0.1909 0.1331
0.5429 0.1929 0.1351
0.5876 0.1949 0.1371
0.6323 0.1969 0.1391
0.6770 0.1989 0.1411
0.7218 0.2009 0.1431
0.7665 0.2029 0.1451
0.8112 0.2048 0.1471
0.8560 0.2068 0.1491
0.1469 0.2239 0.1238
0.1917 0.2259 0.1258
0.2364 0.2279 0.1278
0.2811 0.2299 0.1298
0.3258 0.2319 0.1318
0.3706 0.2339 0.1338
0.4153 0.2359 0.1358
0.4600 0.2379 0.1378
0.5048 0.2399 0.1398
0.5495 0.2419 0.1418
0.5942 0.2439 0.1437
0.6390 0.2459 0.1457
0.6837 0.2479 0.1477
0.7284 0.2499 0.1497
0.7732 0.2519 0.1517
0.8179 0.2539 0.1537
0.8626 0.2559 0.1557
0.1536 0.2730 0.1305
0.1983 0.2749 0.1324
0.2430 0.2769 0.1344
0.2878 0.2789 0.1364
0.3325 0.2809 0.1384
0.3772 0.2829 0.1404
0.4220 0.2849 0.1424
0.4667 0.2869 0.1444
0.5114 0.2889 0.1464
0.5562 0.2909 0.1484
0.6009 0.2929 0.1504
0.6456 0.2949 0.1524
0.6904 0.2969 0.1544
0.7351 0.2989 0.1564
0.7798 0.3009 0.1584
0.8245 0.3029 0.1604
0.8693 0.3049 0.1624
0.1602 0.3220 0.1371
0.2050 0.3240 0.1391
0.2497 0.3260 0.1411
0.2944 0.3280 0.1431
0.3392 0.3299 0.1451
0.3839 0.3319 0.1471
0.4286 0.3339 0.1491
0.4733 0.3359 0.1511
0.5181 0.3379 0.1531
0.5628 0.3399 0.1551
0.6075 0.3419 0.1570
0.6523 0.3439 0.1590
0.6970 0.3459 0.1610
0.7417 0.3479 0.1630
0.7865 0.3499 0.1650
0.8312 0.3519 0.1670
0.8759 0.3539 0.1690
0.1669 0.3710 0.1438
0.2116 0.3730 0.1457
0.2563 0.3750 0.1477
0.3011 0.3770 0.1497
0.3458 0.3790 0.1517
0.3905 0.3810 0.1537
0.4353 0.3829 0.1557
0.4800 0.3849 0.1577
0.5247 0.3869 0.1597
0.5695 0.3889 0.1617
0.6142 0.3909 0.1637
0.6589 0.3929 0.1657
0.7037 0.3949 0.1677
0.7484 0.3969 0.1697
0.7931 0.3989 0.1717
0.8378 0.4009 0.1737
0.8826 0.4029 0.1757
0.1735 0.4200 0.1504
0.2183 0.4220 0.1524
0.2630 0.4240 0.1544
0.3077 0.4260 0.1564
0.3525 0.4280 0.1584
0.3972 0.4300 0.1604
0.4419 0.4320 0.1624
0.4866 0.4340 0.1644
0.5314 0.4359 0.1664
0.5761 0.4379 0.1684
0.6208 0.4399 0.1703
0.6656 0.4419 0.1723
0.7103 0.4439 0.1743
0.7550 0.4459 0.1763
0.7998 0.4479 0.1783
0.8445 0.4499 0.1803
0.8892 0.4519 0.1823
0.1802 0.4690 0.1571
0.2249 0.4710 0.1590
0.2696 0.4730 0.1610
0.3144 0.4750 0.1630
0.3591 0.4770 0.1650
0.4038 0.4790 0.1670
0.4486 0.4810 0.1690
0.4933 0.4830 0.1710
0.5380 0.4850 0.1730
0.5828 0.4870 0.1750
0.6275 0.4890 0.1770
0.6722 0.4909 0.1790
0.7170 0.4929 0.1810
0.7617 0.4949 0.1830
0.8064 0.4969 0.1850
0.8511 0.4989 0.1870
0.8959 0.5009 0.1890
0.1868 0.5180 0.1637
0.2316 0.5200 0.1657
0.2763 0.5220 0.1677
0.3210 0.5240 0.1697
0.3658 0.5260 0.1717
0.4105 0.5280 0.1737
0.4552 0.5300 0.1757
0.4999 0.5320 0.1777
0.5447 0.5340 0.1797
0.5894 0.5360 0.1817
0.6341 0.5380 0.1836
0.6789 0.5400 0.1856
0.7236 0.5420 0.1876
0.7683 0.5439 0.1896
0.8131 0.5459 0.1916
0.8578 0.5479 0.1936
0.9025 0.5499 0.1956
0.1935 0.5670 0.1704
0.2382 0.5690 0.1724
0.2829 0.5710 0.1743
0.3277 0.5730 0.1763
0.3724 0.5750 0.1783
0.4171 0.5770 0.1803
0.4619 0.5790 0.1823
0.5066 0.5810 0.1843
0.5513 0.5830 0.1863
0.5961 0.5850 0.1883
0.6408 0.5870 0.1903
0.6855 0.5890 0.1923
0.7303 0.5910 0.1943
0.7750 0.5930 0.1963
0.8197 0.5950 0.1983
0.8644 0.5970 0.2003
0.9092 0.5989 0.2023
0.2001 0.6160 0.1770
0.2449 0.6180 0.1790
0.2896 0.6200 0.1810
0.3343 0.6220 0.1830
0.3791 0.6240 0.1850
0.4238 0.6260 0.1870
0.4685 0.6280 0.1890
0.5132 0.6300 0.1910
0.5580 0.6320 0.1930
0.6027 0.6340 0.1950
0.6474 0.6360 0.1970
0.6922 0.6380 0.1989
0.7369 0.6400 0.2009
0.7816 0.6420 0.2029
0.8264 0.6440 0.2049
0.8711 0.6460 0.2069
0.9158 0.6480 0.2089
0.2068 0.6651 0.1837
0.2515 0.6671 0.1857
0.2962 0.6690 0.1876
0.3410 0.6710 0.1896
0.3857 0.6730 0.1916
0.4304 0.6750 0.1936
0.4752 0.6770 0.1956
0.5199 0.6790 0.1976
0.5646 0.6810 0.1996
0.6094 0.6830 0.2016
0.6541 0.6850 0.2036
0.6988 0.6870 0.2056
0.7436 0.6890 0.2076
0.7883 0.6910 0.2096
0.8330 0.6930 0.2116
0.8777 0.6950 0.2136
0.9225 0.6970 0.2156
0.2134 0.7141 0.1903
0.2582 0.7161 0.1923
0.3029 0.7181 0.1943
0.3476 0.7201 0.1963
0.3924 0.7221 0.1983
0.4371 0.7240 0.2003
0.4818 0.7260 0.2023
0.5266 0.7280 0.2043
0.5713 0.7300 0.2063
0.6160 0.7320 0.2083
0.6607 0.7340 0.2103
0.7055 0.7360 0.2122
0.7502 0.7380 0.2142
0.7949 0.7400 0.2162
0.8397 0.7420 0.2182
0.8844 0.7440 0.2202
0.9291 0.7460 0.2222
0.2201 0.7631 0.1970
0.2648 0.7651 0.1990
0.3095 0.7671 0.2009
0.3543 0.7691 0.2029
0.3990 0.7711 0.2049
0.4437 0.7731 0.2069
0.4885 0.7751 0.2089
0.5332 0.7770 0.2109
0.5779 0.7790 0.2129
0.6227 0.7810 0.2149
0.6674 0.7830 0.2169
0.7121 0.7850 0.2189
0.7569 0.7870 0.2209
0.8016 0.7890 0.2229
0.8463 0.7910 0.2249
0.8911 0.7930 0.2269
0.9358 0.7950 0.2289
0.2267 0.8121 0.2036
0.2715 0.8141 0.2056
0.3162 0.8161 0.2076
0.3609 0.8181 0.2096
0.4057 0.8201 0.2116
0.4504 0.8221 0.2136
0.4951 0.8241 0.2156
0.5399 0.8261 0.2176
0.5846 0.8281 0.2196
0.6293 0.8300 0.2216
0.6740 0.8320 0.2236
0.7188 0.8340 0.2255
0.7635 0.8360 0.2275
0.8082 0.8380 0.2295
0.8530 0.8400 0.2315
0.8977 0.8420 0.2335
0.9424 0.8440 0.2355
0.2334 0.8611 0.2103
0.2781 0.8631 0.2123
0.3228 0.8651 0.2142
0.3676 0.8671 0.2162
0.4123 0.8691 0.2182
0.4570 0.8711 0.2202
0.5018 0.8731 0.2222
0.5465 0.8751 0.2242
0.5912 0.8771 0.2262
0.6360 0.8791 0.2282
0.6807 0.8811 0.2302
0.7254 0.8831 0.2322
0.7702 0.8850 0.2342
0.8149 0.8870 0.2362
0.8596 0.8890 0.2382
0.9044 0.8910 0.2402
0.9491 0.8930 0.2422
0.2400 0.9101 0.2169
0.2848 0.9121 0.2189
0.3295 0.9141 0.2209
0.3742 0.9161 0.2229
0.4190 0.9181 0.2249
0.4637 0.9201 0.2269
0.5084 0.9221 0.2289
0.5532 0.9241 0.2309
0.5979 0.9261 0.2329
0.6426 0.9281 0.2349
0.6873 0.9301 0.2369
0.7321 0.9321 0.2388
0.7768 0.9341 0.2408
0.8215 0.9361 0.2428
0.8663 0.9380 0.2448
0.9110 0.9400 0.2468
0.9557 0.9420 0.2488
0.1343 0.1266 0.1518
0.1790 0.1286 0.1538
0.2237 0.1305 0.1558
0.2685 0.1325 0.1578
0.3132 0.1345 0.1598
0.3579 0.1365 0.1618
0.4027 0.1385 0.1638
0.4474 0.1405 0.1658
0.4921 0.1425 0.1678
0.5368 0.1445 0.1698
0.5816 0.1465 0.1718
0.6263 0.1485 0.1738
0.6710 0.1505 0.1758
0.7158 0.1525 0.1778
0.7605 0.1545 0.1798
0.8052 0.1565 0.1818
0.8500 0.1585 0.1838
0.1409 0.1756 0.1585
0.1857 0.1776 0.1605
0.2304 0.1796 0.1625
0.2751 0.1816 0.1645
0.3198 0.1836 0.1665
0.3646 0.1855 0.1685
0.4093 0.1875 0.1705
0.4540 0.1895 0.1725
0.4988 0.1915 0.1745
0.5435 0.1935 0.1764
0.5882 0.1955 0.1784
0.6330 0.1975 0.1804
0.6777 0.1995 0.1824
0.7224 0.2015 0.1844
0.7672 0.2035 0.1864
0.8119 0.2055 0.1884
0.8566 0.2075 0.1904
0.1476 0.2246 0.1651
0.1923 0.2266 0.1671
0.2370 0.2286 0.1691
0.2818 0.2306 0.1711
0.3265 0.2326 0.1731
0.3712 0.2346 0.1751
0.4160 0.2366 0.1771
0.4607 0.2385 0.1791
0.5054 0.2405 0.1811
0.5502 0.2425 0.1831
0.5949 0.2445 0.1851
0.6396 0.2465 0.1871
0.6843 0.2485 0.1891
0.7291 0.2505 0.1911
0.7738 0.2525 0.1931
0.8185 0.2545 0.1951
0.8633 0.2565 0.1971
0.1542 0.2736 0.1718
0.1990 0.2756 0.1738
0.2437 0.2776 0.1758
0.2884 0.2796 0.1778
0.3331 0.2816 0.1798
0.3779 0.2836 0.1818
0.4226 0.2856 0.1838
0.4673 0.2876 0.1858
0.5121 0.2896 0.1878
0.5568 0.2915 0.1897
0.6015 0.2935 0.1917
0.6463 0.2955 0.1937
0.6910 0.2975 0.1957
0.7357 0.2995 0.1977
0.7805 0.3015 0.1997
0.8252 0.3035 0.2017
0.8699 0.3055 0.2037
0.1609 0.3226 0.1785
0.2056 0.3246 0.1804
0.2503 0.3266 0.1824
0.2951 0.3286 0.1844
0.3398 0.3306 0.1864
0.3845 0.3326 0.1884
0.4293 0.3346 0.1904
0.4740 0.3366 0.1924
0.5187 0.3386 0.1944
0.5635 0.3406 0.1964
0.6082 0.3426 0.1984
0.6529 0.3446 0.2004
0.6976 0.3465 0.2024
0.7424 0.3485 0.2044
0.7871 0.3505 0.2064
0.8318 0.3525 0.2084
0.8766 0.3545 0.2104
0.1675 0.3716 0.1851
0.2123 0.3736 0.1871
0.2570 0.3756 0.1891
0.3017 0.3776 0.1911
0.3464 0.3796 0.1931
0.3912 0.3816 0.1951
0.4359 0.3836 0.1971
0.4806 0.3856 0.1991
0.5254 0.3876 0.2011
0.5701 0.3896 0.2031
0.6148 0.3916 0.2050
0.6596 0.3936 0.2070
0.7043 0.3956 0.2090
0.7490 0.3976 0.2110
0.7938 0.3995 0.2130
0.8385 0.4015 0.2150
0.8832 0.4035 0.2170
0.1742 0.4206 0.1918
0.2189 0.4226 0.1937
0.2636 0.4246 0.1957
0.3084 0.4266 0.1977
0.3531 0.4286 0.1997
0.3978 0.4306 0.2017
0.4426 0.4326 0.2037
0.4873 0.4346 0.2057
0.5320 0.4366 0.2077
0.5768 0.4386 0.2097
0.6215 0.4406 0.2117
0.6662 0.4426 0.2137
0.7109 0.4446 0.2157
0.7557 0.4466 0.2177
0.8004 0.4486 0.2197
0.8451 0.4506 0.2217
0.8899 0.4526 0.2237
0.1808 0.4697 0.1984
0.2256 0.4716 0.2004
0.2703 0.4736 0.2024
0.3150 0.4756 0.2044
0.3597 0.4776 0.2064
0.4045 0.4796 0.2084
0.4492 0.4816 0.2104
0.4939 0.4836 0.2124
0.5387 0.4856 0.2144
0.5834 0.4876 0.2164
0.6281 0.4896 0.2183
0.6729 0.4916 0.2203
0.7176 0.4936 0.2223
0.7623 0.4956 0.2243
0.8071 0.4976 0.2263
0.8518 0.4996 0.2283
0.8965 0.5016 0.2303
0.1875 0.5187 0.2051
0.2322 0.5207 0.2070
0.2769 0.5227 0.2090
0.3217 0.5246 0.2110
0.3664 0.5266 0.2130
0.4111 0.5286 0.2150
0.4559 0.5306 0.2170
0.5006 0.5326 0.2190
0.5453 0.5346 0.2210
0.5901 0.5366 0.2230
0.6348 0.5386 0.2250
0.6795 0.5406 0.2270
0.7242 0.5426 0.2290
0.7690 0.5446 0.2310
0.8137 0.5466 0.2330
0.8584 0.5486 0.2350
0.9032 0.5506 0.2370
0.1941 0.5677 0.2117
0.2389 0.5697 0.2137
0.2836 0.5717 0.2157
0.3283 0.5737 0.2177
0.3730 0.5757 0.2197
0.4178 0.5777 0.2217
0.4625 0.5796 0.2237
0.5072 0.5816 0.2257
0.5520 0.5836 0.2277
0.5967 0.5856 0.2297
0.6414 0.5876 0.2316
0.6862 0.5896 0.2336
0.7309 0.5916 0.2356
0.7756 0.5936 0.2376
0.8204 0.5956 0.2396
0.8651 0.5976 0.2416
0.9098 0.5996 0.2436
0.2008 0.6167 0.2184
0.2455 0.6187 0.2203
0.2902 0.6207 0.2223
0.3350 0.6227 0.2243
0.3797 0.6247 0.2263
0.4244 0.6267 0.2283
0.4692 0.6287 0.2303
0.5139 0.6307 0.2323
0.5586 0.6326 0.2343
0.6034 0.6346 0.2363
0.6481 0.6366 0.2383
0.6928 0.6386 0.2403
0.7375 0.6406 0.2423
0.7823 0.6426 0.2443
0.8270 0.6446 0.2463
0.8717 0.6466 0.2483
0.9165 0.6486 0.2503
0.2074 0.6657 0.2250
0.2522 0.6677 0.2270
0.2969 0.6697 0.2290
0.3416 0.6717 0.2310
0.3864 0.6737 0.2330
0.4311 0.6757 0.2350
0.4758 0.6777 0.2370
0.5205 0.6797 0.2390
0.5653 0.6817 0.2410
0.6100 0.6837 0.2430
0.6547 0.6856 0.2449
0.6995 0.6876 0.2469
0.7442 0.6896 0.2489
0.7889 0.6916 0.2509
0.8337 0.6936 0.2529
0.8784 0.6956 0.2549
0.9231 0.6976 0.2569
0.2141 0.7147 0.2317
0.2588 0.7167 0.2337
0.3035 0.7187 0.2356
0.3483 0.7207 0.2376
0.3930 0.7227 0.2396
0.4377 0.7247 0.2416
0.4825 0.7267 0.2436
0.5272 0.7287 0.2456
0.5719 0.7307 0.2476
0.6167 0.7327 0.2496
0.6614 0.7347 0.2516
0.7061 0.7367 0.2536
0.7509 0.7387 0.2556
0.7956 0.7406 0.2576
0.8403 0.7426 0.2596
0.8850 0.7446 0.2616
0.9298 0.7466 0.2636
0.2207 0.7637 0.2383
0.2655 0.7657 0.2403
0.3102 0.7677 0.2423
0.3549 0.7697 0.2443
0.3997 0.7717 0.2463
0.4444 0.7737 0.2483
0.4891 0.7757 0.2503
0.5338 0.7777 0.2523
0.5786 0.7797 0.2543
0.6233 0.7817 0.2563
0.6680 0.7837 0.2583
0.7128 0.7857 0.2602
0.7575 0.7877 0.2622
0.8022 0.7897 0.2642
0.8470 0.7917 0.2662
0.8917 0.7936 0.2682
0.9364 0.7956 0.2702
0.2274 0.8127 0.2450
0.2721 0.8147 0.2470
0.3168 0.8167 0.2489
0.3616 0.8187 0.2509
0.4063 0.8207 0.2529
0.4510 0.8227 0.2549
0.4958 0.8247 0.2569
0.5405 0.8267 0.2589
0.5852 0.8287 0.2609
0.6300 0.8307 0.2629
0.6747 0.8327 0.2649
0.7194 0.8347 0.2669
0.7642 0.8367 0.2689
0.8089 0.8387 0.2709
0.8536 0.8407 0.2729
0.8983 0.8427 0.2749
0.9431 0.8447 0.2769
0.2340 0.8618 0.2516
0.2788 0.8638 0.2536
0.3235 0.8657 0.2556
0.3682 0.8677 0.2576
0.4130 0.8697 0.2596
0.4577 0.8717 0.2616
0.5024 0.8737 0.2636
0.5471 0.8757 0.2656
0.5919 0.8777 0.2676
0.6366 0.8797 0.2696
0.6813 0.8817 0.2716
0.7261 0.8837 0.2735
0.7708 0.8857 0.2755
0.8155 0.8877 0.2775
0.8603 0.8897 0.2795
0.9050 0.8917 0.2815
0.9497 0.8937 0.2835
0.2407 0.9108 0.2583
0.2854 0.9128 0.2603
0.3301 0.9148 0.2622
0.3749 0.9168 0.2642
0.4196 0.9187 0.2662
0.4643 0.9207 0.2682
0.5091 0.9227 0.2702
0.5538 0.9247 0.2722
0.5985 0.9267 0.2742
0.6433 0.9287 0.2762
0.6880 0.9307 0.2782
0.7327 0.9327 0.2802
0.7775 0.9347 0.2822
0.8222 0.9367 0.2842
0.8669 0.9387 0.2862
0.9116 0.9407 0.2882
0.9564 0.9427 0.2902
0.1349 0.1272 0.1932
0.1796 0.1292 0.1952
0.2244 0.1312 0.1972
0.2691 0.1332 0.1992
0.3138 0.1352 0.2012
0.3586 0.1372 0.2032
0.4033 0.1392 0.2052
0.4480 0.1412 0.2072
0.4928 0.1432 0.2092
0.5375 0.1452 0.2111
0.5822 0.1472 0.2131
0.6270 0.1491 0.2151
0.6717 0.1511 0.2171
0.7164 0.1531 0.2191
0.7612 0.1551 0.2211
0.8059 0.1571 0.2231
0.8506 0.1591 0.2251
0.1416 0.1762 0.1998
0.1863 0.1782 0.2018
0.2310 0.1802 0.2038
0.2758 0.1822 0.2058
0.3205 0.1842 0.2078
0.3652 0.1862 0.2098
0.4100 0.1882 0.2118
0.4547 0.1902 0.2138
0.4994 0.1922 0.2158
0.5441 0.1942 0.2178
0.5889 0.1962 0.2198
0.6336 0.1982 0.2218
0.6783 0.2002 0.2238
0.7231 0.2021 0.2258
0.7678 0.2041 0.2278
0.8125 0.2061 0.2298
0.8573 0.2081 0.2318
0.1482 0.2252 0.2065
0.1929 0.2272 0.2085
0.2377 0.2292 0.2105
0.2824 0.2312 0.2125
0.3271 0.2332 0.2145
0.3719 0.2352 0.2165
0.4166 0.2372 0.2185
0.4613 0.2392 0.2205
0.5061 0.2412 0.2225
0.5508 0.2432 0.2244
0.5955 0.2452 0.2264
0.6403 0.2472 0.2284
0.6850 0.2492 0.2304
0.7297 0.2512 0.2324
0.7745 0.2532 0.2344
0.8192 0.2551 0.2364
0.8639 0.2571 0.2384
0.1549 0.2742 0.2131
0.1996 0.2762 0.2151
0.2443 0.2782 0.2171
0.2891 0.2802 0.2191
0.3338 0.2822 0.2211
0.3785 0.2842 0.2231
0.4233 0.2862 0.2251
0.4680 0.2882 0.2271
0.5127 0.2902 0.2291
0.5574 0.2922 0.2311
0.6022 0.2942 0.2331
0.6469 0.2962 0.2351
0.6916 0.2982 0.2371
0.7364 0.3002 0.2391
0.7811 0.3022 0.2411
0.8258 0.3042 0.2431
0.8706 0.3062 0.2451
0.1615 0.3233 0.2198
0.2062 0.3253 0.2218
0.2510 0.3272 0.2238
0.2957 0.3292 0.2258
0.3404 0.3312 0.2278
0.3852 0.3332 0.2298
0.4299 0.3352 0.2318
0.4746 0.3372 0.2338
0.5194 0.3392 0.2358
0.5641 0.3412 0.2377
0.6088 0.3432 0.2397
0.6536 0.3452 0.2417
0.6983 0.3472 0.2437
0.7430 0.3492 0.2457
0.7878 0.3512 0.2477
0.8325 0.3532 0.2497
0.8772 0.3552 0.2517
0.1682 0.3723 0.2264
0.2129 0.3743 0.2284
0.2576 0.3763 0.2304
0.3024 0.3783 0.2324
0.3471 0.3802 0.2344
0.3918 0.3822 0.2364
0.4366 0.3842 0.2384
0.4813 0.3862 0.2404
0.5260 0.3882 0.2424
0.5707 0.3902 0.2444
0.6155 0.3922 0.2464
0.6602 0.3942 0.2484
0.7049 0.3962 0.2504
0.7497 0.3982 0.2524
0.7944 0.4002 0.2544
0.8391 0.4022 0.2564
0.8839 0.4042 0.2584
0.1748 0.4213 0.2331
0.2195 0.4233 0.2351
0.2643 0.4253 0.2371
0.3090 0.4273 0.2391
0.3537 0.4293 0.2411
0.3985 0.4313 0.2431
0.4432 0.4333 0.2451
0.4879 0.4352 0.2471
0.5327 0.4372 0.2491
0.5774 0.4392 0.2510
0.6221 0.4412 0.2530
0.6669 0.4432 0.2550
0.7116 0.4452 0.2570
0.7563 0.4472 0.2590
0.8011 0.4492 0.2610
0.8458 0.4512 0.2630
0.8905 0.4532 0.2650
0.1815 0.4703 0.2397
0.2262 0.4723 0.2417
0.2709 0.4743 0.2437
0.3157 0.4763 0.2457
0.3604 0.4783 0.2477
0.4051 0.4803 0.2497
0.4499 0.4823 0.2517
0.4946 0.4843 0.2537
0.5393 0.4863 0.2557
0.5840 0.4882 0.2577
0.6288 0.4902 0.2597
0.6735 0.4922 0.2617
0.7182 0.4942 0.2637
0.7630 0.4962 0.2657
0.8077 0.4982 0.2677
0.8524 0.5002 0.2697
0.8972 0.5022 0.2717
0.1881 0.5193 0.2464
0.2329 0.5213 0.2484
0.2776 0.5233 0.2504
0.3223 0.5253 0.2524
0.3670 0.5273 0.2544
0.4118 0.5293 0.2564
0.4565 0.5313 0.2584
0.5012 0.5333 0.2604
0.5460 0.5353 0.2624
0.5907 0.5373 0.2644
0.6354 0.5393 0.2663
0.6802 0.5412 0.2683
0.7249 0.5432 0.2703
0.7696 0.5452 0.2723
0.8144 0.5472 0.2743
0.8591 0.5492 0.2763
0.9038 0.5512 0.2783
0.1948 0.5683 0.2531
0.2395 0.5703 0.2550
0.2842 0.5723 0.2570
0.3290 0.5743 0.2590
0.3737 0.5763 0.2610
0.4184 0.5783 0.2630
0.4632 0.5803 0.2650
0.5079 0.5823 0.2670
0.5526 0.5843 0.2690
0.5974 0.5863 0.2710
0.6421 0.5883 0.2730
0.6868 0.5903 0.2750
0.7315 0.5923 0.2770
0.7763 0.5943 0.2790
0.8210 0.5962 0.2810
0.8657 0.5982 0.2830
0.9105 0.6002 0.2850
0.2014 0.6173 0.2597
0.2462 0.6193 0.2617
0.2909 0.6213 0.2637
0.3356 0.6233 0.2657
0.3803 0.6253 0.2677
0.4251 0.6273 0.2697
0.4698 0.6293 0.2717
0.5145 0.6313 0.2737
0.5593 0.6333 0.2757
0.6040 0.6353 0.2777
0.6487 0.6373 0.2796
0.6935 0.6393 0.2816
0.7382 0.6413 0.2836
0.7829 0.6433 0.2856
0.8277 0.6453 0.2876
0.8724 0.6473 0.2896
0.9171 0.6492 0.2916
0.2081 0.6663 0.2664
0.2528 0.6683 0.2683
0.2975 0.6703 0.2703
0.3423 0.6723 0.2723
0.3870 0.6743 0.2743
0.4317 0.6763 0.2763
0.4765 0.6783 0.2783
0.5212 0.6803 0.2803
0.5659 0.6823 0.2823
0.6107 0.6843 0.2843
0.6554 0.6863 0.2863
0.7001 0.6883 0.2883
0.7448 0.6903 0.2903
0.7896 0.6923 0.2923
0.8343 0.6943 0.2943
0.8790 0.6963 0.2963
0.9238 0.6983 0.2983
0.2147 0.7154 0.2730
0.2595 0.7174 0.2750
0.3042 0.7194 0.2770
0.3489 0.7213 0.2790
0.3936 0.7233 0.2810
0.4384 0.7253 0.2830
0.4831 0.7273 0.2850
0.5278 0.7293 0.2870
0.5726 0.7313 0.2890
0.6173 0.7333 0.2910
0.6620 0.7353 0.2929
0.7068 0.7373 0.2949
0.7515 0.7393 0.2969
0.7962 0.7413 0.2989
0.8410 0.7433 0.3009
0.8857 0.7453 0.3029
0.9304 0.7473 0.3049
0.2214 0.7644 0.2797
0.2661 0.7664 0.2816
0.3108 0.7684 0.2836
0.3556 0.7704 0.2856
0.4003 0.7724 0.2876
0.4450 0.7743 0.2896
0.4898 0.7763 0.2916
0.5345 0.7783 0.2936
0.5792 0.7803 0.2956
0.6240 0.7823 0.2976
0.6687 0.7843 0.2996
0.7134 0.7863 0.3016
0.7581 0.7883 0.3036
0.8029 0.7903 0.3056
0.8476 0.7923 0.3076
0.8923 0.7943 0.3096
0.9371 0.7963 0.3116
0.2280 0.8134 0.2863
0.2728 0.8154 0.2883
0.3175 0.8174 0.2903
0.3622 0.8194 0.2923
0.4069 0.8214 0.2943
0.4517 0.8234 0.2963
0.4964 0.8254 0.2983
0.5411 0.8274 0.3003
0.5859 0.8293 0.3023
0.6306 0.8313 0.3043
0.6753 0.8333 0.3062
0.7201 0.8353 0.3082
0.7648 0.8373 0.3102
0.8095 0.8393 0.3122
0.8543 0.8413 0.3142
0.8990 0.8433 0.3162
0.9437 0.8453 0.3182
0.2347 0.8624 0.2930
0.2794 0.8644 0.2949
0.3241 0.8664 0.2969
0.3689 0.8684 0.2989
0.4136 0.8704 0.3009
0.4583 0.8724 0.3029
0.5031 0.8744 0.3049
0.5478 0.8764 0.3069
0.5925 0.8784 0.3089
0.6373 0.8804 0.3109
0.6820 0.8823 0.3129
0.7267 0.8843 0.3149
0.7714 0.8863 0.3169
0.8162 0.8883 0.3189
0.8609 0.8903 0.3209
0.9056 0.8923 0.3229
0.9504 0.8943 0.3249
0.2413 0.9114 0.2996
0.2861 0.9134 0.3016
0.3308 0.9154 0.3036
0.3755 0.9174 0.3056
0.4202 0.9194 0.3076
0.4650 0.9214 0.3096
0.5097 0.9234 0.3116
0.5544 0.9254 0.3136
0.5992 0.9274 0.3156
0.6439 0.9294 0.3176
0.6886 0.9314 0.3196
0.7334 0.9334 0.3215
0.7781 0.9353 0.3235
0.8228 0.9373 0.3255
0.8676 0.9393 0.3275
0.9123 0.9413 0.3295
0.9570 0.9433 0.3315
0.1356 0.1279 0.2345
0.1803 0.1298 0.2365
0.2250 0.1318 0.2385
0.2698 0.1338 0.2405
0.3145 0.1358 0.2425
0.3592 0.1378 0.2445
0.4039 0.1398 0.2465
0.4487 0.1418 0.2485
0.4934 0.1438 0.2505
0.5381 0.1458 0.2525
0.5829 0.1478 0.2545
0.6276 0.1498 0.2565
0.6723 0.1518 0.2585
0.7171 0.1538 0.2605
0.7618 0.1558 0.2625
0.8065 0.1578 0.2645
0.8513 0.1598 0.2665
0.1422 0.1769 0.2412
0.1869 0.1789 0.2432
0.2317 0.1809 0.2452
0.2764 0.1828 0.2472
0.3211 0.1848 0.2492
0.3659 0.1868 0.2512
0.4106 0.1888 0.2532
0.4553 0.1908 0.2552
0.5001 0.1928 0.2571
0.5448 0.1948 0.2591
0.5895 0.1968 0.2611
0.6343 0.1988 0.2631
0.6790 0.2008 0.2651
0.7237 0.2028 0.2671
0.7684 0.2048 0.2691
0.8132 0.2068 0.2711
