luts/golden.cube
# edite look: Golden (CC0)
TITLE "Golden"
LUT_3D_SIZE 17
DOMAIN_MIN 0.0 0.0 0.0
DOMAIN_MAX 1.0 1.0 1.0
0.0000 0.0000 0.0000
0.0459 0.0000 0.0000
0.1219 0.0000 0.0000
0.1979 0.0000 0.0000
0.2740 0.0000 0.0000
0.3500 0.0000 0.0000
0.4261 0.0000 0.0000
0.5022 0.0000 0.0000
0.5783 0.0000 0.0000
0.6545 0.0000 0.0000
0.7306 0.0000 0.0000
0.8068 0.0000 0.0000
0.8830 0.0000 0.0000
0.9592 0.0000 0.0000
1.0000 0.0000 0.0000
1.0000 0.0000 0.0000
1.0000 0.0000 0.0000
0.0000 0.0383 0.0000
0.0421 0.0369 0.0000
0.1181 0.0355 0.0000
0.1942 0.0340 0.0000
0.2704 0.0326 0.0000
0.3465 0.0312 0.0000
0.4226 0.0298 0.0000
0.4988 0.0284 0.0000
0.5749 0.0270 0.0000
0.6511 0.0256 0.0000
0.7273 0.0242 0.0000
0.8035 0.0228 0.0000
0.8797 0.0214 0.0000
0.9559 0.0200 0.0000
1.0000 0.0187 0.0000
1.0000 0.0173 0.0000
1.0000 0.0159 0.0000
0.0000 0.1067 0.0000
0.0385 0.1053 0.0000
0.1146 0.1039 0.0000
0.1908 0.1025 0.0000
0.2669 0.1011 0.0000
0.3431 0.0997 0.0000
0.4193 0.0983 0.0000
0.4955 0.0969 0.0000
0.5717 0.0955 0.0000
0.6479 0.0941 0.0000
0.7241 0.0927 0.0000
0.8003 0.0913 0.0000
0.8766 0.0899 0.0000
0.9528 0.0885 0.0000
1.0000 0.0872 0.0000
1.0000 0.0858 0.0000
1.0000 0.0844 0.0000
0.0000 0.1751 0.0000
0.0351 0.1737 0.0000
0.1112 0.1723 0.0000
0.1874 0.1709 0.0000
0.2636 0.1695 0.0000
0.3398 0.1681 0.0000
0.4160 0.1667 0.0000
0.4923 0.1654 0.0000
0.5685 0.1640 0.0000
0.6447 0.1626 0.0000
0.7210 0.1612 0.0000
0.7972 0.1598 0.0000
0.8735 0.1584 0.0000
0.9498 0.1571 0.0000
1.0000 0.1557 0.0000
1.0000 0.1543 0.0000
1.0000 0.1529 0.0000
0.0000 0.2436 0.0000
0.0318 0.2422 0.0000
0.1080 0.2408 0.0000
0.1842 0.2394 0.0000
0.2604 0.2380 0.0000
0.3367 0.2366 0.0000
0.4129 0.2352 0.0000
0.4892 0.2339 0.0000
0.5654 0.2325 0.0000
0.6417 0.2311 0.0000
0.7179 0.2297 0.0000
0.7942 0.2283 0.0000
0.8705 0.2270 0.0000
0.9468 0.2256 0.0000
1.0000 0.2242 0.0000
1.0000 0.2229 0.0000
1.0000 0.2215 0.0000
0.0000 0.3120 0.0000
0.0286 0.3107 0.0000
0.1048 0.3093 0.0000
0.1811 0.3079 0.0000
0.2573 0.3065 0.0000
0.3336 0.3051 0.0000
0.4099 0.3038 0.0000
0.4861 0.3024 0.0000
0.5624 0.3010 0.0000
0.6387 0.2996 0.0000
0.7150 0.2983 0.0000
0.7913 0.2969 0.0000
0.8676 0.2955 0.0000
0.9439 0.2942 0.0000
1.0000 0.2928 0.0000
1.0000 0.2914 0.0000
1.0000 0.2901 0.0000
0.0000 0.3806 0.0000
0.0255 0.3792 0.0000
0.1018 0.3778 0.0000
0.1780 0.3764 0.0000
0.2543 0.3750 0.0000
0.3306 0.3737 0.0000
0.4069 0.3723 0.0000
0.4832 0.3709 0.0000
0.5595 0.3695 0.0000
0.6358 0.3682 0.0000
0.7121 0.3668 0.0000
0.7884 0.3654 0.0000
0.8647 0.3641 0.0000
0.9411 0.3627 0.0000
1.0000 0.3614 0.0000
1.0000 0.3600 0.0000
1.0000 0.3586 0.0000
0.0000 0.4491 0.0000
0.0225 0.4477 0.0000
0.0988 0.4463 0.0000
0.1751 0.4450 0.0000
0.2514 0.4436 0.0000
0.3277 0.4422 0.0000
0.4040 0.4408 0.0000
0.4803 0.4395 0.0000
0.5566 0.4381 0.0000
0.6329 0.4367 0.0000
0.7093 0.4354 0.0000
0.7856 0.4340 0.0000
0.8619 0.4327 0.0000
0.9383 0.4313 0.0000
1.0000 0.4299 0.0000
1.0000 0.4286 0.0000
1.0000 0.4272 0.0000
0.0000 0.5176 0.0000
0.0196 0.5162 0.0000
0.0959 0.5149 0.0000
0.1722 0.5135 0.0000
0.2485 0.5121 0.0000
0.3248 0.5108 0.0000
0.4012 0.5094 0.0000
0.4775 0.5080 0.0000
0.5538 0.5067 0.0000
0.6302 0.5053 0.0000
0.7065 0.5040 0.0000
0.7829 0.5026 0.0000
0.8592 0.5012 0.0000
0.9356 0.4999 0.0000
1.0000 0.4985 0.0000
1.0000 0.4972 0.0000
1.0000 0.4958 0.0000
0.0000 0.5862 0.0000
0.0167 0.5848 0.0000
0.0930 0.5834 0.0000
0.1694 0.5821 0.0000
0.2457 0.5807 0.0000
0.3220 0.5793 0.0000
0.3984 0.5780 0.0000
0.4747 0.5766 0.0000
0.5511 0.5753 0.0000
0.6274 0.5739 0.0000
0.7038 0.5726 0.0000
0.7802 0.5712 0.0000
0.8565 0.5698 0.0000
0.9329 0.5685 0.0000
1.0000 0.5671 0.0000
1.0000 0.5658 0.0000
1.0000 0.5644 0.0000
0.0000 0.6547 0.0000
0.0139 0.6534 0.0000
0.0902 0.6520 0.0000
0.1666 0.6506 0.0000
0.2429 0.6493 0.0000
0.3193 0.6479 0.0000
0.3956 0.6466 0.0000
0.4720 0.6452 0.0000
0.5484 0.6439 0.0000
0.6248 0.6425 0.0000
0.7011 0.6412 0.0000
0.7775 0.6398 0.0000
0.8539 0.6385 0.0000
0.9303 0.6371 0.0000
1.0000 0.6358 0.0000
1.0000 0.6344 0.0000
1.0000 0.6331 0.0000
0.0000 0.7233 0.0000
0.0112 0.7220 0.0000
0.0875 0.7206 0.0000
0.1639 0.7192 0.0000
0.2402 0.7179 0.0000
0.3166 0.7165 0.0000
0.3930 0.7152 0.0000
0.4694 0.7138 0.0000
0.5457 0.7125 0.0000
0.6221 0.7111 0.0000
0.6985 0.7098 0.0000
0.7749 0.7084 0.0000
0.8513 0.7071 0.0000
0.9277 0.7057 0.0000
1.0000 0.7044 0.0000
1.0000 0.7030 0.0000
1.0000 0.7017 0.0000
0.0000 0.7919 0.0000
0.0085 0.7905 0.0000
0.0848 0.7892 0.0000
0.1612 0.7878 0.0000
0.2376 0.7865 0.0000
0.3140 0.7851 0.0000
0.3904 0.7838 0.0000
0.4667 0.7824 0.0000
0.5431 0.7811 0.0000
0.6195 0.7797 0.0000
0.6959 0.7784 0.0000
0.7724 0.7770 0.0000
0.8488 0.7757 0.0000
0.9252 0.7744 0.0000
1.0000 0.7730 0.0000
1.0000 0.7717 0.0000
1.0000 0.7703 0.0000
0.0000 0.8605 0.0000
0.0058 0.8592 0.0000
0.0822 0.8578 0.0000
0.1586 0.8565 0.0000
0.2350 0.8551 0.0000
0.3114 0.8538 0.0000
0.3878 0.8524 0.0000
0.4642 0.8511 0.0000
0.5406 0.8497 0.0000
0.6170 0.8484 0.0000
0.6934 0.8470 0.0000
0.7698 0.8457 0.0000
0.8463 0.8443 0.0000
0.9227 0.8430 0.0000
0.9991 0.8417 0.0000
1.0000 0.8403 0.0000
1.0000 0.8390 0.0000
0.0000 0.9291 0.0000
0.0032 0.9278 0.0000
0.0796 0.9264 0.0000
0.1560 0.9251 0.0000
0.2324 0.9237 0.0000
0.3088 0.9224 0.0000
0.3852 0.9210 0.0000
0.4617 0.9197 0.0000
0.5381 0.9184 0.0000
0.6145 0.9170 0.0000
0.6909 0.9157 0.0000
0.7674 0.9143 0.0000
0.8438 0.9130 0.0000
0.9203 0.9117 0.0000
0.9967 0.9103 0.0000
1.0000 0.9090 0.0000
1.0000 0.9076 0.0000
0.0000 0.9977 0.0000
0.0007 0.9964 0.0000
0.0771 0.9951 0.0000
0.1535 0.9937 0.0000
0.2299 0.9924 0.0000
0.3063 0.9910 0.0000
0.3828 0.9897 0.0000
0.4592 0.9883 0.0000
0.5356 0.9870 0.0000
0.6121 0.9857 0.0000
0.6885 0.9843 0.0000
0.7649 0.9830 0.0000
0.8414 0.9817 0.0000
0.9178 0.9803 0.0000
0.9943 0.9790 0.0000
1.0000 0.9776 0.0000
1.0000 0.9763 0.0000
0.0000 1.0000 0.0000
0.0000 1.0000 0.0000
0.0746 1.0000 0.0000
0.1510 1.0000 0.0000
0.2274 1.0000 0.0000
0.3039 1.0000 0.0000
0.3803 1.0000 0.0000
0.4568 1.0000 0.0000
0.5332 1.0000 0.0000
0.6096 1.0000 0.0000
0.6861 1.0000 0.0000
0.7626 1.0000 0.0000
0.8390 1.0000 0.0000
0.9155 1.0000 0.0000
0.9919 1.0000 0.0000
1.0000 1.0000 0.0000
1.0000 1.0000 0.0000
0.0000 0.0000 0.0351
0.0456 0.0000 0.0335
0.1215 0.0000 0.0319
0.1976 0.0000 0.0303
0.2736 0.0000 0.0286
0.3497 0.0000 0.0269
0.4258 0.0000 0.0253
0.5019 0.0000 0.0236
0.5780 0.0000 0.0219
0.6542 0.0000 0.0202
0.7303 0.0000 0.0185
0.8065 0.0000 0.0167
0.8827 0.0000 0.0150
0.9589 0.0000 0.0133
1.0000 0.0000 0.0115
1.0000 0.0000 0.0098
1.0000 0.0000 0.0081
0.0000 0.0379 0.0300
0.0417 0.0365 0.0283
0.1178 0.0351 0.0266
0.1939 0.0336 0.0249
0.2700 0.0322 0.0232
0.3462 0.0308 0.0215
0.4223 0.0294 0.0198
0.4985 0.0280 0.0181
0.5747 0.0266 0.0164
0.6508 0.0252 0.0147
0.7270 0.0238 0.0129
0.8032 0.0224 0.0112
0.8794 0.0210 0.0094
0.9557 0.0197 0.0077
1.0000 0.0183 0.0059
1.0000 0.0169 0.0042
1.0000 0.0155 0.0024
0.0000 0.1063 0.0246
0.0382 0.1049 0.0229
0.1143 0.1035 0.0212
0.1905 0.1021 0.0195
0.2666 0.1007 0.0178
0.3428 0.0993 0.0160
0.4190 0.0979 0.0143
0.4952 0.0965 0.0126
0.5714 0.0951 0.0108
0.6476 0.0937 0.0091
0.7238 0.0923 0.0073
0.8001 0.0909 0.0056
0.8763 0.0895 0.0038
0.9525 0.0882 0.0021
1.0000 0.0868 0.0003
1.0000 0.0854 0.0000
1.0000 0.0840 0.0000
0.0000 0.1747 0.0191
0.0348 0.1733 0.0174
0.1110 0.1719 0.0157
0.1871 0.1705 0.0140
0.2633 0.1691 0.0122
0.3396 0.1677 0.0105
0.4158 0.1663 0.0087
0.4920 0.1650 0.0070
0.5682 0.1636 0.0052
0.6445 0.1622 0.0035
0.7207 0.1608 0.0017
0.7970 0.1594 0.0000
0.8732 0.1580 0.0000
0.9495 0.1567 0.0000
1.0000 0.1553 0.0000
1.0000 0.1539 0.0000
1.0000 0.1526 0.0000
0.0000 0.2432 0.0136
0.0315 0.2418 0.0119
0.1077 0.2404 0.0101
0.1839 0.2390 0.0084
0.2602 0.2376 0.0066
0.3364 0.2362 0.0049
0.4126 0.2348 0.0031
0.4889 0.2335 0.0014
0.5652 0.2321 0.0000
0.6414 0.2307 0.0000
0.7177 0.2293 0.0000
0.7940 0.2280 0.0000
0.8703 0.2266 0.0000
0.9465 0.2252 0.0000
1.0000 0.2238 0.0000
1.0000 0.2225 0.0000
1.0000 0.2211 0.0000
0.0000 0.3117 0.0080
0.0283 0.3103 0.0063
0.1046 0.3089 0.0045
0.1808 0.3075 0.0028
0.2571 0.3061 0.0010
0.3333 0.3047 0.0000
0.4096 0.3034 0.0000
0.4859 0.3020 0.0000
0.5622 0.3006 0.0000
0.6384 0.2992 0.0000
0.7147 0.2979 0.0000
0.7910 0.2965 0.0000
0.8673 0.2951 0.0000
0.9437 0.2938 0.0000
1.0000 0.2924 0.0000
1.0000 0.2910 0.0000
1.0000 0.2897 0.0000
0.0000 0.3802 0.0024
0.0253 0.3788 0.0006
0.1015 0.3774 0.0000
0.1778 0.3760 0.0000
0.2541 0.3746 0.0000
0.3304 0.3733 0.0000
0.4066 0.3719 0.0000
0.4829 0.3705 0.0000
0.5592 0.3692 0.0000
0.6355 0.3678 0.0000
0.7119 0.3664 0.0000
0.7882 0.3651 0.0000
0.8645 0.3637 0.0000
0.9408 0.3623 0.0000
1.0000 0.3610 0.0000
1.0000 0.3596 0.0000
1.0000 0.3582 0.0000
0.0000 0.4487 0.0000
0.0223 0.4473 0.0000
0.0985 0.4459 0.0000
0.1748 0.4446 0.0000
0.2511 0.4432 0.0000
0.3274 0.4418 0.0000
0.4037 0.4405 0.0000
0.4801 0.4391 0.0000
0.5564 0.4377 0.0000
0.6327 0.4364 0.0000
0.7090 0.4350 0.0000
0.7854 0.4336 0.0000
0.8617 0.4323 0.0000
0.9381 0.4309 0.0000
1.0000 0.4296 0.0000
1.0000 0.4282 0.0000
1.0000 0.4268 0.0000
0.0000 0.5172 0.0000
0.0193 0.5159 0.0000
0.0956 0.5145 0.0000
0.1719 0.5131 0.0000
0.2483 0.5117 0.0000
0.3246 0.5104 0.0000
0.4009 0.5090 0.0000
0.4772 0.5077 0.0000
0.5536 0.5063 0.0000
0.6299 0.5049 0.0000
0.7063 0.5036 0.0000
0.7826 0.5022 0.0000
0.8590 0.5009 0.0000
0.9353 0.4995 0.0000
1.0000 0.4981 0.0000
1.0000 0.4968 0.0000
1.0000 0.4954 0.0000
0.0000 0.5858 0.0000
0.0165 0.5844 0.0000
0.0928 0.5830 0.0000
0.1691 0.5817 0.0000
0.2455 0.5803 0.0000
0.3218 0.5790 0.0000
0.3981 0.5776 0.0000
0.4745 0.5762 0.0000
0.5508 0.5749 0.0000
0.6272 0.5735 0.0000
0.7036 0.5722 0.0000
0.7799 0.5708 0.0000
0.8563 0.5695 0.0000
0.9327 0.5681 0.0000
1.0000 0.5668 0.0000
1.0000 0.5654 0.0000
1.0000 0.5641 0.0000
0.0000 0.6543 0.0000
0.0137 0.6530 0.0000
0.0900 0.6516 0.0000
0.1664 0.6503 0.0000
0.2427 0.6489 0.0000
0.3191 0.6475 0.0000
0.3954 0.6462 0.0000
0.4718 0.6448 0.0000
0.5482 0.6435 0.0000
0.6245 0.6421 0.0000
0.7009 0.6408 0.0000
0.7773 0.6394 0.0000
0.8537 0.6381 0.0000
0.9301 0.6367 0.0000
1.0000 0.6354 0.0000
1.0000 0.6340 0.0000
1.0000 0.6327 0.0000
0.0000 0.7229 0.0000
0.0109 0.7216 0.0000
0.0873 0.7202 0.0000
0.1636 0.7189 0.0000
0.2400 0.7175 0.0000
0.3164 0.7161 0.0000
0.3928 0.7148 0.0000
0.4691 0.7134 0.0000
0.5455 0.7121 0.0000
0.6219 0.7107 0.0000
0.6983 0.7094 0.0000
0.7747 0.7080 0.0000
0.8511 0.7067 0.0000
0.9275 0.7053 0.0000
1.0000 0.7040 0.0000
1.0000 0.7027 0.0000
1.0000 0.7013 0.0000
0.0000 0.7915 0.0000
0.0082 0.7902 0.0000
0.0846 0.7888 0.0000
0.1610 0.7875 0.0000
0.2374 0.7861 0.0000
0.3138 0.7848 0.0000
0.3901 0.7834 0.0000
0.4665 0.7821 0.0000
0.5429 0.7807 0.0000
0.6193 0.7794 0.0000
0.6957 0.7780 0.0000
0.7722 0.7767 0.0000
0.8486 0.7753 0.0000
0.9250 0.7740 0.0000
1.0000 0.7726 0.0000
1.0000 0.7713 0.0000
1.0000 0.7700 0.0000
0.0000 0.8601 0.0000
0.0056 0.8588 0.0000
0.0820 0.8574 0.0000
0.1584 0.8561 0.0000
0.2348 0.8547 0.0000
0.3112 0.8534 0.0000
0.3876 0.8520 0.0000
0.4640 0.8507 0.0000
0.5404 0.8493 0.0000
0.6168 0.8480 0.0000
0.6932 0.8467 0.0000
0.7696 0.8453 0.0000
0.8461 0.8440 0.0000
0.9225 0.8426 0.0000
0.9989 0.8413 0.0000
1.0000 0.8399 0.0000
1.0000 0.8386 0.0000
0.0000 0.9287 0.0000
0.0030 0.9274 0.0000
0.0794 0.9260 0.0000
0.1558 0.9247 0.0000
0.2322 0.9234 0.0000
0.3086 0.9220 0.0000
0.3850 0.9207 0.0000
0.4615 0.9193 0.0000
0.5379 0.9180 0.0000
0.6143 0.9166 0.0000
0.6907 0.9153 0.0000
0.7672 0.9140 0.0000
0.8436 0.9126 0.0000
0.9201 0.9113 0.0000
0.9965 0.9099 0.0000
1.0000 0.9086 0.0000
1.0000 0.9073 0.0000
0.0000 0.9974 0.0000
0.0005 0.9960 0.0000
0.0769 0.9947 0.0000
0.1533 0.9933 0.0000
0.2297 0.9920 0.0000
0.3061 0.9906 0.0000
0.3826 0.9893 0.0000
0.4590 0.9880 0.0000
0.5354 0.9866 0.0000
0.6119 0.9853 0.0000
0.6883 0.9840 0.0000
0.7648 0.9826 0.0000
0.8412 0.9813 0.0000
0.9177 0.9799 0.0000
0.9941 0.9786 0.0000
1.0000 0.9773 0.0000
1.0000 0.9759 0.0000
0.0000 1.0000 0.0000
0.0000 1.0000 0.0000
0.0744 1.0000 0.0000
0.1508 1.0000 0.0000
0.2272 1.0000 0.0000
0.3037 1.0000 0.0000
0.3801 1.0000 0.0000
0.4566 1.0000 0.0000
0.5330 1.0000 0.0000
0.6095 1.0000 0.0000
0.6859 1.0000 0.0000
0.7624 1.0000 0.0000
0.8388 1.0000 0.0000
0.9153 1.0000 0.0000
0.9918 1.0000 0.0000
1.0000 1.0000 0.0000
1.0000 1.0000 0.0000
0.0000 0.0000 0.1003
0.0452 0.0000 0.0987
0.1212 0.0000 0.0970
0.1972 0.0000 0.0954
0.2733 0.0000 0.0937
0.3494 0.0000 0.0920
0.4255 0.0000 0.0904
0.5016 0.0000 0.0887
0.5777 0.0000 0.0870
0.6539 0.0000 0.0852
0.7300 0.0000 0.0835
0.8062 0.0000 0.0818
0.8824 0.0000 0.0801
0.9586 0.0000 0.0784
1.0000 0.0000 0.0766
1.0000 0.0000 0.0749
1.0000 0.0000 0.0731
0.0000 0.0375 0.0951
0.0414 0.0361 0.0934
0.1175 0.0347 0.0917
0.1936 0.0332 0.0900
0.2697 0.0318 0.0883
0.3459 0.0304 0.0866
0.4220 0.0290 0.0849
0.4982 0.0276 0.0832
0.5744 0.0262 0.0815
0.6506 0.0248 0.0797
0.7267 0.0234 0.0780
0.8030 0.0220 0.0763
0.8792 0.0206 0.0745
0.9554 0.0193 0.0728
1.0000 0.0179 0.0710
1.0000 0.0165 0.0693
1.0000 0.0151 0.0675
0.0000 0.1059 0.0897
0.0379 0.1045 0.0880
0.1140 0.1031 0.0863
0.1902 0.1017 0.0846
0.2663 0.1003 0.0828
0.3425 0.0989 0.0811
0.4187 0.0975 0.0794
0.4949 0.0961 0.0777
0.5711 0.0947 0.0759
0.6473 0.0933 0.0742
0.7236 0.0919 0.0724
0.7998 0.0905 0.0707
0.8760 0.0891 0.0689
0.9523 0.0878 0.0671
1.0000 0.0864 0.0654
1.0000 0.0850 0.0636
1.0000 0.0836 0.0618
0.0000 0.1743 0.0842
0.0345 0.1729 0.0825
0.1107 0.1715 0.0808
0.1869 0.1701 0.0790
0.2631 0.1687 0.0773
0.3393 0.1673 0.0756
0.4155 0.1660 0.0738
0.4917 0.1646 0.0721
0.5680 0.1632 0.0703
0.6442 0.1618 0.0685
0.7205 0.1604 0.0668
0.7967 0.1590 0.0650
0.8730 0.1577 0.0632
0.9493 0.1563 0.0615
1.0000 0.1549 0.0597
1.0000 0.1535 0.0579
1.0000 0.1522 0.0561
0.0000 0.2428 0.0787
0.0312 0.2414 0.0770
0.1074 0.2400 0.0752
0.1837 0.2386 0.0735
0.2599 0.2372 0.0717
0.3361 0.2358 0.0699
0.4124 0.2345 0.0682
0.4886 0.2331 0.0664
0.5649 0.2317 0.0646
0.6412 0.2303 0.0629
0.7174 0.2289 0.0611
0.7937 0.2276 0.0593
0.8700 0.2262 0.0575
0.9463 0.2248 0.0557
1.0000 0.2235 0.0539
1.0000 0.2221 0.0521
1.0000 0.2207 0.0503
0.0000 0.3113 0.0731
0.0281 0.3099 0.0714
0.1043 0.3085 0.0696
0.1806 0.3071 0.0678
0.2568 0.3057 0.0661
0.3331 0.3044 0.0643
0.4094 0.3030 0.0625
0.4856 0.3016 0.0607
0.5619 0.3002 0.0589
0.6382 0.2989 0.0572
0.7145 0.2975 0.0554
0.7908 0.2961 0.0536
0.8671 0.2947 0.0518
0.9434 0.2934 0.0500
1.0000 0.2920 0.0482
1.0000 0.2906 0.0464
1.0000 0.2893 0.0446
0.0000 0.3798 0.0675
0.0250 0.3784 0.0657
0.1013 0.3770 0.0639
0.1775 0.3756 0.0621
0.2538 0.3743 0.0604
0.3301 0.3729 0.0586
0.4064 0.3715 0.0568
0.4827 0.3701 0.0550
0.5590 0.3688 0.0532
0.6353 0.3674 0.0514
0.7116 0.3660 0.0496
0.7879 0.3647 0.0478
0.8643 0.3633 0.0460
0.9406 0.3619 0.0442
1.0000 0.3606 0.0424
1.0000 0.3592 0.0406
1.0000 0.3579 0.0387
0.0000 0.4483 0.0618
0.0220 0.4469 0.0600
0.0983 0.4455 0.0582
0.1746 0.4442 0.0564
0.2509 0.4428 0.0546
0.3272 0.4414 0.0528
0.4035 0.4401 0.0510
0.4798 0.4387 0.0492
0.5561 0.4373 0.0474
0.6325 0.4360 0.0456
0.7088 0.4346 0.0438
0.7851 0.4332 0.0420
0.8615 0.4319 0.0402
0.9378 0.4305 0.0384
1.0000 0.4292 0.0365
1.0000 0.4278 0.0347
1.0000 0.4265 0.0329
0.0000 0.5168 0.0561
0.0191 0.5155 0.0543
0.0954 0.5141 0.0525
0.1717 0.5127 0.0507
0.2480 0.5114 0.0489
0.3244 0.5100 0.0471
0.4007 0.5086 0.0452
0.4770 0.5073 0.0434
0.5534 0.5059 0.0416
0.6297 0.5045 0.0398
0.7060 0.5032 0.0380
0.7824 0.5018 0.0362
0.8588 0.5005 0.0343
0.9351 0.4991 0.0325
1.0000 0.4978 0.0307
1.0000 0.4964 0.0288
1.0000 0.4951 0.0270
0.0000 0.5854 0.0503
0.0162 0.5840 0.0485
0.0926 0.5827 0.0467
0.1689 0.5813 0.0449
0.2452 0.5799 0.0431
0.3216 0.5786 0.0412
0.3979 0.5772 0.0394
0.4743 0.5759 0.0376
0.5506 0.5745 0.0358
0.6270 0.5731 0.0339
0.7033 0.5718 0.0321
0.7797 0.5704 0.0303
0.8561 0.5691 0.0285
0.9325 0.5677 0.0266
1.0000 0.5664 0.0248
1.0000 0.5650 0.0229
1.0000 0.5637 0.0211
0.0000 0.6540 0.0445
0.0134 0.6526 0.0427
0.0898 0.6512 0.0409
0.1661 0.6499 0.0390
0.2425 0.6485 0.0372
0.3188 0.6472 0.0354
0.3952 0.6458 0.0336
0.4716 0.6444 0.0317
0.5479 0.6431 0.0299
0.6243 0.6417 0.0281
0.7007 0.6404 0.0262
0.7771 0.6390 0.0244
0.8535 0.6377 0.0226
0.9299 0.6363 0.0207
1.0000 0.6350 0.0189
1.0000 0.6336 0.0170
1.0000 0.6323 0.0152
0.0000 0.7225 0.0387
0.0107 0.7212 0.0368
0.0871 0.7198 0.0350
0.1634 0.7185 0.0332
0.2398 0.7171 0.0314
0.3162 0.7158 0.0295
0.3925 0.7144 0.0277
0.4689 0.7131 0.0259
0.5453 0.7117 0.0240
0.6217 0.7104 0.0222
0.6981 0.7090 0.0203
0.7745 0.7077 0.0185
0.8509 0.7063 0.0166
0.9273 0.7050 0.0148
1.0000 0.7036 0.0129
1.0000 0.7023 0.0111
1.0000 0.7009 0.0092
0.0000 0.7911 0.0328
0.0080 0.7898 0.0310
0.0844 0.7884 0.0291
0.1608 0.7871 0.0273
0.2371 0.7857 0.0255
0.3135 0.7844 0.0236
0.3899 0.7830 0.0218
0.4663 0.7817 0.0199
0.5427 0.7803 0.0181
0.6191 0.7790 0.0162
0.6955 0.7776 0.0144
0.7719 0.7763 0.0125
0.8484 0.7749 0.0107
0.9248 0.7736 0.0088
1.0000 0.7723 0.0070
1.0000 0.7709 0.0051
1.0000 0.7696 0.0032
0.0000 0.8597 0.0269
0.0054 0.8584 0.0251
0.0818 0.8570 0.0232
0.1582 0.8557 0.0214
0.2346 0.8543 0.0195
0.3110 0.8530 0.0177
0.3874 0.8516 0.0158
0.4638 0.8503 0.0140
0.5402 0.8490 0.0121
0.6166 0.8476 0.0103
0.6930 0.8463 0.0084
0.7694 0.8449 0.0066
0.8459 0.8436 0.0047
0.9223 0.8422 0.0028
0.9987 0.8409 0.0010
1.0000 0.8396 0.0000
1.0000 0.8382 0.0000
0.0000 0.9284 0.0210
0.0028 0.9270 0.0192
0.0792 0.9257 0.0173
0.1556 0.9243 0.0155
0.2320 0.9230 0.0136
0.3084 0.9216 0.0117
0.3848 0.9203 0.0099
0.4613 0.9189 0.0080
0.5377 0.9176 0.0062
0.6141 0.9163 0.0043
0.6905 0.9149 0.0024
0.7670 0.9136 0.0006
0.8434 0.9122 0.0000
0.9199 0.9109 0.0000
0.9963 0.9096 0.0000
1.0000 0.9082 0.0000
1.0000 0.9069 0.0000
0.0000 0.9970 0.0151
0.0002 0.9956 0.0132
0.0767 0.9943 0.0114
0.1531 0.9930 0.0095
0.2295 0.9916 0.0076
0.3059 0.9903 0.0058
0.3824 0.9889 0.0039
0.4588 0.9876 0.0020
0.5352 0.9862 0.0002
0.6117 0.9849 0.0000
0.6881 0.9836 0.0000
0.7646 0.9822 0.0000
0.8410 0.9809 0.0000
0.9175 0.9796 0.0000
0.9939 0.9782 0.0000
1.0000 0.9769 0.0000
1.0000 0.9756 0.0000
0.0000 1.0000 0.0091
0.0000 1.0000 0.0072
0.0742 1.0000 0.0054
0.1506 1.0000 0.0035
0.2270 1.0000 0.0016
0.3035 1.0000 0.0000
0.3799 1.0000 0.0000
0.4564 1.0000 0.0000
0.5328 1.0000 0.0000
0.6093 1.0000 0.0000
0.6857 1.0000 0.0000
0.7622 1.0000 0.0000
0.8386 1.0000 0.0000
0.9151 1.0000 0.0000
0.9916 1.0000 0.0000
1.0000 1.0000 0.0000
1.0000 1.0000 0.0000
0.0000 0.0000 0.1654
0.0448 0.0000 0.1638
0.1209 0.0000 0.1621
0.1969 0.0000 0.1605
0.2730 0.0000 0.1588
0.3491 0.0000 0.1571
0.4252 0.0000 0.1554
0.5013 0.0000 0.1537
0.5774 0.0000 0.1520
0.6536 0.0000 0.1503
0.7298 0.0000 0.1486
0.8059 0.0000 0.1469
0.8821 0.0000 0.1452
0.9583 0.0000 0.1434
1.0000 0.0000 0.1417
1.0000 0.0000 0.1399
1.0000 0.0000 0.1382
0.0000 0.0371 0.1602
0.0411 0.0357 0.1585
0.1172 0.0342 0.1568
0.1933 0.0328 0.1551
0.2694 0.0314 0.1534
0.3456 0.0300 0.1517
0.4217 0.0286 0.1500
0.4979 0.0272 0.1483
0.5741 0.0258 0.1465
0.6503 0.0244 0.1448
0.7265 0.0230 0.1431
0.8027 0.0216 0.1413
0.8789 0.0202 0.1396
0.9551 0.0189 0.1378
1.0000 0.0175 0.1361
1.0000 0.0161 0.1343
