luts/golden.cube
# edite look: Golden (CC0)
TITLE "Golden"
LUT_3D_SIZE 9
DOMAIN_MIN 0.0 0.0 0.0
DOMAIN_MAX 1.0 1.0 1.0
0.0000 0.0000 0.0000
0.1219 0.0000 0.0000
0.2740 0.0000 0.0000
0.4261 0.0000 0.0000
0.5783 0.0000 0.0000
0.7306 0.0000 0.0000
0.8830 0.0000 0.0000
1.0000 0.0000 0.0000
1.0000 0.0000 0.0000
0.0000 0.1067 0.0000
0.1146 0.1039 0.0000
0.2669 0.1011 0.0000
0.4193 0.0983 0.0000
0.5717 0.0955 0.0000
0.7241 0.0927 0.0000
0.8766 0.0899 0.0000
1.0000 0.0872 0.0000
1.0000 0.0844 0.0000
0.0000 0.2436 0.0000
0.1080 0.2408 0.0000
0.2604 0.2380 0.0000
0.4129 0.2352 0.0000
0.5654 0.2325 0.0000
0.7179 0.2297 0.0000
0.8705 0.2270 0.0000
1.0000 0.2242 0.0000
1.0000 0.2215 0.0000
0.0000 0.3806 0.0000
0.1018 0.3778 0.0000
0.2543 0.3750 0.0000
0.4069 0.3723 0.0000
0.5595 0.3695 0.0000
0.7121 0.3668 0.0000
0.8647 0.3641 0.0000
1.0000 0.3614 0.0000
1.0000 0.3586 0.0000
0.0000 0.5176 0.0000
0.0959 0.5149 0.0000
0.2485 0.5121 0.0000
0.4012 0.5094 0.0000
0.5538 0.5067 0.0000
0.7065 0.5040 0.0000
0.8592 0.5012 0.0000
1.0000 0.4985 0.0000
1.0000 0.4958 0.0000
0.0000 0.6547 0.0000
0.0902 0.6520 0.0000
0.2429 0.6493 0.0000
0.3956 0.6466 0.0000
0.5484 0.6439 0.0000
0.7011 0.6412 0.0000
0.8539 0.6385 0.0000
1.0000 0.6358 0.0000
1.0000 0.6331 0.0000
0.0000 0.7919 0.0000
0.0848 0.7892 0.0000
0.2376 0.7865 0.0000
0.3904 0.7838 0.0000
0.5431 0.7811 0.0000
0.6959 0.7784 0.0000
0.8488 0.7757 0.0000
1.0000 0.7730 0.0000
1.0000 0.7703 0.0000
0.0000 0.9291 0.0000
0.0796 0.9264 0.0000
0.2324 0.9237 0.0000
0.3852 0.9210 0.0000
0.5381 0.9184 0.0000
0.6909 0.9157 0.0000
0.8438 0.9130 0.0000
0.9967 0.9103 0.0000
1.0000 0.9076 0.0000
0.0000 1.0000 0.0000
0.0746 1.0000 0.0000
0.2274 1.0000 0.0000
0.3803 1.0000 0.0000
0.5332 1.0000 0.0000
0.6861 1.0000 0.0000
0.8390 1.0000 0.0000
0.9919 1.0000 0.0000
1.0000 1.0000 0.0000
0.0000 0.0000 0.1003
0.1212 0.0000 0.0970
0.2733 0.0000 0.0937
0.4255 0.0000 0.0904
0.5777 0.0000 0.0870
0.7300 0.0000 0.0835
0.8824 0.0000 0.0801
1.0000 0.0000 0.0766
1.0000 0.0000 0.0731
0.0000 0.1059 0.0897
0.1140 0.1031 0.0863
0.2663 0.1003 0.0828
0.4187 0.0975 0.0794
0.5711 0.0947 0.0759
0.7236 0.0919 0.0724
0.8760 0.0891 0.0689
1.0000 0.0864 0.0654
1.0000 0.0836 0.0618
0.0000 0.2428 0.0787
0.1074 0.2400 0.0752
0.2599 0.2372 0.0717
0.4124 0.2345 0.0682
0.5649 0.2317 0.0646
0.7174 0.2289 0.0611
0.8700 0.2262 0.0575
1.0000 0.2235 0.0539
1.0000 0.2207 0.0503
0.0000 0.3798 0.0675
0.1013 0.3770 0.0639
0.2538 0.3743 0.0604
0.4064 0.3715 0.0568
0.5590 0.3688 0.0532
0.7116 0.3660 0.0496
0.8643 0.3633 0.0460
1.0000 0.3606 0.0424
1.0000 0.3579 0.0387
0.0000 0.5168 0.0561
0.0954 0.5141 0.0525
0.2480 0.5114 0.0489
0.4007 0.5086 0.0452
0.5534 0.5059 0.0416
0.7060 0.5032 0.0380
0.8588 0.5005 0.0343
1.0000 0.4978 0.0307
1.0000 0.4951 0.0270
0.0000 0.6540 0.0445
0.0898 0.6512 0.0409
0.2425 0.6485 0.0372
0.3952 0.6458 0.0336
0.5479 0.6431 0.0299
0.7007 0.6404 0.0262
0.8535 0.6377 0.0226
1.0000 0.6350 0.0189
1.0000 0.6323 0.0152
0.0000 0.7911 0.0328
0.0844 0.7884 0.0291
0.2371 0.7857 0.0255
0.3899 0.7830 0.0218
0.5427 0.7803 0.0181
0.6955 0.7776 0.0144
0.8484 0.7749 0.0107
1.0000 0.7723 0.0070
1.0000 0.7696 0.0032
0.0000 0.9284 0.0210
0.0792 0.9257 0.0173
0.2320 0.9230 0.0136
0.3848 0.9203 0.0099
0.5377 0.9176 0.0062
0.6905 0.9149 0.0024
0.8434 0.9122 0.0000
0.9963 0.9096 0.0000
1.0000 0.9069 0.0000
0.0000 1.0000 0.0091
0.0742 1.0000 0.0054
0.2270 1.0000 0.0016
0.3799 1.0000 0.0000
0.5328 1.0000 0.0000
0.6857 1.0000 0.0000
0.8386 1.0000 0.0000
0.9916 1.0000 0.0000
1.0000 1.0000 0.0000
0.0000 0.0000 0.2305
0.1205 0.0000 0.2272
0.2727 0.0000 0.2239
0.4249 0.0000 0.2205
0.5771 0.0000 0.2171
0.7295 0.0000 0.2137
0.8818 0.0000 0.2102
1.0000 0.0000 0.2068
1.0000 0.0000 0.2033
0.0000 0.1051 0.2199
0.1134 0.1023 0.2164
0.2658 0.0995 0.2130
0.4181 0.0967 0.2095
0.5706 0.0939 0.2061
0.7230 0.0911 0.2026
0.8755 0.0884 0.1990
1.0000 0.0856 0.1955
1.0000 0.0828 0.1919
0.0000 0.2420 0.2088
0.1069 0.2392 0.2054
0.2594 0.2364 0.2018
0.4119 0.2337 0.1983
0.5644 0.2309 0.1948
0.7169 0.2282 0.1912
0.8695 0.2254 0.1876
1.0000 0.2227 0.1841
1.0000 0.2199 0.1805
0.0000 0.3790 0.1976
0.1008 0.3762 0.1940
0.2533 0.3735 0.1905
0.4059 0.3707 0.1869
0.5585 0.3680 0.1833
0.7111 0.3653 0.1797
0.8638 0.3625 0.1761
1.0000 0.3598 0.1725
1.0000 0.3571 0.1688
0.0000 0.5161 0.1862
0.0949 0.5133 0.1826
0.2476 0.5106 0.1790
0.4002 0.5079 0.1753
0.5529 0.5051 0.1717
0.7056 0.5024 0.1681
0.8583 0.4997 0.1644
1.0000 0.4970 0.1608
1.0000 0.4943 0.1571
0.0000 0.6532 0.1746
0.0893 0.6505 0.1710
0.2420 0.6477 0.1673
0.3948 0.6450 0.1637
0.5475 0.6423 0.1600
0.7003 0.6396 0.1563
0.8530 0.6369 0.1526
1.0000 0.6342 0.1489
1.0000 0.6315 0.1452
0.0000 0.7904 0.1629
0.0839 0.7877 0.1592
0.2367 0.7850 0.1555
0.3895 0.7823 0.1519
0.5423 0.7796 0.1482
0.6951 0.7769 0.1445
0.8479 0.7742 0.1407
1.0000 0.7715 0.1370
1.0000 0.7688 0.1333
0.0000 0.9276 0.1511
0.0788 0.9249 0.1474
0.2316 0.9222 0.1437
0.3844 0.9195 0.1400
0.5373 0.9168 0.1362
0.6901 0.9142 0.1325
0.8430 0.9115 0.1288
0.9959 0.9088 0.1250
1.0000 0.9061 0.1213
0.0000 1.0000 0.1392
0.0738 1.0000 0.1354
0.2266 1.0000 0.1317
0.3795 1.0000 0.1280
0.5324 1.0000 0.1242
0.6853 1.0000 0.1205
0.8383 1.0000 0.1167
0.9912 1.0000 0.1129
1.0000 1.0000 0.1091
0.0000 0.0000 0.3607
0.1199 0.0000 0.3574
0.2720 0.0000 0.3541
0.4243 0.0000 0.3507
0.5766 0.0000 0.3473
0.7289 0.0000 0.3439
0.8813 0.0000 0.3404
1.0000 0.0000 0.3369
1.0000 0.0000 0.3334
0.0000 0.1043 0.3500
0.1128 0.1015 0.3466
0.2652 0.0987 0.3432
0.4176 0.0959 0.3397
0.5700 0.0931 0.3362
0.7225 0.0903 0.3327
0.8750 0.0876 0.3292
1.0000 0.0848 0.3256
1.0000 0.0821 0.3221
0.0000 0.2412 0.3390
0.1064 0.2384 0.3355
0.2588 0.2356 0.3320
0.4113 0.2329 0.3284
0.5639 0.2301 0.3249
0.7164 0.2274 0.3213
0.8690 0.2246 0.3177
1.0000 0.2219 0.3142
1.0000 0.2192 0.3106
0.0000 0.3782 0.3277
0.1002 0.3754 0.3242
0.2528 0.3727 0.3206
0.4054 0.3700 0.3170
0.5580 0.3672 0.3134
0.7107 0.3645 0.3098
0.8633 0.3618 0.3062
1.0000 0.3590 0.3026
1.0000 0.3563 0.2989
0.0000 0.5153 0.3163
0.0944 0.5125 0.3127
0.2471 0.5098 0.3091
0.3997 0.5071 0.3054
0.5524 0.5044 0.3018
0.7051 0.5017 0.2982
0.8579 0.4989 0.2945
1.0000 0.4962 0.2908
1.0000 0.4935 0.2872
0.0000 0.6524 0.3047
0.0889 0.6497 0.3010
0.2416 0.6470 0.2974
0.3943 0.6443 0.2937
0.5471 0.6416 0.2901
0.6998 0.6389 0.2864
0.8526 0.6362 0.2827
1.0000 0.6335 0.2790
1.0000 0.6308 0.2753
0.0000 0.7896 0.2930
0.0835 0.7869 0.2893
0.2363 0.7842 0.2856
0.3891 0.7815 0.2819
0.5419 0.7788 0.2782
0.6947 0.7761 0.2745
0.8475 0.7734 0.2708
1.0000 0.7707 0.2671
1.0000 0.7681 0.2634
0.0000 0.9268 0.2812
0.0784 0.9241 0.2774
0.2312 0.9215 0.2737
0.3840 0.9188 0.2700
0.5369 0.9161 0.2663
0.6897 0.9134 0.2626
0.8426 0.9107 0.2588
0.9955 0.9081 0.2551
1.0000 0.9054 0.2513
0.0000 1.0000 0.2692
0.0734 1.0000 0.2655
0.2262 1.0000 0.2618
0.3791 1.0000 0.2580
0.5320 1.0000 0.2543
0.6850 1.0000 0.2505
0.8379 1.0000 0.2467
0.9908 1.0000 0.2430
1.0000 1.0000 0.2392
0.0000 0.0000 0.4909
0.1192 0.0000 0.4876
0.2714 0.0000 0.4843
0.4237 0.0000 0.4809
0.5760 0.0000 0.4775
0.7283 0.0000 0.4740
0.8807 0.0000 0.4705
1.0000 0.0000 0.4670
1.0000 0.0000 0.4635
0.0000 0.1035 0.4802
0.1123 0.1007 0.4768
0.2646 0.0979 0.4733
0.4170 0.0951 0.4698
0.5695 0.0923 0.4663
0.7220 0.0895 0.4628
0.8745 0.0868 0.4593
1.0000 0.0840 0.4557
1.0000 0.0813 0.4522
0.0000 0.2404 0.4691
0.1058 0.2376 0.4656
0.2583 0.2349 0.4621
0.4108 0.2321 0.4586
0.5634 0.2293 0.4550
0.7159 0.2266 0.4514
0.8685 0.2239 0.4479
1.0000 0.2211 0.4443
1.0000 0.2184 0.4407
0.0000 0.3774 0.4578
0.0997 0.3747 0.4543
0.2523 0.3719 0.4507
0.4049 0.3692 0.4471
0.5575 0.3664 0.4435
0.7102 0.3637 0.4399
0.8629 0.3610 0.4363
1.0000 0.3583 0.4327
1.0000 0.3556 0.4290
0.0000 0.5145 0.4464
0.0940 0.5118 0.4428
0.2466 0.5090 0.4392
0.3993 0.5063 0.4355
0.5520 0.5036 0.4319
0.7047 0.5009 0.4282
0.8574 0.4982 0.4246
1.0000 0.4955 0.4209
1.0000 0.4928 0.4172
0.0000 0.6516 0.4348
0.0884 0.6489 0.4311
0.2411 0.6462 0.4275
0.3939 0.6435 0.4238
0.5466 0.6408 0.4202
0.6994 0.6381 0.4165
0.8522 0.6354 0.4128
1.0000 0.6327 0.4091
1.0000 0.6300 0.4054
0.0000 0.7888 0.4231
0.0831 0.7861 0.4194
0.2359 0.7834 0.4157
0.3887 0.7807 0.4120
0.5415 0.7780 0.4083
0.6943 0.7754 0.4046
0.8471 0.7727 0.4009
1.0000 0.7700 0.3971
1.0000 0.7673 0.3934
0.0000 0.9261 0.4112
0.0779 0.9234 0.4075
0.2308 0.9207 0.4038
0.3836 0.9180 0.4001
0.5365 0.9153 0.3964
0.6894 0.9126 0.3926
0.8422 0.9100 0.3889
0.9951 0.9073 0.3851
1.0000 0.9046 0.3814
0.0000 1.0000 0.3993
0.0730 1.0000 0.3956
0.2259 1.0000 0.3918
0.3787 1.0000 0.3881
0.5317 1.0000 0.3843
0.6846 1.0000 0.3806
0.8375 1.0000 0.3768
0.9905 1.0000 0.3730
1.0000 1.0000 0.3692
0.0000 0.0000 0.6212
0.1186 0.0000 0.6178
0.2708 0.0000 0.6145
0.4231 0.0000 0.6110
0.5754 0.0000 0.6076
0.7278 0.0000 0.6042
0.8802 0.0000 0.6007
1.0000 0.0000 0.5972
1.0000 0.0000 0.5937
0.0000 0.1027 0.6104
0.1117 0.0999 0.6069
0.2641 0.0971 0.6035
0.4165 0.0943 0.6000
0.5689 0.0915 0.5965
0.7214 0.0888 0.5929
0.8739 0.0860 0.5894
1.0000 0.0832 0.5859
1.0000 0.0805 0.5823
0.0000 0.2396 0.5993
0.1053 0.2368 0.5958
0.2578 0.2341 0.5922
0.4103 0.2313 0.5887
0.5629 0.2286 0.5851
0.7154 0.2258 0.5816
0.8680 0.2231 0.5780
1.0000 0.2203 0.5744
1.0000 0.2176 0.5708
0.0000 0.3766 0.5880
0.0992 0.3739 0.5844
0.2518 0.3711 0.5808
0.4044 0.3684 0.5772
0.5571 0.3657 0.5736
0.7097 0.3629 0.5700
0.8624 0.3602 0.5664
1.0000 0.3575 0.5627
1.0000 0.3548 0.5591
0.0000 0.5137 0.5765
0.0935 0.5110 0.5729
0.2461 0.5083 0.5693
0.3988 0.5055 0.5656
0.5515 0.5028 0.5620
0.7042 0.5001 0.5583
0.8570 0.4974 0.5547
1.0000 0.4947 0.5510
1.0000 0.4920 0.5473
0.0000 0.6509 0.5649
0.0880 0.6482 0.5612
0.2407 0.6454 0.5576
0.3934 0.6427 0.5539
0.5462 0.6400 0.5502
0.6990 0.6373 0.5465
0.8518 0.6346 0.5429
1.0000 0.6319 0.5392
1.0000 0.6293 0.5354
0.0000 0.7881 0.5531
0.0826 0.7854 0.5495
0.2354 0.7827 0.5458
0.3882 0.7800 0.5421
0.5410 0.7773 0.5384
0.6939 0.7746 0.5347
0.8467 0.7719 0.5309
0.9996 0.7692 0.5272
1.0000 0.7665 0.5235
0.0000 0.9253 0.5413
0.0775 0.9226 0.5376
0.2304 0.9199 0.5339
0.3832 0.9172 0.5301
0.5361 0.9146 0.5264
0.6890 0.9119 0.5227
0.8419 0.9092 0.5189
0.9948 0.9065 0.5152
1.0000 0.9039 0.5114
0.0000 1.0000 0.5294
0.0726 1.0000 0.5256
0.2255 1.0000 0.5219
0.3784 1.0000 0.5181
0.5313 1.0000 0.5144
0.6842 1.0000 0.5106
0.8371 1.0000 0.5068
0.9901 1.0000 0.5031
1.0000 1.0000 0.4993
0.0000 0.0000 0.7514
0.1180 0.0000 0.7480
0.2702 0.0000 0.7446
0.4225 0.0000 0.7412
0.5748 0.0000 0.7378
0.7272 0.0000 0.7343
0.8796 0.0000 0.7308
1.0000 0.0000 0.7273
1.0000 0.0000 0.7238
0.0000 0.1019 0.7405
0.1111 0.0991 0.7371
0.2635 0.0963 0.7336
0.4159 0.0935 0.7301
0.5684 0.0907 0.7266
0.7209 0.0880 0.7231
0.8734 0.0852 0.7195
1.0000 0.0825 0.7160
1.0000 0.0797 0.7124
0.0000 0.2388 0.7294
0.1048 0.2361 0.7259
0.2573 0.2333 0.7224
0.4098 0.2305 0.7188
0.5624 0.2278 0.7152
0.7149 0.2250 0.7117
0.8676 0.2223 0.7081
1.0000 0.2196 0.7045
1.0000 0.2168 0.7009
0.0000 0.3759 0.7181
0.0987 0.3731 0.7145
0.2513 0.3704 0.7109
0.4040 0.3676 0.7073
0.5566 0.3649 0.7037
0.7093 0.3622 0.7001
0.8619 0.3594 0.6965
1.0000 0.3567 0.6928
1.0000 0.3540 0.6892
0.0000 0.5130 0.7066
0.0930 0.5102 0.7030
0.2457 0.5075 0.6994
0.3984 0.5048 0.6957
0.5511 0.5021 0.6921
0.7038 0.4993 0.6884
0.8565 0.4966 0.6848
1.0000 0.4939 0.6811
1.0000 0.4912 0.6774
0.0000 0.6501 0.6950
0.0875 0.6474 0.6913
0.2402 0.6447 0.6877
0.3930 0.6420 0.6840
0.5458 0.6393 0.6803
0.6985 0.6366 0.6766
0.8513 0.6339 0.6729
1.0000 0.6312 0.6692
1.0000 0.6285 0.6655
0.0000 0.7873 0.6832
0.0822 0.7846 0.6795
0.2350 0.7819 0.6758
0.3878 0.7792 0.6721
0.5406 0.7765 0.6684
0.6935 0.7738 0.6647
0.8463 0.7711 0.6610
0.9992 0.7685 0.6573
1.0000 0.7658 0.6535
0.0000 0.9246 0.6714
0.0771 0.9219 0.6677
0.2300 0.9192 0.6639
0.3828 0.9165 0.6602
0.5357 0.9138 0.6565
0.6886 0.9111 0.6527
0.8415 0.9085 0.6490
0.9944 0.9058 0.6452
1.0000 0.9031 0.6415
0.0000 1.0000 0.6594
0.0722 1.0000 0.6557
0.2251 1.0000 0.6519
0.3780 1.0000 0.6482
0.5309 1.0000 0.6444
0.6838 1.0000 0.6407
0.8368 1.0000 0.6369
0.9897 1.0000 0.6331
1.0000 1.0000 0.6293
0.0000 0.0000 0.8816
0.1173 0.0000 0.8782
0.2696 0.0000 0.8748
0.4219 0.0000 0.8714
0.5742 0.0000 0.8679
0.7266 0.0000 0.8645
0.8791 0.0000 0.8610
1.0000 0.0000 0.8574
1.0000 0.0000 0.8539
0.0000 0.1011 0.8707
0.1106 0.0983 0.8672
0.2630 0.0955 0.8638
0.4154 0.0927 0.8603
0.5679 0.0900 0.8567
0.7204 0.0872 0.8532
0.8729 0.0844 0.8497
1.0000 0.0817 0.8461
1.0000 0.0789 0.8425
0.0000 0.2380 0.8595
0.1042 0.2353 0.8560
0.2568 0.2325 0.8525
0.4093 0.2298 0.8489
0.5619 0.2270 0.8454
0.7145 0.2243 0.8418
0.8671 0.2215 0.8382
1.0000 0.2188 0.8346
1.0000 0.2161 0.8310
0.0000 0.3751 0.8482
0.0983 0.3723 0.8446
0.2509 0.3696 0.8410
0.4035 0.3669 0.8374
0.5561 0.3641 0.8338
0.7088 0.3614 0.8302
0.8615 0.3587 0.8266
1.0000 0.3560 0.8229
1.0000 0.3532 0.8193
0.0000 0.5122 0.8367
0.0925 0.5094 0.8331
0.2452 0.5067 0.8294
0.3979 0.5040 0.8258
0.5506 0.5013 0.8222
0.7034 0.4986 0.8185
0.8561 0.4959 0.8148
1.0000 0.4932 0.8112
1.0000 0.4905 0.8075
0.0000 0.6493 0.8251
0.0871 0.6466 0.8214
0.2398 0.6439 0.8177
0.3926 0.6412 0.8141
0.5453 0.6385 0.8104
0.6981 0.6358 0.8067
0.8509 0.6331 0.8030
1.0000 0.6304 0.7993
1.0000 0.6277 0.7956
0.0000 0.7865 0.8133
0.0818 0.7838 0.8096
0.2346 0.7811 0.8059
0.3874 0.7785 0.8022
0.5402 0.7758 0.7985
0.6931 0.7731 0.7948
0.8459 0.7704 0.7911
0.9988 0.7677 0.7873
1.0000 0.7650 0.7836
0.0000 0.9238 0.8014
0.0767 0.9211 0.7977
0.2296 0.9184 0.7940
0.3824 0.9157 0.7903
0.5353 0.9131 0.7865
0.6882 0.9104 0.7828
0.8411 0.9077 0.7790
0.9940 0.9050 0.7753
1.0000 0.9024 0.7715
0.0000 1.0000 0.7895
0.0718 1.0000 0.7857
0.2247 1.0000 0.7820
0.3776 1.0000 0.7782
0.5305 1.0000 0.7745
0.6834 1.0000 0.7707
0.8364 1.0000 0.7669
0.9893 1.0000 0.7631
1.0000 1.0000 0.7594
0.0000 0.0000 1.0000
0.1167 0.0000 1.0000
0.2690 0.0000 1.0000
0.4213 0.0000 1.0000
0.5737 0.0000 0.9981
0.7261 0.0000 0.9946
0.8785 0.0000 0.9911
1.0000 0.0000 0.9876
1.0000 0.0000 0.9840
0.0000 0.1003 1.0000
0.1100 0.0975 0.9974
0.2624 0.0947 0.9939
0.4149 0.0919 0.9904
0.5674 0.0892 0.9869
0.7199 0.0864 0.9833
0.8724 0.0837 0.9798
1.0000 0.0809 0.9762
1.0000 0.0782 0.9726
0.0000 0.2372 0.9897
0.1037 0.2345 0.9861
0.2562 0.2317 0.9826
0.4088 0.2290 0.9790
0.5614 0.2262 0.9755
0.7140 0.2235 0.9719
0.8666 0.2208 0.9683
1.0000 0.2180 0.9647
1.0000 0.2153 0.9610
0.0000 0.3743 0.9783
0.0978 0.3715 0.9747
0.2504 0.3688 0.9711
0.4030 0.3661 0.9675
0.5557 0.3633 0.9639
0.7083 0.3606 0.9603
0.8610 0.3579 0.9567
1.0000 0.3552 0.9530
1.0000 0.3525 0.9494
0.0000 0.5114 0.9668
0.0921 0.5087 0.9632
0.2448 0.5060 0.9595
0.3975 0.5032 0.9559
0.5502 0.5005 0.9522
0.7029 0.4978 0.9486
0.8557 0.4951 0.9449
1.0000 0.4924 0.9412
1.0000 0.4897 0.9375
0.0000 0.6486 0.9551
0.0866 0.6459 0.9515
0.2394 0.6431 0.9478
0.3921 0.6404 0.9441
0.5449 0.6377 0.9405
0.6977 0.6350 0.9368
0.8505 0.6324 0.9331
1.0000 0.6297 0.9294
1.0000 0.6270 0.9256
0.0000 0.7858 0.9434
0.0814 0.7831 0.9397
0.2342 0.7804 0.9360
0.3870 0.7777 0.9323
0.5398 0.7750 0.9286
0.6927 0.7723 0.9248
0.8455 0.7696 0.9211
0.9984 0.7670 0.9174
1.0000 0.7643 0.9136
0.0000 0.9230 0.9315
0.0763 0.9203 0.9278
0.2291 0.9177 0.9241
0.3820 0.9150 0.9203
0.5349 0.9123 0.9166
0.6878 0.9096 0.9128
0.8407 0.9070 0.9091
0.9936 0.9043 0.9053
1.0000 0.9016 0.9016
0.0000 1.0000 0.9195
0.0714 1.0000 0.9158
0.2243 1.0000 0.9120
0.3772 1.0000 0.9083
0.5301 1.0000 0.9045
0.6831 1.0000 0.9007
0.8360 1.0000 0.8970
0.9890 1.0000 0.8932
1.0000 1.0000 0.8894
