luts/golden.cube
# edite look: Golden (CC0)
TITLE "Golden"
LUT_3D_SIZE 5
DOMAIN_MIN 0.0 0.0 0.0
DOMAIN_MAX 1.0 1.0 1.0
0.0000 0.0000 0.0000
0.2740 0.0000 0.0000
0.5783 0.0000 0.0000
0.8830 0.0000 0.0000
1.0000 0.0000 0.0000
0.0000 0.2436 0.0000
0.2604 0.2380 0.0000
0.5654 0.2325 0.0000
0.8705 0.2270 0.0000
1.0000 0.2215 0.0000
0.0000 0.5176 0.0000
0.2485 0.5121 0.0000
0.5538 0.5067 0.0000
0.8592 0.5012 0.0000
1.0000 0.4958 0.0000
0.0000 0.7919 0.0000
0.2376 0.7865 0.0000
0.5431 0.7811 0.0000
0.8488 0.7757 0.0000
1.0000 0.7703 0.0000
0.0000 1.0000 0.0000
0.2274 1.0000 0.0000
0.5332 1.0000 0.0000
0.8390 1.0000 0.0000
1.0000 1.0000 0.0000
0.0000 0.0000 0.2305
0.2727 0.0000 0.2239
0.5771 0.0000 0.2171
0.8818 0.0000 0.2102
1.0000 0.0000 0.2033
0.0000 0.2420 0.2088
0.2594 0.2364 0.2018
0.5644 0.2309 0.1948
0.8695 0.2254 0.1876
1.0000 0.2199 0.1805
0.0000 0.5161 0.1862
0.2476 0.5106 0.1790
0.5529 0.5051 0.1717
0.8583 0.4997 0.1644
1.0000 0.4943 0.1571
0.0000 0.7904 0.1629
0.2367 0.7850 0.1555
0.5423 0.7796 0.1482
0.8479 0.7742 0.1407
1.0000 0.7688 0.1333
0.0000 1.0000 0.1392
0.2266 1.0000 0.1317
0.5324 1.0000 0.1242
0.8383 1.0000 0.1167
1.0000 1.0000 0.1091
0.0000 0.0000 0.4909
0.2714 0.0000 0.4843
0.5760 0.0000 0.4775
0.8807 0.0000 0.4705
1.0000 0.0000 0.4635
0.0000 0.2404 0.4691
0.2583 0.2349 0.4621
0.5634 0.2293 0.4550
0.8685 0.2239 0.4479
1.0000 0.2184 0.4407
0.0000 0.5145 0.4464
0.2466 0.5090 0.4392
0.5520 0.5036 0.4319
0.8574 0.4982 0.4246
1.0000 0.4928 0.4172
0.0000 0.7888 0.4231
0.2359 0.7834 0.4157
0.5415 0.7780 0.4083
0.8471 0.7727 0.4009
1.0000 0.7673 0.3934
0.0000 1.0000 0.3993
0.2259 1.0000 0.3918
0.5317 1.0000 0.3843
0.8375 1.0000 0.3768
1.0000 1.0000 0.3692
0.0000 0.0000 0.7514
0.2702 0.0000 0.7446
0.5748 0.0000 0.7378
0.8796 0.0000 0.7308
1.0000 0.0000 0.7238
0.0000 0.2388 0.7294
0.2573 0.2333 0.7224
0.5624 0.2278 0.7152
0.8676 0.2223 0.7081
1.0000 0.2168 0.7009
0.0000 0.5130 0.7066
0.2457 0.5075 0.6994
0.5511 0.5021 0.6921
0.8565 0.4966 0.6848
1.0000 0.4912 0.6774
0.0000 0.7873 0.6832
0.2350 0.7819 0.6758
0.5406 0.7765 0.6684
0.8463 0.7711 0.6610
1.0000 0.7658 0.6535
0.0000 1.0000 0.6594
0.2251 1.0000 0.6519
0.5309 1.0000 0.6444
0.8368 1.0000 0.6369
1.0000 1.0000 0.6293
0.0000 0.0000 1.0000
0.2690 0.0000 1.0000
0.5737 0.0000 0.9981
0.8785 0.0000 0.9911
1.0000 0.0000 0.9840
0.0000 0.2372 0.9897
0.2562 0.2317 0.9826
0.5614 0.2262 0.9755
0.8666 0.2208 0.9683
1.0000 0.2153 0.9610
0.0000 0.5114 0.9668
0.2448 0.5060 0.9595
0.5502 0.5005 0.9522
0.8557 0.4951 0.9449
1.0000 0.4897 0.9375
0.0000 0.7858 0.9434
0.2342 0.7804 0.9360
0.5398 0.7750 0.9286
0.8455 0.7696 0.9211
1.0000 0.7643 0.9136
0.0000 1.0000 0.9195
0.2243 1.0000 0.9120
0.5301 1.0000 0.9045
0.8360 1.0000 0.8970
1.0000 1.0000 0.8894
