luts/mono.cube
# edite look: Mono (CC0)
TITLE "Mono"
LUT_3D_SIZE 17
DOMAIN_MIN 0.0 0.0 0.0
DOMAIN_MAX 1.0 1.0 1.0
0.0000 0.0000 0.0000
0.0000 0.0000 0.0000
0.0000 0.0000 0.0000
0.0000 0.0000 0.0000
0.0000 0.0000 0.0000
0.0144 0.0144 0.0144
0.0293 0.0293 0.0293
0.0442 0.0442 0.0442
0.0591 0.0591 0.0591
0.0739 0.0739 0.0739
0.0888 0.0888 0.0888
0.1037 0.1037 0.1037
0.1186 0.1186 0.1186
0.1335 0.1335 0.1335
0.1483 0.1483 0.1483
0.1632 0.1632 0.1632
0.1781 0.1781 0.1781
0.0000 0.0000 0.0000
0.0049 0.0049 0.0049
0.0198 0.0198 0.0198
0.0347 0.0347 0.0347
0.0496 0.0496 0.0496
0.0645 0.0645 0.0645
0.0794 0.0794 0.0794
0.0942 0.0942 0.0942
0.1091 0.1091 0.1091
0.1240 0.1240 0.1240
0.1389 0.1389 0.1389
0.1538 0.1538 0.1538
0.1686 0.1686 0.1686
0.1835 0.1835 0.1835
0.1984 0.1984 0.1984
0.2133 0.2133 0.2133
0.2282 0.2282 0.2282
0.0401 0.0401 0.0401
0.0550 0.0550 0.0550
0.0699 0.0699 0.0699
0.0848 0.0848 0.0848
0.0997 0.0997 0.0997
0.1145 0.1145 0.1145
0.1294 0.1294 0.1294
0.1443 0.1443 0.1443
0.1592 0.1592 0.1592
0.1741 0.1741 0.1741
0.1889 0.1889 0.1889
0.2038 0.2038 0.2038
0.2187 0.2187 0.2187
0.2336 0.2336 0.2336
0.2485 0.2485 0.2485
0.2634 0.2634 0.2634
0.2782 0.2782 0.2782
0.0902 0.0902 0.0902
0.1051 0.1051 0.1051
0.1200 0.1200 0.1200
0.1348 0.1348 0.1348
0.1497 0.1497 0.1497
0.1646 0.1646 0.1646
0.1795 0.1795 0.1795
0.1944 0.1944 0.1944
0.2092 0.2092 0.2092
0.2241 0.2241 0.2241
0.2390 0.2390 0.2390
0.2539 0.2539 0.2539
0.2688 0.2688 0.2688
0.2837 0.2837 0.2837
0.2985 0.2985 0.2985
0.3134 0.3134 0.3134
0.3283 0.3283 0.3283
0.1403 0.1403 0.1403
0.1551 0.1551 0.1551
0.1700 0.1700 0.1700
0.1849 0.1849 0.1849
0.1998 0.1998 0.1998
0.2147 0.2147 0.2147
0.2295 0.2295 0.2295
0.2444 0.2444 0.2444
0.2593 0.2593 0.2593
0.2742 0.2742 0.2742
0.2891 0.2891 0.2891
0.3040 0.3040 0.3040
0.3188 0.3188 0.3188
0.3337 0.3337 0.3337
0.3486 0.3486 0.3486
0.3635 0.3635 0.3635
0.3784 0.3784 0.3784
0.1903 0.1903 0.1903
0.2052 0.2052 0.2052
0.2201 0.2201 0.2201
0.2350 0.2350 0.2350
0.2498 0.2498 0.2498
0.2647 0.2647 0.2647
0.2796 0.2796 0.2796
0.2945 0.2945 0.2945
0.3094 0.3094 0.3094
0.3243 0.3243 0.3243
0.3391 0.3391 0.3391
0.3540 0.3540 0.3540
0.3689 0.3689 0.3689
0.3838 0.3838 0.3838
0.3987 0.3987 0.3987
0.4135 0.4135 0.4135
0.4284 0.4284 0.4284
0.2404 0.2404 0.2404
0.2553 0.2553 0.2553
0.2701 0.2701 0.2701
0.2850 0.2850 0.2850
0.2999 0.2999 0.2999
0.3148 0.3148 0.3148
0.3297 0.3297 0.3297
0.3446 0.3446 0.3446
0.3594 0.3594 0.3594
0.3743 0.3743 0.3743
0.3892 0.3892 0.3892
0.4041 0.4041 0.4041
0.4190 0.4190 0.4190
0.4338 0.4338 0.4338
0.4487 0.4487 0.4487
0.4636 0.4636 0.4636
0.4785 0.4785 0.4785
0.2904 0.2904 0.2904
0.3053 0.3053 0.3053
0.3202 0.3202 0.3202
0.3351 0.3351 0.3351
0.3500 0.3500 0.3500
0.3649 0.3649 0.3649
0.3797 0.3797 0.3797
0.3946 0.3946 0.3946
0.4095 0.4095 0.4095
0.4244 0.4244 0.4244
0.4393 0.4393 0.4393
0.4541 0.4541 0.4541
0.4690 0.4690 0.4690
0.4839 0.4839 0.4839
0.4988 0.4988 0.4988
0.5137 0.5137 0.5137
0.5286 0.5286 0.5286
0.3405 0.3405 0.3405
0.3554 0.3554 0.3554
0.3703 0.3703 0.3703
0.3852 0.3852 0.3852
0.4000 0.4000 0.4000
0.4149 0.4149 0.4149
0.4298 0.4298 0.4298
0.4447 0.4447 0.4447
0.4596 0.4596 0.4596
0.4744 0.4744 0.4744
0.4893 0.4893 0.4893
0.5042 0.5042 0.5042
0.5191 0.5191 0.5191
0.5340 0.5340 0.5340
0.5489 0.5489 0.5489
0.5637 0.5637 0.5637
0.5786 0.5786 0.5786
0.3906 0.3906 0.3906
0.4055 0.4055 0.4055
0.4203 0.4203 0.4203
0.4352 0.4352 0.4352
0.4501 0.4501 0.4501
0.4650 0.4650 0.4650
0.4799 0.4799 0.4799
0.4947 0.4947 0.4947
0.5096 0.5096 0.5096
0.5245 0.5245 0.5245
0.5394 0.5394 0.5394
0.5543 0.5543 0.5543
0.5692 0.5692 0.5692
0.5840 0.5840 0.5840
0.5989 0.5989 0.5989
0.6138 0.6138 0.6138
0.6287 0.6287 0.6287
0.4406 0.4406 0.4406
0.4555 0.4555 0.4555
0.4704 0.4704 0.4704
0.4853 0.4853 0.4853
0.5002 0.5002 0.5002
0.5151 0.5151 0.5151
0.5299 0.5299 0.5299
0.5448 0.5448 0.5448
0.5597 0.5597 0.5597
0.5746 0.5746 0.5746
0.5895 0.5895 0.5895
0.6043 0.6043 0.6043
0.6192 0.6192 0.6192
0.6341 0.6341 0.6341
0.6490 0.6490 0.6490
0.6639 0.6639 0.6639
0.6788 0.6788 0.6788
0.4907 0.4907 0.4907
0.5056 0.5056 0.5056
0.5205 0.5205 0.5205
0.5353 0.5353 0.5353
0.5502 0.5502 0.5502
0.5651 0.5651 0.5651
0.5800 0.5800 0.5800
0.5949 0.5949 0.5949
0.6098 0.6098 0.6098
0.6246 0.6246 0.6246
0.6395 0.6395 0.6395
0.6544 0.6544 0.6544
0.6693 0.6693 0.6693
0.6842 0.6842 0.6842
0.6991 0.6991 0.6991
0.7139 0.7139 0.7139
0.7288 0.7288 0.7288
0.5408 0.5408 0.5408
0.5556 0.5556 0.5556
0.5705 0.5705 0.5705
0.5854 0.5854 0.5854
0.6003 0.6003 0.6003
0.6152 0.6152 0.6152
0.6301 0.6301 0.6301
0.6449 0.6449 0.6449
0.6598 0.6598 0.6598
0.6747 0.6747 0.6747
0.6896 0.6896 0.6896
0.7045 0.7045 0.7045
0.7194 0.7194 0.7194
0.7342 0.7342 0.7342
0.7491 0.7491 0.7491
0.7640 0.7640 0.7640
0.7789 0.7789 0.7789
0.5908 0.5908 0.5908
0.6057 0.6057 0.6057
0.6206 0.6206 0.6206
0.6355 0.6355 0.6355
0.6504 0.6504 0.6504
0.6652 0.6652 0.6652
0.6801 0.6801 0.6801
0.6950 0.6950 0.6950
0.7099 0.7099 0.7099
0.7248 0.7248 0.7248
0.7397 0.7397 0.7397
0.7545 0.7545 0.7545
0.7694 0.7694 0.7694
0.7843 0.7843 0.7843
0.7992 0.7992 0.7992
0.8141 0.8141 0.8141
0.8289 0.8289 0.8289
0.6409 0.6409 0.6409
0.6558 0.6558 0.6558
0.6707 0.6707 0.6707
0.6855 0.6855 0.6855
0.7004 0.7004 0.7004
0.7153 0.7153 0.7153
0.7302 0.7302 0.7302
0.7451 0.7451 0.7451
0.7600 0.7600 0.7600
0.7748 0.7748 0.7748
0.7897 0.7897 0.7897
0.8046 0.8046 0.8046
0.8195 0.8195 0.8195
0.8344 0.8344 0.8344
0.8492 0.8492 0.8492
0.8641 0.8641 0.8641
0.8790 0.8790 0.8790
0.6910 0.6910 0.6910
0.7058 0.7058 0.7058
0.7207 0.7207 0.7207
0.7356 0.7356 0.7356
0.7505 0.7505 0.7505
0.7654 0.7654 0.7654
0.7803 0.7803 0.7803
0.7951 0.7951 0.7951
0.8100 0.8100 0.8100
0.8249 0.8249 0.8249
0.8398 0.8398 0.8398
0.8547 0.8547 0.8547
0.8695 0.8695 0.8695
0.8844 0.8844 0.8844
0.8993 0.8993 0.8993
0.9142 0.9142 0.9142
0.9291 0.9291 0.9291
0.7410 0.7410 0.7410
0.7559 0.7559 0.7559
0.7708 0.7708 0.7708
0.7857 0.7857 0.7857
0.8006 0.8006 0.8006
0.8154 0.8154 0.8154
0.8303 0.8303 0.8303
0.8452 0.8452 0.8452
0.8601 0.8601 0.8601
0.8750 0.8750 0.8750
0.8898 0.8898 0.8898
0.9047 0.9047 0.9047
0.9196 0.9196 0.9196
0.9345 0.9345 0.9345
0.9494 0.9494 0.9494
0.9643 0.9643 0.9643
0.9791 0.9791 0.9791
0.0000 0.0000 0.0000
0.0000 0.0000 0.0000
0.0000 0.0000 0.0000
0.0000 0.0000 0.0000
0.0046 0.0046 0.0046
0.0195 0.0195 0.0195
0.0343 0.0343 0.0343
0.0492 0.0492 0.0492
0.0641 0.0641 0.0641
0.0790 0.0790 0.0790
0.0939 0.0939 0.0939
0.1088 0.1088 0.1088
0.1236 0.1236 0.1236
0.1385 0.1385 0.1385
0.1534 0.1534 0.1534
0.1683 0.1683 0.1683
0.1832 0.1832 0.1832
0.0000 0.0000 0.0000
0.0100 0.0100 0.0100
0.0249 0.0249 0.0249
0.0398 0.0398 0.0398
0.0546 0.0546 0.0546
0.0695 0.0695 0.0695
0.0844 0.0844 0.0844
0.0993 0.0993 0.0993
0.1142 0.1142 0.1142
0.1291 0.1291 0.1291
0.1439 0.1439 0.1439
0.1588 0.1588 0.1588
0.1737 0.1737 0.1737
0.1886 0.1886 0.1886
0.2035 0.2035 0.2035
0.2183 0.2183 0.2183
0.2332 0.2332 0.2332
0.0452 0.0452 0.0452
0.0601 0.0601 0.0601
0.0749 0.0749 0.0749
0.0898 0.0898 0.0898
0.1047 0.1047 0.1047
0.1196 0.1196 0.1196
0.1345 0.1345 0.1345
0.1494 0.1494 0.1494
0.1642 0.1642 0.1642
0.1791 0.1791 0.1791
0.1940 0.1940 0.1940
0.2089 0.2089 0.2089
0.2238 0.2238 0.2238
0.2386 0.2386 0.2386
0.2535 0.2535 0.2535
0.2684 0.2684 0.2684
0.2833 0.2833 0.2833
0.0952 0.0952 0.0952
0.1101 0.1101 0.1101
0.1250 0.1250 0.1250
0.1399 0.1399 0.1399
0.1548 0.1548 0.1548
0.1697 0.1697 0.1697
0.1845 0.1845 0.1845
0.1994 0.1994 0.1994
0.2143 0.2143 0.2143
0.2292 0.2292 0.2292
0.2441 0.2441 0.2441
0.2589 0.2589 0.2589
0.2738 0.2738 0.2738
0.2887 0.2887 0.2887
0.3036 0.3036 0.3036
0.3185 0.3185 0.3185
0.3334 0.3334 0.3334
0.1453 0.1453 0.1453
0.1602 0.1602 0.1602
0.1751 0.1751 0.1751
0.1900 0.1900 0.1900
0.2048 0.2048 0.2048
0.2197 0.2197 0.2197
0.2346 0.2346 0.2346
0.2495 0.2495 0.2495
0.2644 0.2644 0.2644
0.2792 0.2792 0.2792
0.2941 0.2941 0.2941
0.3090 0.3090 0.3090
0.3239 0.3239 0.3239
0.3388 0.3388 0.3388
0.3537 0.3537 0.3537
0.3685 0.3685 0.3685
0.3834 0.3834 0.3834
0.1954 0.1954 0.1954
0.2103 0.2103 0.2103
0.2251 0.2251 0.2251
0.2400 0.2400 0.2400
0.2549 0.2549 0.2549
0.2698 0.2698 0.2698
0.2847 0.2847 0.2847
0.2995 0.2995 0.2995
0.3144 0.3144 0.3144
0.3293 0.3293 0.3293
0.3442 0.3442 0.3442
0.3591 0.3591 0.3591
0.3740 0.3740 0.3740
0.3888 0.3888 0.3888
0.4037 0.4037 0.4037
0.4186 0.4186 0.4186
0.4335 0.4335 0.4335
0.2454 0.2454 0.2454
0.2603 0.2603 0.2603
0.2752 0.2752 0.2752
0.2901 0.2901 0.2901
0.3050 0.3050 0.3050
0.3198 0.3198 0.3198
0.3347 0.3347 0.3347
0.3496 0.3496 0.3496
0.3645 0.3645 0.3645
0.3794 0.3794 0.3794
0.3943 0.3943 0.3943
0.4091 0.4091 0.4091
0.4240 0.4240 0.4240
0.4389 0.4389 0.4389
0.4538 0.4538 0.4538
0.4687 0.4687 0.4687
0.4835 0.4835 0.4835
0.2955 0.2955 0.2955
0.3104 0.3104 0.3104
0.3253 0.3253 0.3253
0.3401 0.3401 0.3401
0.3550 0.3550 0.3550
0.3699 0.3699 0.3699
0.3848 0.3848 0.3848
0.3997 0.3997 0.3997
0.4146 0.4146 0.4146
0.4294 0.4294 0.4294
0.4443 0.4443 0.4443
0.4592 0.4592 0.4592
0.4741 0.4741 0.4741
0.4890 0.4890 0.4890
0.5039 0.5039 0.5039
0.5187 0.5187 0.5187
0.5336 0.5336 0.5336
0.3456 0.3456 0.3456
0.3604 0.3604 0.3604
0.3753 0.3753 0.3753
0.3902 0.3902 0.3902
0.4051 0.4051 0.4051
0.4200 0.4200 0.4200
0.4349 0.4349 0.4349
0.4497 0.4497 0.4497
0.4646 0.4646 0.4646
0.4795 0.4795 0.4795
0.4944 0.4944 0.4944
0.5093 0.5093 0.5093
0.5242 0.5242 0.5242
0.5390 0.5390 0.5390
0.5539 0.5539 0.5539
0.5688 0.5688 0.5688
0.5837 0.5837 0.5837
0.3956 0.3956 0.3956
0.4105 0.4105 0.4105
0.4254 0.4254 0.4254
0.4403 0.4403 0.4403
0.4552 0.4552 0.4552
0.4700 0.4700 0.4700
0.4849 0.4849 0.4849
0.4998 0.4998 0.4998
0.5147 0.5147 0.5147
0.5296 0.5296 0.5296
0.5444 0.5444 0.5444
0.5593 0.5593 0.5593
0.5742 0.5742 0.5742
0.5891 0.5891 0.5891
0.6040 0.6040 0.6040
0.6189 0.6189 0.6189
0.6337 0.6337 0.6337
0.4457 0.4457 0.4457
0.4606 0.4606 0.4606
0.4755 0.4755 0.4755
0.4903 0.4903 0.4903
0.5052 0.5052 0.5052
0.5201 0.5201 0.5201
0.5350 0.5350 0.5350
0.5499 0.5499 0.5499
0.5647 0.5647 0.5647
0.5796 0.5796 0.5796
0.5945 0.5945 0.5945
0.6094 0.6094 0.6094
0.6243 0.6243 0.6243
0.6392 0.6392 0.6392
0.6540 0.6540 0.6540
0.6689 0.6689 0.6689
0.6838 0.6838 0.6838
0.4958 0.4958 0.4958
0.5106 0.5106 0.5106
0.5255 0.5255 0.5255
0.5404 0.5404 0.5404
0.5553 0.5553 0.5553
0.5702 0.5702 0.5702
0.5850 0.5850 0.5850
0.5999 0.5999 0.5999
0.6148 0.6148 0.6148
0.6297 0.6297 0.6297
0.6446 0.6446 0.6446
0.6595 0.6595 0.6595
0.6743 0.6743 0.6743
0.6892 0.6892 0.6892
0.7041 0.7041 0.7041
0.7190 0.7190 0.7190
0.7339 0.7339 0.7339
0.5458 0.5458 0.5458
0.5607 0.5607 0.5607
0.5756 0.5756 0.5756
0.5905 0.5905 0.5905
0.6054 0.6054 0.6054
0.6202 0.6202 0.6202
0.6351 0.6351 0.6351
0.6500 0.6500 0.6500
0.6649 0.6649 0.6649
0.6798 0.6798 0.6798
0.6946 0.6946 0.6946
0.7095 0.7095 0.7095
0.7244 0.7244 0.7244
0.7393 0.7393 0.7393
0.7542 0.7542 0.7542
0.7691 0.7691 0.7691
0.7839 0.7839 0.7839
0.5959 0.5959 0.5959
0.6108 0.6108 0.6108
0.6257 0.6257 0.6257
0.6405 0.6405 0.6405
0.6554 0.6554 0.6554
0.6703 0.6703 0.6703
0.6852 0.6852 0.6852
0.7001 0.7001 0.7001
0.7149 0.7149 0.7149
0.7298 0.7298 0.7298
0.7447 0.7447 0.7447
0.7596 0.7596 0.7596
0.7745 0.7745 0.7745
0.7894 0.7894 0.7894
0.8042 0.8042 0.8042
0.8191 0.8191 0.8191
0.8340 0.8340 0.8340
0.6459 0.6459 0.6459
0.6608 0.6608 0.6608
0.6757 0.6757 0.6757
0.6906 0.6906 0.6906
0.7055 0.7055 0.7055
0.7204 0.7204 0.7204
0.7352 0.7352 0.7352
0.7501 0.7501 0.7501
0.7650 0.7650 0.7650
0.7799 0.7799 0.7799
0.7948 0.7948 0.7948
0.8097 0.8097 0.8097
0.8245 0.8245 0.8245
0.8394 0.8394 0.8394
0.8543 0.8543 0.8543
0.8692 0.8692 0.8692
0.8841 0.8841 0.8841
0.6960 0.6960 0.6960
0.7109 0.7109 0.7109
0.7258 0.7258 0.7258
0.7407 0.7407 0.7407
0.7555 0.7555 0.7555
0.7704 0.7704 0.7704
0.7853 0.7853 0.7853
0.8002 0.8002 0.8002
0.8151 0.8151 0.8151
0.8300 0.8300 0.8300
0.8448 0.8448 0.8448
0.8597 0.8597 0.8597
0.8746 0.8746 0.8746
0.8895 0.8895 0.8895
0.9044 0.9044 0.9044
0.9192 0.9192 0.9192
0.9341 0.9341 0.9341
0.7461 0.7461 0.7461
0.7610 0.7610 0.7610
0.7758 0.7758 0.7758
0.7907 0.7907 0.7907
0.8056 0.8056 0.8056
0.8205 0.8205 0.8205
0.8354 0.8354 0.8354
0.8503 0.8503 0.8503
0.8651 0.8651 0.8651
0.8800 0.8800 0.8800
0.8949 0.8949 0.8949
0.9098 0.9098 0.9098
0.9247 0.9247 0.9247
0.9395 0.9395 0.9395
0.9544 0.9544 0.9544
0.9693 0.9693 0.9693
0.9842 0.9842 0.9842
0.0000 0.0000 0.0000
0.0000 0.0000 0.0000
0.0000 0.0000 0.0000
0.0000 0.0000 0.0000
0.0096 0.0096 0.0096
0.0245 0.0245 0.0245
0.0394 0.0394 0.0394
0.0543 0.0543 0.0543
0.0692 0.0692 0.0692
0.0840 0.0840 0.0840
0.0989 0.0989 0.0989
0.1138 0.1138 0.1138
0.1287 0.1287 0.1287
0.1436 0.1436 0.1436
0.1585 0.1585 0.1585
0.1733 0.1733 0.1733
0.1882 0.1882 0.1882
0.0002 0.0002 0.0002
0.0151 0.0151 0.0151
0.0299 0.0299 0.0299
0.0448 0.0448 0.0448
0.0597 0.0597 0.0597
0.0746 0.0746 0.0746
0.0895 0.0895 0.0895
0.1043 0.1043 0.1043
0.1192 0.1192 0.1192
0.1341 0.1341 0.1341
0.1490 0.1490 0.1490
0.1639 0.1639 0.1639
0.1788 0.1788 0.1788
0.1936 0.1936 0.1936
0.2085 0.2085 0.2085
0.2234 0.2234 0.2234
0.2383 0.2383 0.2383
0.0502 0.0502 0.0502
0.0651 0.0651 0.0651
0.0800 0.0800 0.0800
0.0949 0.0949 0.0949
0.1098 0.1098 0.1098
0.1246 0.1246 0.1246
0.1395 0.1395 0.1395
0.1544 0.1544 0.1544
0.1693 0.1693 0.1693
0.1842 0.1842 0.1842
0.1991 0.1991 0.1991
0.2139 0.2139 0.2139
0.2288 0.2288 0.2288
0.2437 0.2437 0.2437
0.2586 0.2586 0.2586
0.2735 0.2735 0.2735
0.2883 0.2883 0.2883
0.1003 0.1003 0.1003
0.1152 0.1152 0.1152
0.1301 0.1301 0.1301
0.1449 0.1449 0.1449
0.1598 0.1598 0.1598
0.1747 0.1747 0.1747
0.1896 0.1896 0.1896
0.2045 0.2045 0.2045
0.2194 0.2194 0.2194
0.2342 0.2342 0.2342
0.2491 0.2491 0.2491
0.2640 0.2640 0.2640
0.2789 0.2789 0.2789
0.2938 0.2938 0.2938
0.3086 0.3086 0.3086
0.3235 0.3235 0.3235
0.3384 0.3384 0.3384
0.1504 0.1504 0.1504
0.1652 0.1652 0.1652
0.1801 0.1801 0.1801
0.1950 0.1950 0.1950
0.2099 0.2099 0.2099
0.2248 0.2248 0.2248
0.2397 0.2397 0.2397
0.2545 0.2545 0.2545
0.2694 0.2694 0.2694
0.2843 0.2843 0.2843
0.2992 0.2992 0.2992
0.3141 0.3141 0.3141
0.3289 0.3289 0.3289
0.3438 0.3438 0.3438
0.3587 0.3587 0.3587
0.3736 0.3736 0.3736
0.3885 0.3885 0.3885
0.2004 0.2004 0.2004
0.2153 0.2153 0.2153
0.2302 0.2302 0.2302
0.2451 0.2451 0.2451
0.2600 0.2600 0.2600
0.2748 0.2748 0.2748
0.2897 0.2897 0.2897
0.3046 0.3046 0.3046
0.3195 0.3195 0.3195
0.3344 0.3344 0.3344
0.3492 0.3492 0.3492
0.3641 0.3641 0.3641
0.3790 0.3790 0.3790
0.3939 0.3939 0.3939
0.4088 0.4088 0.4088
0.4237 0.4237 0.4237
0.4385 0.4385 0.4385
0.2505 0.2505 0.2505
0.2654 0.2654 0.2654
0.2803 0.2803 0.2803
0.2951 0.2951 0.2951
0.3100 0.3100 0.3100
0.3249 0.3249 0.3249
0.3398 0.3398 0.3398
0.3547 0.3547 0.3547
0.3695 0.3695 0.3695
0.3844 0.3844 0.3844
0.3993 0.3993 0.3993
0.4142 0.4142 0.4142
0.4291 0.4291 0.4291
0.4440 0.4440 0.4440
0.4588 0.4588 0.4588
0.4737 0.4737 0.4737
0.4886 0.4886 0.4886
0.3006 0.3006 0.3006
0.3154 0.3154 0.3154
0.3303 0.3303 0.3303
0.3452 0.3452 0.3452
0.3601 0.3601 0.3601
0.3750 0.3750 0.3750
0.3898 0.3898 0.3898
0.4047 0.4047 0.4047
0.4196 0.4196 0.4196
0.4345 0.4345 0.4345
0.4494 0.4494 0.4494
0.4643 0.4643 0.4643
0.4791 0.4791 0.4791
0.4940 0.4940 0.4940
0.5089 0.5089 0.5089
0.5238 0.5238 0.5238
0.5387 0.5387 0.5387
0.3506 0.3506 0.3506
0.3655 0.3655 0.3655
0.3804 0.3804 0.3804
0.3953 0.3953 0.3953
0.4101 0.4101 0.4101
0.4250 0.4250 0.4250
0.4399 0.4399 0.4399
0.4548 0.4548 0.4548
0.4697 0.4697 0.4697
0.4846 0.4846 0.4846
0.4994 0.4994 0.4994
0.5143 0.5143 0.5143
0.5292 0.5292 0.5292
0.5441 0.5441 0.5441
0.5590 0.5590 0.5590
0.5738 0.5738 0.5738
0.5887 0.5887 0.5887
0.4007 0.4007 0.4007
0.4156 0.4156 0.4156
0.4304 0.4304 0.4304
0.4453 0.4453 0.4453
0.4602 0.4602 0.4602
0.4751 0.4751 0.4751
0.4900 0.4900 0.4900
0.5049 0.5049 0.5049
0.5197 0.5197 0.5197
0.5346 0.5346 0.5346
0.5495 0.5495 0.5495
0.5644 0.5644 0.5644
0.5793 0.5793 0.5793
0.5941 0.5941 0.5941
0.6090 0.6090 0.6090
0.6239 0.6239 0.6239
0.6388 0.6388 0.6388
0.4507 0.4507 0.4507
0.4656 0.4656 0.4656
0.4805 0.4805 0.4805
0.4954 0.4954 0.4954
0.5103 0.5103 0.5103
0.5252 0.5252 0.5252
0.5400 0.5400 0.5400
0.5549 0.5549 0.5549
0.5698 0.5698 0.5698
0.5847 0.5847 0.5847
0.5996 0.5996 0.5996
0.6144 0.6144 0.6144
0.6293 0.6293 0.6293
0.6442 0.6442 0.6442
0.6591 0.6591 0.6591
0.6740 0.6740 0.6740
0.6889 0.6889 0.6889
0.5008 0.5008 0.5008
0.5157 0.5157 0.5157
0.5306 0.5306 0.5306
0.5455 0.5455 0.5455
0.5603 0.5603 0.5603
0.5752 0.5752 0.5752
0.5901 0.5901 0.5901
0.6050 0.6050 0.6050
0.6199 0.6199 0.6199
0.6347 0.6347 0.6347
0.6496 0.6496 0.6496
0.6645 0.6645 0.6645
0.6794 0.6794 0.6794
0.6943 0.6943 0.6943
0.7092 0.7092 0.7092
0.7240 0.7240 0.7240
0.7389 0.7389 0.7389
0.5509 0.5509 0.5509
0.5658 0.5658 0.5658
0.5806 0.5806 0.5806
0.5955 0.5955 0.5955
0.6104 0.6104 0.6104
0.6253 0.6253 0.6253
0.6402 0.6402 0.6402
0.6550 0.6550 0.6550
0.6699 0.6699 0.6699
0.6848 0.6848 0.6848
0.6997 0.6997 0.6997
0.7146 0.7146 0.7146
0.7295 0.7295 0.7295
0.7443 0.7443 0.7443
0.7592 0.7592 0.7592
0.7741 0.7741 0.7741
0.7890 0.7890 0.7890
0.6009 0.6009 0.6009
0.6158 0.6158 0.6158
0.6307 0.6307 0.6307
0.6456 0.6456 0.6456
0.6605 0.6605 0.6605
0.6753 0.6753 0.6753
0.6902 0.6902 0.6902
0.7051 0.7051 0.7051
0.7200 0.7200 0.7200
0.7349 0.7349 0.7349
0.7498 0.7498 0.7498
0.7646 0.7646 0.7646
0.7795 0.7795 0.7795
0.7944 0.7944 0.7944
0.8093 0.8093 0.8093
0.8242 0.8242 0.8242
0.8391 0.8391 0.8391
0.6510 0.6510 0.6510
0.6659 0.6659 0.6659
0.6808 0.6808 0.6808
0.6956 0.6956 0.6956
0.7105 0.7105 0.7105
0.7254 0.7254 0.7254
0.7403 0.7403 0.7403
0.7552 0.7552 0.7552
0.7701 0.7701 0.7701
0.7849 0.7849 0.7849
0.7998 0.7998 0.7998
0.8147 0.8147 0.8147
0.8296 0.8296 0.8296
0.8445 0.8445 0.8445
0.8594 0.8594 0.8594
0.8742 0.8742 0.8742
0.8891 0.8891 0.8891
0.7011 0.7011 0.7011
0.7159 0.7159 0.7159
0.7308 0.7308 0.7308
0.7457 0.7457 0.7457
0.7606 0.7606 0.7606
0.7755 0.7755 0.7755
0.7904 0.7904 0.7904
0.8052 0.8052 0.8052
0.8201 0.8201 0.8201
0.8350 0.8350 0.8350
0.8499 0.8499 0.8499
0.8648 0.8648 0.8648
0.8797 0.8797 0.8797
0.8945 0.8945 0.8945
0.9094 0.9094 0.9094
0.9243 0.9243 0.9243
0.9392 0.9392 0.9392
0.7511 0.7511 0.7511
0.7660 0.7660 0.7660
0.7809 0.7809 0.7809
0.7958 0.7958 0.7958
0.8107 0.8107 0.8107
0.8255 0.8255 0.8255
0.8404 0.8404 0.8404
0.8553 0.8553 0.8553
0.8702 0.8702 0.8702
0.8851 0.8851 0.8851
0.9000 0.9000 0.9000
0.9148 0.9148 0.9148
0.9297 0.9297 0.9297
0.9446 0.9446 0.9446
0.9595 0.9595 0.9595
0.9744 0.9744 0.9744
0.9892 0.9892 0.9892
0.0000 0.0000 0.0000
0.0000 0.0000 0.0000
0.0000 0.0000 0.0000
0.0000 0.0000 0.0000
0.0147 0.0147 0.0147
0.0296 0.0296 0.0296
0.0445 0.0445 0.0445
0.0593 0.0593 0.0593
0.0742 0.0742 0.0742
0.0891 0.0891 0.0891
0.1040 0.1040 0.1040
0.1189 0.1189 0.1189
0.1337 0.1337 0.1337
0.1486 0.1486 0.1486
0.1635 0.1635 0.1635
0.1784 0.1784 0.1784
0.1933 0.1933 0.1933
0.0052 0.0052 0.0052
0.0201 0.0201 0.0201
0.0350 0.0350 0.0350
0.0499 0.0499 0.0499
0.0648 0.0648 0.0648
0.0796 0.0796 0.0796
0.0945 0.0945 0.0945
0.1094 0.1094 0.1094
0.1243 0.1243 0.1243
0.1392 0.1392 0.1392
0.1540 0.1540 0.1540
0.1689 0.1689 0.1689
0.1838 0.1838 0.1838
0.1987 0.1987 0.1987
0.2136 0.2136 0.2136
0.2285 0.2285 0.2285
