luts/mono.cube
# edite look: Mono (CC0)
TITLE "Mono"
LUT_3D_SIZE 9
DOMAIN_MIN 0.0 0.0 0.0
DOMAIN_MAX 1.0 1.0 1.0
0.0000 0.0000 0.0000
0.0000 0.0000 0.0000
0.0000 0.0000 0.0000
0.0293 0.0293 0.0293
0.0591 0.0591 0.0591
0.0888 0.0888 0.0888
0.1186 0.1186 0.1186
0.1483 0.1483 0.1483
0.1781 0.1781 0.1781
0.0401 0.0401 0.0401
0.0699 0.0699 0.0699
0.0997 0.0997 0.0997
0.1294 0.1294 0.1294
0.1592 0.1592 0.1592
0.1889 0.1889 0.1889
0.2187 0.2187 0.2187
0.2485 0.2485 0.2485
0.2782 0.2782 0.2782
0.1403 0.1403 0.1403
0.1700 0.1700 0.1700
0.1998 0.1998 0.1998
0.2295 0.2295 0.2295
0.2593 0.2593 0.2593
0.2891 0.2891 0.2891
0.3188 0.3188 0.3188
0.3486 0.3486 0.3486
0.3784 0.3784 0.3784
0.2404 0.2404 0.2404
0.2701 0.2701 0.2701
0.2999 0.2999 0.2999
0.3297 0.3297 0.3297
0.3594 0.3594 0.3594
0.3892 0.3892 0.3892
0.4190 0.4190 0.4190
0.4487 0.4487 0.4487
0.4785 0.4785 0.4785
0.3405 0.3405 0.3405
0.3703 0.3703 0.3703
0.4000 0.4000 0.4000
0.4298 0.4298 0.4298
0.4596 0.4596 0.4596
0.4893 0.4893 0.4893
0.5191 0.5191 0.5191
0.5489 0.5489 0.5489
0.5786 0.5786 0.5786
0.4406 0.4406 0.4406
0.4704 0.4704 0.4704
0.5002 0.5002 0.5002
0.5299 0.5299 0.5299
0.5597 0.5597 0.5597
0.5895 0.5895 0.5895
0.6192 0.6192 0.6192
0.6490 0.6490 0.6490
0.6788 0.6788 0.6788
0.5408 0.5408 0.5408
0.5705 0.5705 0.5705
0.6003 0.6003 0.6003
0.6301 0.6301 0.6301
0.6598 0.6598 0.6598
0.6896 0.6896 0.6896
0.7194 0.7194 0.7194
0.7491 0.7491 0.7491
0.7789 0.7789 0.7789
0.6409 0.6409 0.6409
0.6707 0.6707 0.6707
0.7004 0.7004 0.7004
0.7302 0.7302 0.7302
0.7600 0.7600 0.7600
0.7897 0.7897 0.7897
0.8195 0.8195 0.8195
0.8492 0.8492 0.8492
0.8790 0.8790 0.8790
0.7410 0.7410 0.7410
0.7708 0.7708 0.7708
0.8006 0.8006 0.8006
0.8303 0.8303 0.8303
0.8601 0.8601 0.8601
0.8898 0.8898 0.8898
0.9196 0.9196 0.9196
0.9494 0.9494 0.9494
0.9791 0.9791 0.9791
0.0000 0.0000 0.0000
0.0000 0.0000 0.0000
0.0096 0.0096 0.0096
0.0394 0.0394 0.0394
0.0692 0.0692 0.0692
0.0989 0.0989 0.0989
0.1287 0.1287 0.1287
0.1585 0.1585 0.1585
0.1882 0.1882 0.1882
0.0502 0.0502 0.0502
0.0800 0.0800 0.0800
0.1098 0.1098 0.1098
0.1395 0.1395 0.1395
0.1693 0.1693 0.1693
0.1991 0.1991 0.1991
0.2288 0.2288 0.2288
0.2586 0.2586 0.2586
0.2883 0.2883 0.2883
0.1504 0.1504 0.1504
0.1801 0.1801 0.1801
0.2099 0.2099 0.2099
0.2397 0.2397 0.2397
0.2694 0.2694 0.2694
0.2992 0.2992 0.2992
0.3289 0.3289 0.3289
0.3587 0.3587 0.3587
0.3885 0.3885 0.3885
0.2505 0.2505 0.2505
0.2803 0.2803 0.2803
0.3100 0.3100 0.3100
0.3398 0.3398 0.3398
0.3695 0.3695 0.3695
0.3993 0.3993 0.3993
0.4291 0.4291 0.4291
0.4588 0.4588 0.4588
0.4886 0.4886 0.4886
0.3506 0.3506 0.3506
0.3804 0.3804 0.3804
0.4101 0.4101 0.4101
0.4399 0.4399 0.4399
0.4697 0.4697 0.4697
0.4994 0.4994 0.4994
0.5292 0.5292 0.5292
0.5590 0.5590 0.5590
0.5887 0.5887 0.5887
0.4507 0.4507 0.4507
0.4805 0.4805 0.4805
0.5103 0.5103 0.5103
0.5400 0.5400 0.5400
0.5698 0.5698 0.5698
0.5996 0.5996 0.5996
0.6293 0.6293 0.6293
0.6591 0.6591 0.6591
0.6889 0.6889 0.6889
0.5509 0.5509 0.5509
0.5806 0.5806 0.5806
0.6104 0.6104 0.6104
0.6402 0.6402 0.6402
0.6699 0.6699 0.6699
0.6997 0.6997 0.6997
0.7295 0.7295 0.7295
0.7592 0.7592 0.7592
0.7890 0.7890 0.7890
0.6510 0.6510 0.6510
0.6808 0.6808 0.6808
0.7105 0.7105 0.7105
0.7403 0.7403 0.7403
0.7701 0.7701 0.7701
0.7998 0.7998 0.7998
0.8296 0.8296 0.8296
0.8594 0.8594 0.8594
0.8891 0.8891 0.8891
0.7511 0.7511 0.7511
0.7809 0.7809 0.7809
0.8107 0.8107 0.8107
0.8404 0.8404 0.8404
0.8702 0.8702 0.8702
0.9000 0.9000 0.9000
0.9297 0.9297 0.9297
0.9595 0.9595 0.9595
0.9892 0.9892 0.9892
0.0000 0.0000 0.0000
0.0000 0.0000 0.0000
0.0197 0.0197 0.0197
0.0495 0.0495 0.0495
0.0793 0.0793 0.0793
0.1090 0.1090 0.1090
0.1388 0.1388 0.1388
0.1686 0.1686 0.1686
0.1983 0.1983 0.1983
0.0603 0.0603 0.0603
0.0901 0.0901 0.0901
0.1199 0.1199 0.1199
0.1496 0.1496 0.1496
0.1794 0.1794 0.1794
0.2092 0.2092 0.2092
0.2389 0.2389 0.2389
0.2687 0.2687 0.2687
0.2985 0.2985 0.2985
0.1605 0.1605 0.1605
0.1902 0.1902 0.1902
0.2200 0.2200 0.2200
0.2498 0.2498 0.2498
0.2795 0.2795 0.2795
0.3093 0.3093 0.3093
0.3391 0.3391 0.3391
0.3688 0.3688 0.3688
0.3986 0.3986 0.3986
0.2606 0.2606 0.2606
0.2904 0.2904 0.2904
0.3201 0.3201 0.3201
0.3499 0.3499 0.3499
0.3797 0.3797 0.3797
0.4094 0.4094 0.4094
0.4392 0.4392 0.4392
0.4689 0.4689 0.4689
0.4987 0.4987 0.4987
0.3607 0.3607 0.3607
0.3905 0.3905 0.3905
0.4203 0.4203 0.4203
0.4500 0.4500 0.4500
0.4798 0.4798 0.4798
0.5095 0.5095 0.5095
0.5393 0.5393 0.5393
0.5691 0.5691 0.5691
0.5988 0.5988 0.5988
0.4609 0.4609 0.4609
0.4906 0.4906 0.4906
0.5204 0.5204 0.5204
0.5501 0.5501 0.5501
0.5799 0.5799 0.5799
0.6097 0.6097 0.6097
0.6394 0.6394 0.6394
0.6692 0.6692 0.6692
0.6990 0.6990 0.6990
0.5610 0.5610 0.5610
0.5907 0.5907 0.5907
0.6205 0.6205 0.6205
0.6503 0.6503 0.6503
0.6800 0.6800 0.6800
0.7098 0.7098 0.7098
0.7396 0.7396 0.7396
0.7693 0.7693 0.7693
0.7991 0.7991 0.7991
0.6611 0.6611 0.6611
0.6909 0.6909 0.6909
0.7206 0.7206 0.7206
0.7504 0.7504 0.7504
0.7802 0.7802 0.7802
0.8099 0.8099 0.8099
0.8397 0.8397 0.8397
0.8695 0.8695 0.8695
0.8992 0.8992 0.8992
0.7612 0.7612 0.7612
0.7910 0.7910 0.7910
0.8208 0.8208 0.8208
0.8505 0.8505 0.8505
0.8803 0.8803 0.8803
0.9101 0.9101 0.9101
0.9398 0.9398 0.9398
0.9696 0.9696 0.9696
0.9994 0.9994 0.9994
0.0000 0.0000 0.0000
0.0001 0.0001 0.0001
0.0299 0.0299 0.0299
0.0596 0.0596 0.0596
0.0894 0.0894 0.0894
0.1191 0.1191 0.1191
0.1489 0.1489 0.1489
0.1787 0.1787 0.1787
0.2084 0.2084 0.2084
0.0705 0.0705 0.0705
0.1002 0.1002 0.1002
0.1300 0.1300 0.1300
0.1597 0.1597 0.1597
0.1895 0.1895 0.1895
0.2193 0.2193 0.2193
0.2490 0.2490 0.2490
0.2788 0.2788 0.2788
0.3086 0.3086 0.3086
0.1706 0.1706 0.1706
0.2003 0.2003 0.2003
0.2301 0.2301 0.2301
0.2599 0.2599 0.2599
0.2896 0.2896 0.2896
0.3194 0.3194 0.3194
0.3492 0.3492 0.3492
0.3789 0.3789 0.3789
0.4087 0.4087 0.4087
0.2707 0.2707 0.2707
0.3005 0.3005 0.3005
0.3302 0.3302 0.3302
0.3600 0.3600 0.3600
0.3898 0.3898 0.3898
0.4195 0.4195 0.4195
0.4493 0.4493 0.4493
0.4791 0.4791 0.4791
0.5088 0.5088 0.5088
0.3708 0.3708 0.3708
0.4006 0.4006 0.4006
0.4304 0.4304 0.4304
0.4601 0.4601 0.4601
0.4899 0.4899 0.4899
0.5197 0.5197 0.5197
0.5494 0.5494 0.5494
0.5792 0.5792 0.5792
0.6089 0.6089 0.6089
0.4710 0.4710 0.4710
0.5007 0.5007 0.5007
0.5305 0.5305 0.5305
0.5603 0.5603 0.5603
0.5900 0.5900 0.5900
0.6198 0.6198 0.6198
0.6495 0.6495 0.6495
0.6793 0.6793 0.6793
0.7091 0.7091 0.7091
0.5711 0.5711 0.5711
0.6009 0.6009 0.6009
0.6306 0.6306 0.6306
0.6604 0.6604 0.6604
0.6901 0.6901 0.6901
0.7199 0.7199 0.7199
0.7497 0.7497 0.7497
0.7794 0.7794 0.7794
0.8092 0.8092 0.8092
0.6712 0.6712 0.6712
0.7010 0.7010 0.7010
0.7307 0.7307 0.7307
0.7605 0.7605 0.7605
0.7903 0.7903 0.7903
0.8200 0.8200 0.8200
0.8498 0.8498 0.8498
0.8796 0.8796 0.8796
0.9093 0.9093 0.9093
0.7713 0.7713 0.7713
0.8011 0.8011 0.8011
0.8309 0.8309 0.8309
0.8606 0.8606 0.8606
0.8904 0.8904 0.8904
0.9202 0.9202 0.9202
0.9499 0.9499 0.9499
0.9797 0.9797 0.9797
1.0000 1.0000 1.0000
0.0000 0.0000 0.0000
0.0102 0.0102 0.0102
0.0400 0.0400 0.0400
0.0697 0.0697 0.0697
0.0995 0.0995 0.0995
0.1293 0.1293 0.1293
0.1590 0.1590 0.1590
0.1888 0.1888 0.1888
0.2185 0.2185 0.2185
0.0806 0.0806 0.0806
0.1103 0.1103 0.1103
0.1401 0.1401 0.1401
0.1699 0.1699 0.1699
0.1996 0.1996 0.1996
0.2294 0.2294 0.2294
0.2591 0.2591 0.2591
0.2889 0.2889 0.2889
0.3187 0.3187 0.3187
0.1807 0.1807 0.1807
0.2105 0.2105 0.2105
0.2402 0.2402 0.2402
0.2700 0.2700 0.2700
0.2997 0.2997 0.2997
0.3295 0.3295 0.3295
0.3593 0.3593 0.3593
0.3890 0.3890 0.3890
0.4188 0.4188 0.4188
0.2808 0.2808 0.2808
0.3106 0.3106 0.3106
0.3403 0.3403 0.3403
0.3701 0.3701 0.3701
0.3999 0.3999 0.3999
0.4296 0.4296 0.4296
0.4594 0.4594 0.4594
0.4892 0.4892 0.4892
0.5189 0.5189 0.5189
0.3809 0.3809 0.3809
0.4107 0.4107 0.4107
0.4405 0.4405 0.4405
0.4702 0.4702 0.4702
0.5000 0.5000 0.5000
0.5298 0.5298 0.5298
0.5595 0.5595 0.5595
0.5893 0.5893 0.5893
0.6191 0.6191 0.6191
0.4811 0.4811 0.4811
0.5108 0.5108 0.5108
0.5406 0.5406 0.5406
0.5704 0.5704 0.5704
0.6001 0.6001 0.6001
0.6299 0.6299 0.6299
0.6597 0.6597 0.6597
0.6894 0.6894 0.6894
0.7192 0.7192 0.7192
0.5812 0.5812 0.5812
0.6110 0.6110 0.6110
0.6407 0.6407 0.6407
0.6705 0.6705 0.6705
0.7003 0.7003 0.7003
0.7300 0.7300 0.7300
0.7598 0.7598 0.7598
0.7895 0.7895 0.7895
0.8193 0.8193 0.8193
0.6813 0.6813 0.6813
0.7111 0.7111 0.7111
0.7409 0.7409 0.7409
0.7706 0.7706 0.7706
0.8004 0.8004 0.8004
0.8301 0.8301 0.8301
0.8599 0.8599 0.8599
0.8897 0.8897 0.8897
0.9194 0.9194 0.9194
0.7815 0.7815 0.7815
0.8112 0.8112 0.8112
0.8410 0.8410 0.8410
0.8707 0.8707 0.8707
0.9005 0.9005 0.9005
0.9303 0.9303 0.9303
0.9600 0.9600 0.9600
0.9898 0.9898 0.9898
1.0000 1.0000 1.0000
0.0000 0.0000 0.0000
0.0203 0.0203 0.0203
0.0501 0.0501 0.0501
0.0798 0.0798 0.0798
0.1096 0.1096 0.1096
0.1394 0.1394 0.1394
0.1691 0.1691 0.1691
0.1989 0.1989 0.1989
0.2287 0.2287 0.2287
0.0907 0.0907 0.0907
0.1204 0.1204 0.1204
0.1502 0.1502 0.1502
0.1800 0.1800 0.1800
0.2097 0.2097 0.2097
0.2395 0.2395 0.2395
0.2693 0.2693 0.2693
0.2990 0.2990 0.2990
0.3288 0.3288 0.3288
0.1908 0.1908 0.1908
0.2206 0.2206 0.2206
0.2503 0.2503 0.2503
0.2801 0.2801 0.2801
0.3099 0.3099 0.3099
0.3396 0.3396 0.3396
0.3694 0.3694 0.3694
0.3991 0.3991 0.3991
0.4289 0.4289 0.4289
0.2909 0.2909 0.2909
0.3207 0.3207 0.3207
0.3505 0.3505 0.3505
0.3802 0.3802 0.3802
0.4100 0.4100 0.4100
0.4397 0.4397 0.4397
0.4695 0.4695 0.4695
0.4993 0.4993 0.4993
0.5290 0.5290 0.5290
0.3911 0.3911 0.3911
0.4208 0.4208 0.4208
0.4506 0.4506 0.4506
0.4803 0.4803 0.4803
0.5101 0.5101 0.5101
0.5399 0.5399 0.5399
0.5696 0.5696 0.5696
0.5994 0.5994 0.5994
0.6292 0.6292 0.6292
0.4912 0.4912 0.4912
0.5209 0.5209 0.5209
0.5507 0.5507 0.5507
0.5805 0.5805 0.5805
0.6102 0.6102 0.6102
0.6400 0.6400 0.6400
0.6698 0.6698 0.6698
0.6995 0.6995 0.6995
0.7293 0.7293 0.7293
0.5913 0.5913 0.5913
0.6211 0.6211 0.6211
0.6508 0.6508 0.6508
0.6806 0.6806 0.6806
0.7104 0.7104 0.7104
0.7401 0.7401 0.7401
0.7699 0.7699 0.7699
0.7997 0.7997 0.7997
0.8294 0.8294 0.8294
0.6914 0.6914 0.6914
0.7212 0.7212 0.7212
0.7510 0.7510 0.7510
0.7807 0.7807 0.7807
0.8105 0.8105 0.8105
0.8403 0.8403 0.8403
0.8700 0.8700 0.8700
0.8998 0.8998 0.8998
0.9295 0.9295 0.9295
0.7916 0.7916 0.7916
0.8213 0.8213 0.8213
0.8511 0.8511 0.8511
0.8809 0.8809 0.8809
0.9106 0.9106 0.9106
0.9404 0.9404 0.9404
0.9701 0.9701 0.9701
0.9999 0.9999 0.9999
1.0000 1.0000 1.0000
0.0006 0.0006 0.0006
0.0304 0.0304 0.0304
0.0602 0.0602 0.0602
0.0899 0.0899 0.0899
0.1197 0.1197 0.1197
0.1495 0.1495 0.1495
0.1792 0.1792 0.1792
0.2090 0.2090 0.2090
0.2388 0.2388 0.2388
0.1008 0.1008 0.1008
0.1305 0.1305 0.1305
0.1603 0.1603 0.1603
0.1901 0.1901 0.1901
0.2198 0.2198 0.2198
0.2496 0.2496 0.2496
0.2794 0.2794 0.2794
0.3091 0.3091 0.3091
0.3389 0.3389 0.3389
0.2009 0.2009 0.2009
0.2307 0.2307 0.2307
0.2604 0.2604 0.2604
0.2902 0.2902 0.2902
0.3200 0.3200 0.3200
0.3497 0.3497 0.3497
0.3795 0.3795 0.3795
0.4093 0.4093 0.4093
0.4390 0.4390 0.4390
0.3010 0.3010 0.3010
0.3308 0.3308 0.3308
0.3606 0.3606 0.3606
0.3903 0.3903 0.3903
0.4201 0.4201 0.4201
0.4499 0.4499 0.4499
0.4796 0.4796 0.4796
0.5094 0.5094 0.5094
0.5391 0.5391 0.5391
0.4012 0.4012 0.4012
0.4309 0.4309 0.4309
0.4607 0.4607 0.4607
0.4905 0.4905 0.4905
0.5202 0.5202 0.5202
0.5500 0.5500 0.5500
0.5797 0.5797 0.5797
0.6095 0.6095 0.6095
0.6393 0.6393 0.6393
0.5013 0.5013 0.5013
0.5311 0.5311 0.5311
0.5608 0.5608 0.5608
0.5906 0.5906 0.5906
0.6203 0.6203 0.6203
0.6501 0.6501 0.6501
0.6799 0.6799 0.6799
0.7096 0.7096 0.7096
0.7394 0.7394 0.7394
0.6014 0.6014 0.6014
0.6312 0.6312 0.6312
0.6609 0.6609 0.6609
0.6907 0.6907 0.6907
0.7205 0.7205 0.7205
0.7502 0.7502 0.7502
0.7800 0.7800 0.7800
0.8098 0.8098 0.8098
0.8395 0.8395 0.8395
0.7015 0.7015 0.7015
0.7313 0.7313 0.7313
0.7611 0.7611 0.7611
0.7908 0.7908 0.7908
0.8206 0.8206 0.8206
0.8504 0.8504 0.8504
0.8801 0.8801 0.8801
0.9099 0.9099 0.9099
0.9397 0.9397 0.9397
0.8017 0.8017 0.8017
0.8314 0.8314 0.8314
0.8612 0.8612 0.8612
0.8910 0.8910 0.8910
0.9207 0.9207 0.9207
0.9505 0.9505 0.9505
0.9803 0.9803 0.9803
1.0000 1.0000 1.0000
1.0000 1.0000 1.0000
0.0108 0.0108 0.0108
0.0405 0.0405 0.0405
0.0703 0.0703 0.0703
0.1000 0.1000 0.1000
0.1298 0.1298 0.1298
0.1596 0.1596 0.1596
0.1893 0.1893 0.1893
0.2191 0.2191 0.2191
0.2489 0.2489 0.2489
0.1109 0.1109 0.1109
0.1406 0.1406 0.1406
0.1704 0.1704 0.1704
0.2002 0.2002 0.2002
0.2299 0.2299 0.2299
0.2597 0.2597 0.2597
0.2895 0.2895 0.2895
0.3192 0.3192 0.3192
0.3490 0.3490 0.3490
0.2110 0.2110 0.2110
0.2408 0.2408 0.2408
0.2705 0.2705 0.2705
0.3003 0.3003 0.3003
0.3301 0.3301 0.3301
0.3598 0.3598 0.3598
0.3896 0.3896 0.3896
0.4194 0.4194 0.4194
0.4491 0.4491 0.4491
0.3111 0.3111 0.3111
0.3409 0.3409 0.3409
0.3707 0.3707 0.3707
0.4004 0.4004 0.4004
0.4302 0.4302 0.4302
0.4600 0.4600 0.4600
0.4897 0.4897 0.4897
0.5195 0.5195 0.5195
0.5493 0.5493 0.5493
0.4113 0.4113 0.4113
0.4410 0.4410 0.4410
0.4708 0.4708 0.4708
0.5006 0.5006 0.5006
0.5303 0.5303 0.5303
0.5601 0.5601 0.5601
0.5899 0.5899 0.5899
0.6196 0.6196 0.6196
0.6494 0.6494 0.6494
0.5114 0.5114 0.5114
0.5412 0.5412 0.5412
0.5709 0.5709 0.5709
0.6007 0.6007 0.6007
0.6305 0.6305 0.6305
0.6602 0.6602 0.6602
0.6900 0.6900 0.6900
0.7197 0.7197 0.7197
0.7495 0.7495 0.7495
0.6115 0.6115 0.6115
0.6413 0.6413 0.6413
0.6711 0.6711 0.6711
0.7008 0.7008 0.7008
0.7306 0.7306 0.7306
0.7603 0.7603 0.7603
0.7901 0.7901 0.7901
0.8199 0.8199 0.8199
0.8496 0.8496 0.8496
0.7117 0.7117 0.7117
0.7414 0.7414 0.7414
0.7712 0.7712 0.7712
0.8009 0.8009 0.8009
0.8307 0.8307 0.8307
0.8605 0.8605 0.8605
0.8902 0.8902 0.8902
0.9200 0.9200 0.9200
0.9498 0.9498 0.9498
0.8118 0.8118 0.8118
0.8415 0.8415 0.8415
0.8713 0.8713 0.8713
0.9011 0.9011 0.9011
0.9308 0.9308 0.9308
0.9606 0.9606 0.9606
0.9904 0.9904 0.9904
1.0000 1.0000 1.0000
1.0000 1.0000 1.0000
0.0209 0.0209 0.0209
0.0506 0.0506 0.0506
0.0804 0.0804 0.0804
0.1102 0.1102 0.1102
0.1399 0.1399 0.1399
0.1697 0.1697 0.1697
0.1994 0.1994 0.1994
0.2292 0.2292 0.2292
0.2590 0.2590 0.2590
0.1210 0.1210 0.1210
0.1508 0.1508 0.1508
0.1805 0.1805 0.1805
0.2103 0.2103 0.2103
0.2400 0.2400 0.2400
0.2698 0.2698 0.2698
0.2996 0.2996 0.2996
0.3293 0.3293 0.3293
0.3591 0.3591 0.3591
0.2211 0.2211 0.2211
0.2509 0.2509 0.2509
0.2806 0.2806 0.2806
0.3104 0.3104 0.3104
0.3402 0.3402 0.3402
0.3699 0.3699 0.3699
0.3997 0.3997 0.3997
0.4295 0.4295 0.4295
0.4592 0.4592 0.4592
0.3212 0.3212 0.3212
0.3510 0.3510 0.3510
0.3808 0.3808 0.3808
0.4105 0.4105 0.4105
0.4403 0.4403 0.4403
0.4701 0.4701 0.4701
0.4998 0.4998 0.4998
0.5296 0.5296 0.5296
0.5594 0.5594 0.5594
0.4214 0.4214 0.4214
0.4511 0.4511 0.4511
0.4809 0.4809 0.4809
0.5107 0.5107 0.5107
0.5404 0.5404 0.5404
0.5702 0.5702 0.5702
0.6000 0.6000 0.6000
0.6297 0.6297 0.6297
0.6595 0.6595 0.6595
0.5215 0.5215 0.5215
0.5513 0.5513 0.5513
0.5810 0.5810 0.5810
0.6108 0.6108 0.6108
0.6406 0.6406 0.6406
0.6703 0.6703 0.6703
0.7001 0.7001 0.7001
0.7299 0.7299 0.7299
0.7596 0.7596 0.7596
0.6216 0.6216 0.6216
0.6514 0.6514 0.6514
0.6812 0.6812 0.6812
0.7109 0.7109 0.7109
0.7407 0.7407 0.7407
0.7705 0.7705 0.7705
0.8002 0.8002 0.8002
0.8300 0.8300 0.8300
0.8597 0.8597 0.8597
0.7218 0.7218 0.7218
0.7515 0.7515 0.7515
0.7813 0.7813 0.7813
0.8111 0.8111 0.8111
0.8408 0.8408 0.8408
0.8706 0.8706 0.8706
0.9003 0.9003 0.9003
0.9301 0.9301 0.9301
0.9599 0.9599 0.9599
0.8219 0.8219 0.8219
0.8517 0.8517 0.8517
0.8814 0.8814 0.8814
0.9112 0.9112 0.9112
0.9409 0.9409 0.9409
0.9707 0.9707 0.9707
1.0000 1.0000 1.0000
1.0000 1.0000 1.0000
1.0000 1.0000 1.0000
