luts/mono.cube
# edite look: Mono (CC0)
TITLE "Mono"
LUT_3D_SIZE 5
DOMAIN_MIN 0.0 0.0 0.0
DOMAIN_MAX 1.0 1.0 1.0
0.0000 0.0000 0.0000
0.0000 0.0000 0.0000
0.0591 0.0591 0.0591
0.1186 0.1186 0.1186
0.1781 0.1781 0.1781
0.1403 0.1403 0.1403
0.1998 0.1998 0.1998
0.2593 0.2593 0.2593
0.3188 0.3188 0.3188
0.3784 0.3784 0.3784
0.3405 0.3405 0.3405
0.4000 0.4000 0.4000
0.4596 0.4596 0.4596
0.5191 0.5191 0.5191
0.5786 0.5786 0.5786
0.5408 0.5408 0.5408
0.6003 0.6003 0.6003
0.6598 0.6598 0.6598
0.7194 0.7194 0.7194
0.7789 0.7789 0.7789
0.7410 0.7410 0.7410
0.8006 0.8006 0.8006
0.8601 0.8601 0.8601
0.9196 0.9196 0.9196
0.9791 0.9791 0.9791
0.0000 0.0000 0.0000
0.0197 0.0197 0.0197
0.0793 0.0793 0.0793
0.1388 0.1388 0.1388
0.1983 0.1983 0.1983
0.1605 0.1605 0.1605
0.2200 0.2200 0.2200
0.2795 0.2795 0.2795
0.3391 0.3391 0.3391
0.3986 0.3986 0.3986
0.3607 0.3607 0.3607
0.4203 0.4203 0.4203
0.4798 0.4798 0.4798
0.5393 0.5393 0.5393
0.5988 0.5988 0.5988
0.5610 0.5610 0.5610
0.6205 0.6205 0.6205
0.6800 0.6800 0.6800
0.7396 0.7396 0.7396
0.7991 0.7991 0.7991
0.7612 0.7612 0.7612
0.8208 0.8208 0.8208
0.8803 0.8803 0.8803
0.9398 0.9398 0.9398
0.9994 0.9994 0.9994
0.0000 0.0000 0.0000
0.0400 0.0400 0.0400
0.0995 0.0995 0.0995
0.1590 0.1590 0.1590
0.2185 0.2185 0.2185
0.1807 0.1807 0.1807
0.2402 0.2402 0.2402
0.2997 0.2997 0.2997
0.3593 0.3593 0.3593
0.4188 0.4188 0.4188
0.3809 0.3809 0.3809
0.4405 0.4405 0.4405
0.5000 0.5000 0.5000
0.5595 0.5595 0.5595
0.6191 0.6191 0.6191
0.5812 0.5812 0.5812
0.6407 0.6407 0.6407
0.7003 0.7003 0.7003
0.7598 0.7598 0.7598
0.8193 0.8193 0.8193
0.7815 0.7815 0.7815
0.8410 0.8410 0.8410
0.9005 0.9005 0.9005
0.9600 0.9600 0.9600
1.0000 1.0000 1.0000
0.0006 0.0006 0.0006
0.0602 0.0602 0.0602
0.1197 0.1197 0.1197
0.1792 0.1792 0.1792
0.2388 0.2388 0.2388
0.2009 0.2009 0.2009
0.2604 0.2604 0.2604
0.3200 0.3200 0.3200
0.3795 0.3795 0.3795
0.4390 0.4390 0.4390
0.4012 0.4012 0.4012
0.4607 0.4607 0.4607
0.5202 0.5202 0.5202
0.5797 0.5797 0.5797
0.6393 0.6393 0.6393
0.6014 0.6014 0.6014
0.6609 0.6609 0.6609
0.7205 0.7205 0.7205
0.7800 0.7800 0.7800
0.8395 0.8395 0.8395
0.8017 0.8017 0.8017
0.8612 0.8612 0.8612
0.9207 0.9207 0.9207
0.9803 0.9803 0.9803
1.0000 1.0000 1.0000
0.0209 0.0209 0.0209
0.0804 0.0804 0.0804
0.1399 0.1399 0.1399
0.1994 0.1994 0.1994
0.2590 0.2590 0.2590
0.2211 0.2211 0.2211
0.2806 0.2806 0.2806
0.3402 0.3402 0.3402
0.3997 0.3997 0.3997
0.4592 0.4592 0.4592
0.4214 0.4214 0.4214
0.4809 0.4809 0.4809
0.5404 0.5404 0.5404
0.6000 0.6000 0.6000
0.6595 0.6595 0.6595
0.6216 0.6216 0.6216
0.6812 0.6812 0.6812
0.7407 0.7407 0.7407
0.8002 0.8002 0.8002
0.8597 0.8597 0.8597
0.8219 0.8219 0.8219
0.8814 0.8814 0.8814
0.9409 0.9409 0.9409
1.0000 1.0000 1.0000
1.0000 1.0000 1.0000
