luts/moody.cube
# edite look: Moody (CC0)
TITLE "Moody"
LUT_3D_SIZE 17
DOMAIN_MIN 0.0 0.0 0.0
DOMAIN_MAX 1.0 1.0 1.0
0.0000 0.0000 0.0000
0.0000 0.0000 0.0000
0.0538 0.0000 0.0000
0.1108 0.0000 0.0000
0.1694 0.0000 0.0000
0.2292 0.0000 0.0000
0.2900 0.0000 0.0000
0.3516 0.0000 0.0000
0.4138 0.0000 0.0000
0.4768 0.0000 0.0000
0.5403 0.0000 0.0000
0.6042 0.0000 0.0000
0.6687 0.0000 0.0000
0.7336 0.0000 0.0000
0.7989 0.0000 0.0000
0.8646 0.0000 0.0000
0.9306 0.0000 0.0000
0.0000 0.0066 0.0000
0.0033 0.0077 0.0000
0.0580 0.0090 0.0000
0.1150 0.0103 0.0000
0.1736 0.0116 0.0000
0.2334 0.0130 0.0000
0.2941 0.0144 0.0000
0.3557 0.0158 0.0000
0.4180 0.0173 0.0000
0.4809 0.0187 0.0000
0.5444 0.0202 0.0000
0.6084 0.0217 0.0000
0.6729 0.0231 0.0000
0.7378 0.0246 0.0000
0.8031 0.0261 0.0000
0.8687 0.0277 0.0000
0.9348 0.0292 0.0000
0.0000 0.0679 0.0000
0.0078 0.0690 0.0000
0.0625 0.0703 0.0000
0.1195 0.0716 0.0000
0.1781 0.0730 0.0000
0.2379 0.0744 0.0000
0.2987 0.0758 0.0000
0.3602 0.0772 0.0000
0.4225 0.0786 0.0000
0.4855 0.0801 0.0000
0.5489 0.0815 0.0000
0.6129 0.0830 0.0000
0.6774 0.0845 0.0000
0.7423 0.0860 0.0000
0.8076 0.0875 0.0000
0.8733 0.0890 0.0000
0.9393 0.0905 0.0000
0.0000 0.1312 0.0000
0.0124 0.1324 0.0000
0.0671 0.1336 0.0000
0.1242 0.1349 0.0000
0.1828 0.1363 0.0000
0.2425 0.1377 0.0000
0.3033 0.1391 0.0000
0.3649 0.1405 0.0000
0.4272 0.1419 0.0000
0.4901 0.1434 0.0000
0.5536 0.1448 0.0000
0.6176 0.1463 0.0000
0.6821 0.1478 0.0000
0.7469 0.1493 0.0000
0.8122 0.1508 0.0000
0.8779 0.1523 0.0000
0.9439 0.1539 0.0000
0.0000 0.1958 0.0000
0.0172 0.1970 0.0000
0.0719 0.1982 0.0000
0.1289 0.1996 0.0000
0.1875 0.2009 0.0000
0.2473 0.2023 0.0000
0.3081 0.2037 0.0000
0.3697 0.2051 0.0000
0.4319 0.2065 0.0000
0.4949 0.2080 0.0000
0.5584 0.2095 0.0000
0.6223 0.2109 0.0000
0.6868 0.2124 0.0000
0.7517 0.2139 0.0000
0.8170 0.2154 0.0000
0.8827 0.2170 0.0000
0.9487 0.2185 0.0000
0.0000 0.2614 0.0000
0.0220 0.2626 0.0000
0.0767 0.2638 0.0000
0.1337 0.2652 0.0000
0.1923 0.2665 0.0000
0.2521 0.2679 0.0000
0.3129 0.2693 0.0000
0.3745 0.2707 0.0000
0.4368 0.2722 0.0000
0.4997 0.2736 0.0000
0.5632 0.2751 0.0000
0.6272 0.2765 0.0000
0.6916 0.2780 0.0000
0.7565 0.2795 0.0000
0.8218 0.2810 0.0000
0.8875 0.2826 0.0000
0.9535 0.2841 0.0000
0.0000 0.3278 0.0000
0.0269 0.3290 0.0000
0.0816 0.3302 0.0000
0.1386 0.3316 0.0000
0.1972 0.3329 0.0000
0.2570 0.3343 0.0000
0.3178 0.3357 0.0000
0.3794 0.3371 0.0000
0.4417 0.3386 0.0000
0.5046 0.3400 0.0000
0.5681 0.3415 0.0000
0.6321 0.3429 0.0000
0.6965 0.3444 0.0000
0.7614 0.3459 0.0000
0.8267 0.3474 0.0000
0.8924 0.3490 0.0000
0.9584 0.3505 0.0004
0.0000 0.3949 0.0000
0.0318 0.3961 0.0000
0.0865 0.3973 0.0000
0.1436 0.3986 0.0000
0.2022 0.4000 0.0000
0.2620 0.4014 0.0000
0.3227 0.4028 0.0000
0.3843 0.4042 0.0000
0.4466 0.4056 0.0000
0.5095 0.4071 0.0000
0.5730 0.4085 0.0000
0.6370 0.4100 0.0000
0.7015 0.4115 0.0000
0.7664 0.4130 0.0008
0.8317 0.4145 0.0023
0.8973 0.4160 0.0039
0.9633 0.4175 0.0054
0.0000 0.4626 0.0000
0.0368 0.4637 0.0000
0.0915 0.4650 0.0000
0.1485 0.4663 0.0000
0.2071 0.4676 0.0000
0.2669 0.4690 0.0000
0.3277 0.4704 0.0000
0.3893 0.4718 0.0000
0.4516 0.4733 0.0000
0.5145 0.4747 0.0000
0.5780 0.4762 0.0014
0.6420 0.4777 0.0028
0.7064 0.4792 0.0043
0.7713 0.4807 0.0058
0.8366 0.4822 0.0073
0.9023 0.4837 0.0088
0.9683 0.4852 0.0104
0.0000 0.5307 0.0000
0.0418 0.5319 0.0000
0.0965 0.5331 0.0000
0.1536 0.5344 0.0000
0.2122 0.5358 0.0000
0.2720 0.5372 0.0000
0.3327 0.5386 0.0006
0.3943 0.5400 0.0020
0.4566 0.5414 0.0035
0.5195 0.5429 0.0049
0.5830 0.5444 0.0064
0.6470 0.5458 0.0078
0.7115 0.5473 0.0093
0.7764 0.5488 0.0108
0.8417 0.5503 0.0123
0.9073 0.5518 0.0139
0.9733 0.5534 0.0154
0.0000 0.5993 0.0000
0.0469 0.6005 0.0000
0.1016 0.6017 0.0002
0.1586 0.6031 0.0015
0.2172 0.6044 0.0029
0.2770 0.6058 0.0042
0.3378 0.6072 0.0056
0.3994 0.6086 0.0071
0.4617 0.6101 0.0085
0.5246 0.6115 0.0100
0.5881 0.6130 0.0114
0.6521 0.6144 0.0129
0.7165 0.6159 0.0144
0.7814 0.6174 0.0159
0.8467 0.6189 0.0174
0.9124 0.6205 0.0189
0.9784 0.6220 0.0204
0.0029 0.6684 0.0029
0.0520 0.6695 0.0040
0.1067 0.6708 0.0053
0.1637 0.6721 0.0066
0.2223 0.6734 0.0079
0.2821 0.6748 0.0093
0.3429 0.6762 0.0107
0.4044 0.6776 0.0122
0.4667 0.6791 0.0136
0.5297 0.6805 0.0150
0.5931 0.6820 0.0165
0.6571 0.6835 0.0180
0.7216 0.6850 0.0195
0.7865 0.6865 0.0210
0.8518 0.6880 0.0225
0.9175 0.6895 0.0240
0.9835 0.6910 0.0255
0.0080 0.7378 0.0080
0.0571 0.7389 0.0091
0.1118 0.7402 0.0104
0.1688 0.7415 0.0117
0.2274 0.7429 0.0131
0.2872 0.7442 0.0144
0.3480 0.7456 0.0158
0.4095 0.7471 0.0173
0.4718 0.7485 0.0187
0.5348 0.7499 0.0202
0.5982 0.7514 0.0216
0.6622 0.7529 0.0231
0.7267 0.7544 0.0246
0.7916 0.7559 0.0261
0.8569 0.7574 0.0276
0.9226 0.7589 0.0291
0.9886 0.7604 0.0306
0.0131 0.8075 0.0131
0.0622 0.8087 0.0143
0.1169 0.8099 0.0155
0.1739 0.8113 0.0168
0.2325 0.8126 0.0182
0.2923 0.8140 0.0196
0.3531 0.8154 0.0210
0.4147 0.8168 0.0224
0.4770 0.8182 0.0238
0.5399 0.8197 0.0253
0.6034 0.8212 0.0268
0.6674 0.8226 0.0282
0.7318 0.8241 0.0297
0.7967 0.8256 0.0312
0.8620 0.8271 0.0327
0.9277 0.8287 0.0342
0.9937 0.8302 0.0358
0.0183 0.8776 0.0183
0.0674 0.8788 0.0194
0.1221 0.8800 0.0207
0.1791 0.8813 0.0220
0.2377 0.8827 0.0234
0.2975 0.8841 0.0247
0.3583 0.8855 0.0261
0.4198 0.8869 0.0276
0.4821 0.8883 0.0290
0.5451 0.8898 0.0304
0.6085 0.8912 0.0319
0.6725 0.8927 0.0334
0.7370 0.8942 0.0349
0.8019 0.8957 0.0364
0.8672 0.8972 0.0379
0.9329 0.8987 0.0394
0.9989 0.9003 0.0409
0.0235 0.9480 0.0235
0.0726 0.9491 0.0246
0.1273 0.9504 0.0259
0.1843 0.9517 0.0272
0.2429 0.9531 0.0285
0.3027 0.9545 0.0299
0.3634 0.9559 0.0313
0.4250 0.9573 0.0327
0.4873 0.9587 0.0342
0.5502 0.9602 0.0356
0.6137 0.9616 0.0371
0.6777 0.9631 0.0386
0.7422 0.9646 0.0401
0.8071 0.9661 0.0416
0.8724 0.9676 0.0431
0.9380 0.9691 0.0446
1.0000 0.9706 0.0461
0.0287 1.0000 0.0287
0.0778 1.0000 0.0298
0.1325 1.0000 0.0311
0.1895 1.0000 0.0324
0.2481 1.0000 0.0337
0.3079 1.0000 0.0351
0.3686 1.0000 0.0365
0.4302 1.0000 0.0379
0.4925 1.0000 0.0394
0.5554 1.0000 0.0408
0.6189 1.0000 0.0423
0.6829 1.0000 0.0438
0.7474 1.0000 0.0453
0.8123 1.0000 0.0468
0.8776 1.0000 0.0483
0.9432 1.0000 0.0498
1.0000 1.0000 0.0513
0.0000 0.0000 0.0093
0.0000 0.0000 0.0104
0.0543 0.0000 0.0117
0.1113 0.0000 0.0130
0.1699 0.0000 0.0144
0.2297 0.0000 0.0158
0.2904 0.0000 0.0172
0.3520 0.0000 0.0186
0.4143 0.0000 0.0200
0.4772 0.0000 0.0215
0.5407 0.0000 0.0229
0.6047 0.0000 0.0244
0.6692 0.0000 0.0259
0.7341 0.0000 0.0274
0.7994 0.0000 0.0289
0.8650 0.0000 0.0304
0.9311 0.0000 0.0319
0.0000 0.0070 0.0135
0.0037 0.0082 0.0146
0.0584 0.0094 0.0159
0.1155 0.0107 0.0172
0.1740 0.0121 0.0185
0.2338 0.0135 0.0199
0.2946 0.0149 0.0213
0.3562 0.0163 0.0227
0.4185 0.0177 0.0242
0.4814 0.0192 0.0256
0.5449 0.0206 0.0271
0.6089 0.0221 0.0286
0.6733 0.0236 0.0301
0.7382 0.0251 0.0316
0.8035 0.0266 0.0331
0.8692 0.0281 0.0346
0.9352 0.0297 0.0361
0.0000 0.0684 0.0180
0.0082 0.0695 0.0191
0.0629 0.0708 0.0204
0.1200 0.0721 0.0217
0.1786 0.0735 0.0231
0.2384 0.0748 0.0244
0.2991 0.0762 0.0258
0.3607 0.0777 0.0273
0.4230 0.0791 0.0287
0.4859 0.0805 0.0301
0.5494 0.0820 0.0316
0.6134 0.0835 0.0331
0.6779 0.0850 0.0346
0.7428 0.0865 0.0361
0.8081 0.0880 0.0376
0.8737 0.0895 0.0391
0.9397 0.0910 0.0406
0.0000 0.1317 0.0227
0.0129 0.1328 0.0238
0.0676 0.1341 0.0250
0.1246 0.1354 0.0264
0.1832 0.1368 0.0277
0.2430 0.1381 0.0291
0.3038 0.1395 0.0305
0.3654 0.1410 0.0319
0.4277 0.1424 0.0334
0.4906 0.1439 0.0348
0.5541 0.1453 0.0363
0.6181 0.1468 0.0378
0.6825 0.1483 0.0392
0.7474 0.1498 0.0407
0.8127 0.1513 0.0422
0.8784 0.1528 0.0438
0.9444 0.1543 0.0453
0.0000 0.1963 0.0274
0.0177 0.1974 0.0285
0.0724 0.1987 0.0298
0.1294 0.2000 0.0311
0.1880 0.2014 0.0325
0.2478 0.2028 0.0339
0.3085 0.2042 0.0353
0.3701 0.2056 0.0367
0.4324 0.2070 0.0381
0.4953 0.2085 0.0396
0.5588 0.2099 0.0410
0.6228 0.2114 0.0425
0.6873 0.2129 0.0440
0.7522 0.2144 0.0455
0.8175 0.2159 0.0470
0.8831 0.2174 0.0485
0.9492 0.2189 0.0500
0.0000 0.2619 0.0322
0.0225 0.2631 0.0334
0.0772 0.2643 0.0346
0.1342 0.2656 0.0360
0.1928 0.2670 0.0373
0.2526 0.2684 0.0387
0.3134 0.2698 0.0401
0.3750 0.2712 0.0415
0.4372 0.2726 0.0429
0.5002 0.2741 0.0444
0.5637 0.2755 0.0459
0.6276 0.2770 0.0473
0.6921 0.2785 0.0488
0.7570 0.2800 0.0503
0.8223 0.2815 0.0518
0.8880 0.2830 0.0533
0.9540 0.2845 0.0549
0.0000 0.3283 0.0371
0.0274 0.3295 0.0383
0.0821 0.3307 0.0395
0.1391 0.3320 0.0408
0.1977 0.3334 0.0422
0.2575 0.3348 0.0436
0.3183 0.3362 0.0450
0.3798 0.3376 0.0464
0.4421 0.3390 0.0478
0.5051 0.3405 0.0493
0.5685 0.3419 0.0507
0.6325 0.3434 0.0522
0.6970 0.3449 0.0537
0.7619 0.3464 0.0552
0.8272 0.3479 0.0567
0.8929 0.3494 0.0582
0.9589 0.3509 0.0598
0.0000 0.3954 0.0421
0.0323 0.3965 0.0432
0.0870 0.3978 0.0445
0.1440 0.3991 0.0458
0.2026 0.4005 0.0471
0.2624 0.4018 0.0485
0.3232 0.4032 0.0499
0.3848 0.4047 0.0513
0.4471 0.4061 0.0528
0.5100 0.4075 0.0542
0.5735 0.4090 0.0557
0.6375 0.4105 0.0572
0.7019 0.4120 0.0587
0.7668 0.4135 0.0601
0.8321 0.4150 0.0617
0.8978 0.4165 0.0632
0.9638 0.4180 0.0647
0.0000 0.4630 0.0470
0.0373 0.4642 0.0482
0.0920 0.4654 0.0494
0.1490 0.4668 0.0508
0.2076 0.4681 0.0521
0.2674 0.4695 0.0535
0.3282 0.4709 0.0549
0.3898 0.4723 0.0563
0.4521 0.4737 0.0577
0.5150 0.4752 0.0592
0.5785 0.4767 0.0607
0.6425 0.4781 0.0621
0.7069 0.4796 0.0636
0.7718 0.4811 0.0651
0.8371 0.4826 0.0666
0.9028 0.4841 0.0682
0.9688 0.4857 0.0697
0.0000 0.5312 0.0521
0.0423 0.5323 0.0532
0.0970 0.5336 0.0545
0.1540 0.5349 0.0558
0.2126 0.5363 0.0571
0.2724 0.5376 0.0585
0.3332 0.5390 0.0599
0.3948 0.5405 0.0613
0.4571 0.5419 0.0628
0.5200 0.5434 0.0642
0.5835 0.5448 0.0657
0.6475 0.5463 0.0672
0.7119 0.5478 0.0686
0.7768 0.5493 0.0701
0.8421 0.5508 0.0717
0.9078 0.5523 0.0732
0.9738 0.5538 0.0747
0.0000 0.5998 0.0571
0.0474 0.6010 0.0582
0.1021 0.6022 0.0595
0.1591 0.6035 0.0608
0.2177 0.6049 0.0622
0.2775 0.6063 0.0636
0.3382 0.6077 0.0650
0.3998 0.6091 0.0664
0.4621 0.6105 0.0678
0.5250 0.6120 0.0693
0.5885 0.6134 0.0707
0.6525 0.6149 0.0722
0.7170 0.6164 0.0737
0.7819 0.6179 0.0752
0.8472 0.6194 0.0767
0.9128 0.6209 0.0782
0.9789 0.6224 0.0797
0.0034 0.6689 0.0622
0.0525 0.6700 0.0633
0.1071 0.6712 0.0646
0.1642 0.6726 0.0659
0.2228 0.6739 0.0673
0.2826 0.6753 0.0686
0.3433 0.6767 0.0700
0.4049 0.6781 0.0715
0.4672 0.6796 0.0729
0.5301 0.6810 0.0744
0.5936 0.6825 0.0758
0.6576 0.6839 0.0773
0.7221 0.6854 0.0788
0.7870 0.6869 0.0803
0.8523 0.6884 0.0818
0.9179 0.6900 0.0833
0.9839 0.6915 0.0848
0.0085 0.7383 0.0673
0.0576 0.7394 0.0684
0.1123 0.7407 0.0697
0.1693 0.7420 0.0710
0.2279 0.7433 0.0724
0.2877 0.7447 0.0737
0.3484 0.7461 0.0752
0.4100 0.7475 0.0766
0.4723 0.7490 0.0780
0.5352 0.7504 0.0795
0.5987 0.7519 0.0809
0.6627 0.7534 0.0824
0.7272 0.7548 0.0839
0.7921 0.7563 0.0854
0.8574 0.7579 0.0869
0.9230 0.7594 0.0884
0.9891 0.7609 0.0899
0.0136 0.8080 0.0724
0.0627 0.8092 0.0736
0.1174 0.8104 0.0748
0.1744 0.8117 0.0762
0.2330 0.8131 0.0775
0.2928 0.8145 0.0789
0.3536 0.8159 0.0803
0.4152 0.8173 0.0817
0.4774 0.8187 0.0831
0.5404 0.8202 0.0846
0.6039 0.8216 0.0861
0.6679 0.8231 0.0875
0.7323 0.8246 0.0890
0.7972 0.8261 0.0905
0.8625 0.8276 0.0920
0.9282 0.8291 0.0935
0.9942 0.8306 0.0951
0.0188 0.8781 0.0776
0.0679 0.8792 0.0787
0.1225 0.8805 0.0800
0.1796 0.8818 0.0813
0.2382 0.8832 0.0827
0.2980 0.8845 0.0840
0.3587 0.8859 0.0854
0.4203 0.8874 0.0869
0.4826 0.8888 0.0883
0.5455 0.8903 0.0898
0.6090 0.8917 0.0912
0.6730 0.8932 0.0927
0.7375 0.8947 0.0942
0.8024 0.8962 0.0957
0.8677 0.8977 0.0972
0.9333 0.8992 0.0987
0.9994 0.9007 0.1002
0.0239 0.9485 0.0828
0.0730 0.9496 0.0839
0.1277 0.9509 0.0852
0.1848 0.9522 0.0865
0.2434 0.9535 0.0878
0.3031 0.9549 0.0892
0.3639 0.9563 0.0906
0.4255 0.9577 0.0920
0.4878 0.9592 0.0935
0.5507 0.9606 0.0949
0.6142 0.9621 0.0964
0.6782 0.9636 0.0979
0.7427 0.9651 0.0994
0.8075 0.9666 0.1009
0.8728 0.9681 0.1024
0.9385 0.9696 0.1039
1.0000 0.9711 0.1054
0.0291 1.0000 0.0880
0.0782 1.0000 0.0891
0.1329 1.0000 0.0904
0.1900 1.0000 0.0917
0.2486 1.0000 0.0930
0.3084 1.0000 0.0944
0.3691 1.0000 0.0958
0.4307 1.0000 0.0973
0.4930 1.0000 0.0987
0.5559 1.0000 0.1001
0.6194 1.0000 0.1016
0.6834 1.0000 0.1031
0.7479 1.0000 0.1046
0.8127 1.0000 0.1061
0.8780 1.0000 0.1076
0.9437 1.0000 0.1091
1.0000 1.0000 0.1106
0.0000 0.0000 0.0720
0.0001 0.0000 0.0731
0.0548 0.0000 0.0744
0.1118 0.0000 0.0757
0.1704 0.0000 0.0770
0.2302 0.0000 0.0784
0.2909 0.0000 0.0798
0.3525 0.0000 0.0812
0.4148 0.0000 0.0827
0.4777 0.0000 0.0841
0.5412 0.0000 0.0856
0.6052 0.0000 0.0871
0.6697 0.0000 0.0885
0.7346 0.0000 0.0900
0.7999 0.0000 0.0915
0.8655 0.0000 0.0931
0.9316 0.0000 0.0946
0.0000 0.0075 0.0761
0.0042 0.0087 0.0773
0.0589 0.0099 0.0785
0.1160 0.0112 0.0798
0.1745 0.0126 0.0812
0.2343 0.0140 0.0826
0.2951 0.0154 0.0840
0.3567 0.0168 0.0854
0.4190 0.0182 0.0868
0.4819 0.0197 0.0883
0.5454 0.0211 0.0897
0.6094 0.0226 0.0912
0.6738 0.0241 0.0927
0.7387 0.0256 0.0942
0.8040 0.0271 0.0957
0.8697 0.0286 0.0972
0.9357 0.0302 0.0988
0.0000 0.0689 0.0806
0.0087 0.0700 0.0818
0.0634 0.0713 0.0830
0.1205 0.0726 0.0843
0.1791 0.0739 0.0857
0.2389 0.0753 0.0871
0.2996 0.0767 0.0885
0.3612 0.0782 0.0899
0.4235 0.0796 0.0913
0.4864 0.0810 0.0928
0.5499 0.0825 0.0943
0.6139 0.0840 0.0957
0.6784 0.0855 0.0972
0.7433 0.0870 0.0987
0.8086 0.0885 0.1002
0.8742 0.0900 0.1017
0.9402 0.0915 0.1033
0.0000 0.1322 0.0853
0.0134 0.1333 0.0864
0.0681 0.1346 0.0877
0.1251 0.1359 0.0890
0.1837 0.1373 0.0904
0.2435 0.1386 0.0917
0.3043 0.1400 0.0931
0.3659 0.1415 0.0946
0.4282 0.1429 0.0960
0.4911 0.1444 0.0975
0.5546 0.1458 0.0989
0.6186 0.1473 0.1004
0.6830 0.1488 0.1019
0.7479 0.1503 0.1034
0.8132 0.1518 0.1049
0.8789 0.1533 0.1064
0.9449 0.1548 0.1079
0.0000 0.1968 0.0901
0.0182 0.1979 0.0912
0.0729 0.1992 0.0925
0.1299 0.2005 0.0938
0.1885 0.2019 0.0951
0.2483 0.2033 0.0965
0.3090 0.2047 0.0979
0.3706 0.2061 0.0993
0.4329 0.2075 0.1008
0.4958 0.2090 0.1022
0.5593 0.2104 0.1037
0.6233 0.2119 0.1052
0.6878 0.2134 0.1066
0.7527 0.2149 0.1081
0.8180 0.2164 0.1096
0.8836 0.2179 0.1112
0.9497 0.2194 0.1127
0.0000 0.2624 0.0949
0.0230 0.2636 0.0960
0.0777 0.2648 0.0973
0.1347 0.2661 0.0986
0.1933 0.2675 0.0999
0.2531 0.2689 0.1013
0.3139 0.2703 0.1027
0.3755 0.2717 0.1042
0.4377 0.2731 0.1056
0.5007 0.2746 0.1070
0.5642 0.2760 0.1085
0.6281 0.2775 0.1100
0.6926 0.2790 0.1115
0.7575 0.2805 0.1130
0.8228 0.2820 0.1145
0.8885 0.2835 0.1160
0.9545 0.2850 0.1175
0.0000 0.3288 0.0998
0.0279 0.3300 0.1009
0.0826 0.3312 0.1022
0.1396 0.3325 0.1035
0.1982 0.3339 0.1048
0.2580 0.3353 0.1062
0.3188 0.3367 0.1076
0.3803 0.3381 0.1090
0.4426 0.3395 0.1105
0.5056 0.3410 0.1119
0.5690 0.3424 0.1134
0.6330 0.3439 0.1149
0.6975 0.3454 0.1164
0.7624 0.3469 0.1179
0.8277 0.3484 0.1194
0.8934 0.3499 0.1209
0.9594 0.3514 0.1224
0.0000 0.3959 0.1047
0.0328 0.3970 0.1058
0.0875 0.3983 0.1071
0.1445 0.3996 0.1084
0.2031 0.4010 0.1098
0.2629 0.4023 0.1112
0.3237 0.4037 0.1126
0.3853 0.4052 0.1140
0.4476 0.4066 0.1154
0.5105 0.4080 0.1169
0.5740 0.4095 0.1183
0.6380 0.4110 0.1198
0.7024 0.4125 0.1213
0.7673 0.4140 0.1228
0.8326 0.4155 0.1243
0.8983 0.4170 0.1258
0.9643 0.4185 0.1273
0.0000 0.4635 0.1097
0.0378 0.4647 0.1108
0.0925 0.4659 0.1121
0.1495 0.4673 0.1134
0.2081 0.4686 0.1148
0.2679 0.4700 0.1161
0.3287 0.4714 0.1175
0.3903 0.4728 0.1190
0.4526 0.4742 0.1204
0.5155 0.4757 0.1218
0.5790 0.4772 0.1233
0.6430 0.4786 0.1248
0.7074 0.4801 0.1263
0.7723 0.4816 0.1278
0.8376 0.4831 0.1293
0.9033 0.4846 0.1308
0.9693 0.4862 0.1323
0.0000 0.5317 0.1147
0.0428 0.5328 0.1158
0.0975 0.5341 0.1171
0.1545 0.5354 0.1184
0.2131 0.5368 0.1198
0.2729 0.5381 0.1212
0.3337 0.5395 0.1226
0.3953 0.5410 0.1240
0.4576 0.5424 0.1254
0.5205 0.5439 0.1269
0.5840 0.5453 0.1283
0.6480 0.5468 0.1298
0.7124 0.5483 0.1313
0.7773 0.5498 0.1328
0.8426 0.5513 0.1343
0.9083 0.5528 0.1358
0.9743 0.5543 0.1373
0.0000 0.6003 0.1198
0.0479 0.6015 0.1209
0.1026 0.6027 0.1222
0.1596 0.6040 0.1235
0.2182 0.6054 0.1248
0.2780 0.6068 0.1262
0.3387 0.6082 0.1276
0.4003 0.6096 0.1290
0.4626 0.6110 0.1305
0.5255 0.6125 0.1319
0.5890 0.6139 0.1334
0.6530 0.6154 0.1349
0.7175 0.6169 0.1363
0.7824 0.6184 0.1378
0.8477 0.6199 0.1394
0.9133 0.6214 0.1409
0.9794 0.6229 0.1424
0.0039 0.6693 0.1248
0.0530 0.6705 0.1260
0.1076 0.6717 0.1272
0.1647 0.6731 0.1286
0.2233 0.6744 0.1299
0.2831 0.6758 0.1313
0.3438 0.6772 0.1327
0.4054 0.6786 0.1341
0.4677 0.6801 0.1355
0.5306 0.6815 0.1370
0.5941 0.6830 0.1385
0.6581 0.6844 0.1399
0.7226 0.6859 0.1414
0.7875 0.6874 0.1429
0.8528 0.6889 0.1444
0.9184 0.6905 0.1459
0.9844 0.6920 0.1475
0.0090 0.7388 0.1300
0.0581 0.7399 0.1311
0.1128 0.7412 0.1323
0.1698 0.7425 0.1337
0.2284 0.7438 0.1350
0.2882 0.7452 0.1364
0.3489 0.7466 0.1378
0.4105 0.7480 0.1392
0.4728 0.7495 0.1407
0.5357 0.7509 0.1421
0.5992 0.7524 0.1436
0.6632 0.7539 0.1451
0.7277 0.7553 0.1465
0.7926 0.7568 0.1480
0.8579 0.7583 0.1495
0.9235 0.7599 0.1511
0.9896 0.7614 0.1526
0.0141 0.8085 0.1351
0.0632 0.8096 0.1362
0.1179 0.8109 0.1375
0.1749 0.8122 0.1388
0.2335 0.8136 0.1402
0.2933 0.8150 0.1415
0.3541 0.8164 0.1429
0.4157 0.8178 0.1444
0.4779 0.8192 0.1458
0.5409 0.8207 0.1472
0.6044 0.8221 0.1487
0.6683 0.8236 0.1502
0.7328 0.8251 0.1517
0.7977 0.8266 0.1532
0.8630 0.8281 0.1547
0.9287 0.8296 0.1562
0.9947 0.8311 0.1577
0.0193 0.8786 0.1402
0.0684 0.8797 0.1414
0.1230 0.8810 0.1426
0.1801 0.8823 0.1440
0.2387 0.8837 0.1453
0.2985 0.8850 0.1467
0.3592 0.8864 0.1481
0.4208 0.8879 0.1495
0.4831 0.8893 0.1510
0.5460 0.8908 0.1524
0.6095 0.8922 0.1539
0.6735 0.8937 0.1553
0.7380 0.8952 0.1568
0.8029 0.8967 0.1583
0.8682 0.8982 0.1598
0.9338 0.8997 0.1614
0.9999 0.9012 0.1629
0.0244 0.9490 0.1454
0.0735 0.9501 0.1466
0.1282 0.9514 0.1478
0.1853 0.9527 0.1491
0.2439 0.9540 0.1505
0.3036 0.9554 0.1519
0.3644 0.9568 0.1533
0.4260 0.9582 0.1547
0.4883 0.9597 0.1561
0.5512 0.9611 0.1576
0.6147 0.9626 0.1590
0.6787 0.9641 0.1605
0.7432 0.9656 0.1620
0.8080 0.9671 0.1635
0.8733 0.9686 0.1650
0.9390 0.9701 0.1665
1.0000 0.9716 0.1681
0.0296 1.0000 0.1506
0.0787 1.0000 0.1518
0.1334 1.0000 0.1530
0.1905 1.0000 0.1543
0.2491 1.0000 0.1557
0.3088 1.0000 0.1571
0.3696 1.0000 0.1585
0.4312 1.0000 0.1599
0.4935 1.0000 0.1613
0.5564 1.0000 0.1628
0.6199 1.0000 0.1643
0.6839 1.0000 0.1657
0.7484 1.0000 0.1672
0.8132 1.0000 0.1687
0.8785 1.0000 0.1702
0.9442 1.0000 0.1717
1.0000 1.0000 0.1733
0.0000 0.0000 0.1359
0.0006 0.0000 0.1371
0.0553 0.0000 0.1383
0.1123 0.0000 0.1396
0.1709 0.0000 0.1410
0.2307 0.0000 0.1424
0.2915 0.0000 0.1438
0.3530 0.0000 0.1452
0.4153 0.0000 0.1466
0.4782 0.0000 0.1481
0.5417 0.0000 0.1495
0.6057 0.0000 0.1510
0.6702 0.0000 0.1525
0.7351 0.0000 0.1540
0.8004 0.0000 0.1555
0.8661 0.0000 0.1570
0.9321 0.0000 0.1586
0.0000 0.0080 0.1401
0.0047 0.0092 0.1412
0.0594 0.0104 0.1425
0.1165 0.0117 0.1438
0.1751 0.0131 0.1452
0.2349 0.0145 0.1465
0.2956 0.0159 0.1479
0.3572 0.0173 0.1494
0.4195 0.0187 0.1508
0.4824 0.0202 0.1522
0.5459 0.0217 0.1537
0.6099 0.0231 0.1552
0.6744 0.0246 0.1567
0.7392 0.0261 0.1582
0.8045 0.0276 0.1597
0.8702 0.0291 0.1612
