luts/moody.cube
# edite look: Moody (CC0)
TITLE "Moody"
LUT_3D_SIZE 5
DOMAIN_MIN 0.0 0.0 0.0
DOMAIN_MAX 1.0 1.0 1.0
0.0000 0.0000 0.0000
0.1694 0.0000 0.0000
0.4138 0.0000 0.0000
0.6687 0.0000 0.0000
0.9306 0.0000 0.0000
0.0000 0.1958 0.0000
0.1875 0.2009 0.0000
0.4319 0.2065 0.0000
0.6868 0.2124 0.0000
0.9487 0.2185 0.0000
0.0000 0.4626 0.0000
0.2071 0.4676 0.0000
0.4516 0.4733 0.0000
0.7064 0.4792 0.0043
0.9683 0.4852 0.0104
0.0080 0.7378 0.0080
0.2274 0.7429 0.0131
0.4718 0.7485 0.0187
0.7267 0.7544 0.0246
0.9886 0.7604 0.0306
0.0287 1.0000 0.0287
0.2481 1.0000 0.0337
0.4925 1.0000 0.0394
0.7474 1.0000 0.0453
1.0000 1.0000 0.0513
0.0000 0.0000 0.2008
0.1714 0.0000 0.2058
0.4158 0.0000 0.2115
0.6707 0.0000 0.2174
0.9326 0.0000 0.2234
0.0000 0.1978 0.2189
0.1895 0.2029 0.2239
0.4339 0.2085 0.2296
0.6888 0.2144 0.2355
0.9507 0.2205 0.2415
0.0000 0.4646 0.2385
0.2091 0.4696 0.2436
0.4536 0.4753 0.2492
0.7084 0.4812 0.2551
0.9703 0.4872 0.2611
0.0100 0.7398 0.2588
0.2294 0.7448 0.2638
0.4738 0.7505 0.2695
0.7287 0.7564 0.2754
0.9906 0.7624 0.2814
0.0307 1.0000 0.2794
0.2501 1.0000 0.2845
0.4945 1.0000 0.2901
0.7494 1.0000 0.2960
1.0000 1.0000 0.3021
0.0000 0.0000 0.4656
0.1735 0.0000 0.4707
0.4180 0.0000 0.4764
0.6728 0.0000 0.4822
0.9347 0.0000 0.4883
0.0000 0.1999 0.4837
0.1916 0.2050 0.4888
0.4361 0.2107 0.4944
0.6909 0.2165 0.5003
0.9528 0.2226 0.5064
0.0000 0.4667 0.5034
0.2113 0.4717 0.5084
0.4557 0.4774 0.5141
0.7105 0.4833 0.5200
0.9724 0.4893 0.5260
0.0121 0.7419 0.5236
0.2315 0.7470 0.5287
0.4759 0.7526 0.5343
0.7308 0.7585 0.5402
0.9927 0.7645 0.5463
0.0328 1.0000 0.5443
0.2522 1.0000 0.5494
0.4966 1.0000 0.5550
0.7515 1.0000 0.5609
1.0000 1.0000 0.5669
0.0000 0.0000 0.7361
0.1757 0.0000 0.7412
0.4201 0.0000 0.7468
0.6750 0.0000 0.7527
0.9368 0.0000 0.7587
0.0000 0.2021 0.7542
0.1938 0.2072 0.7593
0.4382 0.2128 0.7649
0.6931 0.2187 0.7708
0.9549 0.2247 0.7768
0.0000 0.4688 0.7739
0.2134 0.4739 0.7789
0.4578 0.4795 0.7846
0.7127 0.4854 0.7904
0.9746 0.4915 0.7965
0.0143 0.7440 0.7941
0.2337 0.7491 0.7992
0.4781 0.7547 0.8048
0.7330 0.7606 0.8107
0.9948 0.7667 0.8167
0.0349 1.0000 0.8148
0.2543 1.0000 0.8199
0.4988 1.0000 0.8255
0.7536 1.0000 0.8314
1.0000 1.0000 0.8374
0.0000 0.0000 0.9479
0.1774 0.0000 0.9530
0.4218 0.0000 0.9586
0.6767 0.0000 0.9645
0.9385 0.0000 0.9706
0.0000 0.2038 0.9660
0.1955 0.2089 0.9711
0.4399 0.2145 0.9767
0.6948 0.2204 0.9826
0.9566 0.2264 0.9887
0.0000 0.4705 0.9857
0.2151 0.4756 0.9907
0.4595 0.4812 0.9964
0.7144 0.4871 1.0000
0.9763 0.4931 1.0000
0.0159 0.7457 1.0000
0.2353 0.7508 1.0000
0.4798 0.7564 1.0000
0.7346 0.7623 1.0000
0.9965 0.7684 1.0000
0.0366 1.0000 1.0000
0.2560 1.0000 1.0000
0.5005 1.0000 1.0000
0.7553 1.0000 1.0000
1.0000 1.0000 1.0000
