luts/moody.cube
# edite look: Moody (CC0)
TITLE "Moody"
LUT_3D_SIZE 9
DOMAIN_MIN 0.0 0.0 0.0
DOMAIN_MAX 1.0 1.0 1.0
0.0000 0.0000 0.0000
0.0538 0.0000 0.0000
0.1694 0.0000 0.0000
0.2900 0.0000 0.0000
0.4138 0.0000 0.0000
0.5403 0.0000 0.0000
0.6687 0.0000 0.0000
0.7989 0.0000 0.0000
0.9306 0.0000 0.0000
0.0000 0.0679 0.0000
0.0625 0.0703 0.0000
0.1781 0.0730 0.0000
0.2987 0.0758 0.0000
0.4225 0.0786 0.0000
0.5489 0.0815 0.0000
0.6774 0.0845 0.0000
0.8076 0.0875 0.0000
0.9393 0.0905 0.0000
0.0000 0.1958 0.0000
0.0719 0.1982 0.0000
0.1875 0.2009 0.0000
0.3081 0.2037 0.0000
0.4319 0.2065 0.0000
0.5584 0.2095 0.0000
0.6868 0.2124 0.0000
0.8170 0.2154 0.0000
0.9487 0.2185 0.0000
0.0000 0.3278 0.0000
0.0816 0.3302 0.0000
0.1972 0.3329 0.0000
0.3178 0.3357 0.0000
0.4417 0.3386 0.0000
0.5681 0.3415 0.0000
0.6965 0.3444 0.0000
0.8267 0.3474 0.0000
0.9584 0.3505 0.0004
0.0000 0.4626 0.0000
0.0915 0.4650 0.0000
0.2071 0.4676 0.0000
0.3277 0.4704 0.0000
0.4516 0.4733 0.0000
0.5780 0.4762 0.0014
0.7064 0.4792 0.0043
0.8366 0.4822 0.0073
0.9683 0.4852 0.0104
0.0000 0.5993 0.0000
0.1016 0.6017 0.0002
0.2172 0.6044 0.0029
0.3378 0.6072 0.0056
0.4617 0.6101 0.0085
0.5881 0.6130 0.0114
0.7165 0.6159 0.0144
0.8467 0.6189 0.0174
0.9784 0.6220 0.0204
0.0080 0.7378 0.0080
0.1118 0.7402 0.0104
0.2274 0.7429 0.0131
0.3480 0.7456 0.0158
0.4718 0.7485 0.0187
0.5982 0.7514 0.0216
0.7267 0.7544 0.0246
0.8569 0.7574 0.0276
0.9886 0.7604 0.0306
0.0183 0.8776 0.0183
0.1221 0.8800 0.0207
0.2377 0.8827 0.0234
0.3583 0.8855 0.0261
0.4821 0.8883 0.0290
0.6085 0.8912 0.0319
0.7370 0.8942 0.0349
0.8672 0.8972 0.0379
0.9989 0.9003 0.0409
0.0287 1.0000 0.0287
0.1325 1.0000 0.0311
0.2481 1.0000 0.0337
0.3686 1.0000 0.0365
0.4925 1.0000 0.0394
0.6189 1.0000 0.0423
0.7474 1.0000 0.0453
0.8776 1.0000 0.0483
1.0000 1.0000 0.0513
0.0000 0.0000 0.0720
0.0548 0.0000 0.0744
0.1704 0.0000 0.0770
0.2909 0.0000 0.0798
0.4148 0.0000 0.0827
0.5412 0.0000 0.0856
0.6697 0.0000 0.0885
0.7999 0.0000 0.0915
0.9316 0.0000 0.0946
0.0000 0.0689 0.0806
0.0634 0.0713 0.0830
0.1791 0.0739 0.0857
0.2996 0.0767 0.0885
0.4235 0.0796 0.0913
0.5499 0.0825 0.0943
0.6784 0.0855 0.0972
0.8086 0.0885 0.1002
0.9402 0.0915 0.1033
0.0000 0.1968 0.0901
0.0729 0.1992 0.0925
0.1885 0.2019 0.0951
0.3090 0.2047 0.0979
0.4329 0.2075 0.1008
0.5593 0.2104 0.1037
0.6878 0.2134 0.1066
0.8180 0.2164 0.1096
0.9497 0.2194 0.1127
0.0000 0.3288 0.0998
0.0826 0.3312 0.1022
0.1982 0.3339 0.1048
0.3188 0.3367 0.1076
0.4426 0.3395 0.1105
0.5690 0.3424 0.1134
0.6975 0.3454 0.1164
0.8277 0.3484 0.1194
0.9594 0.3514 0.1224
0.0000 0.4635 0.1097
0.0925 0.4659 0.1121
0.2081 0.4686 0.1148
0.3287 0.4714 0.1175
0.4526 0.4742 0.1204
0.5790 0.4772 0.1233
0.7074 0.4801 0.1263
0.8376 0.4831 0.1293
0.9693 0.4862 0.1323
0.0000 0.6003 0.1198
0.1026 0.6027 0.1222
0.2182 0.6054 0.1248
0.3387 0.6082 0.1276
0.4626 0.6110 0.1305
0.5890 0.6139 0.1334
0.7175 0.6169 0.1363
0.8477 0.6199 0.1394
0.9794 0.6229 0.1424
0.0090 0.7388 0.1300
0.1128 0.7412 0.1323
0.2284 0.7438 0.1350
0.3489 0.7466 0.1378
0.4728 0.7495 0.1407
0.5992 0.7524 0.1436
0.7277 0.7553 0.1465
0.8579 0.7583 0.1495
0.9896 0.7614 0.1526
0.0193 0.8786 0.1402
0.1230 0.8810 0.1426
0.2387 0.8837 0.1453
0.3592 0.8864 0.1481
0.4831 0.8893 0.1510
0.6095 0.8922 0.1539
0.7380 0.8952 0.1568
0.8682 0.8982 0.1598
0.9999 0.9012 0.1629
0.0296 1.0000 0.1506
0.1334 1.0000 0.1530
0.2491 1.0000 0.1557
0.3696 1.0000 0.1585
0.4935 1.0000 0.1613
0.6199 1.0000 0.1643
0.7484 1.0000 0.1672
0.8785 1.0000 0.1702
1.0000 1.0000 0.1733
0.0000 0.0000 0.2008
0.0558 0.0000 0.2032
0.1714 0.0000 0.2058
0.2920 0.0000 0.2086
0.4158 0.0000 0.2115
0.5422 0.0000 0.2144
0.6707 0.0000 0.2174
0.8009 0.0000 0.2204
0.9326 0.0000 0.2234
0.0000 0.0699 0.2095
0.0645 0.0723 0.2118
0.1801 0.0750 0.2145
0.3006 0.0778 0.2173
0.4245 0.0806 0.2202
0.5509 0.0835 0.2231
0.6794 0.0865 0.2260
0.8096 0.0895 0.2290
0.9413 0.0925 0.2321
0.0000 0.1978 0.2189
0.0739 0.2002 0.2213
0.1895 0.2029 0.2239
0.3101 0.2057 0.2267
0.4339 0.2085 0.2296
0.5603 0.2115 0.2325
0.6888 0.2144 0.2355
0.8190 0.2174 0.2385
0.9507 0.2205 0.2415
0.0000 0.3298 0.2286
0.0836 0.3322 0.2310
0.1992 0.3349 0.2337
0.3198 0.3377 0.2364
0.4437 0.3405 0.2393
0.5701 0.3435 0.2422
0.6985 0.3464 0.2452
0.8287 0.3494 0.2482
0.9604 0.3525 0.2512
0.0000 0.4646 0.2385
0.0935 0.4670 0.2409
0.2091 0.4696 0.2436
0.3297 0.4724 0.2464
0.4536 0.4753 0.2492
0.5800 0.4782 0.2521
0.7084 0.4812 0.2551
0.8386 0.4842 0.2581
0.9703 0.4872 0.2611
0.0000 0.6013 0.2486
0.1036 0.6037 0.2510
0.2192 0.6064 0.2536
0.3398 0.6092 0.2564
0.4636 0.6120 0.2593
0.5901 0.6150 0.2622
0.7185 0.6179 0.2652
0.8487 0.6209 0.2682
0.9804 0.6240 0.2712
0.0100 0.7398 0.2588
0.1138 0.7422 0.2612
0.2294 0.7448 0.2638
0.3500 0.7476 0.2666
0.4738 0.7505 0.2695
0.6002 0.7534 0.2724
0.7287 0.7564 0.2754
0.8589 0.7594 0.2784
0.9906 0.7624 0.2814
0.0203 0.8796 0.2691
0.1241 0.8820 0.2715
0.2397 0.8847 0.2741
0.3603 0.8875 0.2769
0.4841 0.8903 0.2798
0.6105 0.8932 0.2827
0.7390 0.8962 0.2856
0.8692 0.8992 0.2887
1.0000 0.9023 0.2917
0.0307 1.0000 0.2794
0.1345 1.0000 0.2818
0.2501 1.0000 0.2845
0.3706 1.0000 0.2873
0.4945 1.0000 0.2901
0.6209 1.0000 0.2931
0.7494 1.0000 0.2960
0.8796 1.0000 0.2990
1.0000 1.0000 0.3021
0.0000 0.0000 0.3323
0.0568 0.0000 0.3347
0.1725 0.0000 0.3374
0.2930 0.0000 0.3402
0.4169 0.0000 0.3430
0.5433 0.0000 0.3459
0.6718 0.0000 0.3489
0.8019 0.0000 0.3519
0.9336 0.0000 0.3549
0.0000 0.0710 0.3410
0.0655 0.0734 0.3434
0.1811 0.0760 0.3461
0.3017 0.0788 0.3488
0.4256 0.0817 0.3517
0.5520 0.0846 0.3546
0.6804 0.0875 0.3576
0.8106 0.0905 0.3606
0.9423 0.0936 0.3636
0.0000 0.1989 0.3504
0.0749 0.2013 0.3528
0.1906 0.2040 0.3555
0.3111 0.2067 0.3583
0.4350 0.2096 0.3611
0.5614 0.2125 0.3640
0.6899 0.2155 0.3670
0.8200 0.2185 0.3700
0.9517 0.2215 0.3730
0.0000 0.3309 0.3601
0.0846 0.3333 0.3625
0.2003 0.3360 0.3652
0.3208 0.3387 0.3680
0.4447 0.3416 0.3708
0.5711 0.3445 0.3737
0.6996 0.3475 0.3767
0.8298 0.3505 0.3797
0.9615 0.3535 0.3828
0.0000 0.4656 0.3700
0.0946 0.4680 0.3724
0.2102 0.4707 0.3751
0.3307 0.4735 0.3779
0.4546 0.4763 0.3807
0.5810 0.4792 0.3837
0.7095 0.4822 0.3866
0.8397 0.4852 0.3896
0.9714 0.4882 0.3927
0.0008 0.6024 0.3801
0.1046 0.6048 0.3825
0.2203 0.6075 0.3852
0.3408 0.6102 0.3880
0.4647 0.6131 0.3908
0.5911 0.6160 0.3937
0.7196 0.6190 0.3967
0.8497 0.6220 0.3997
0.9814 0.6250 0.4027
0.0110 0.7408 0.3903
0.1148 0.7432 0.3927
0.2305 0.7459 0.3954
0.3510 0.7487 0.3982
0.4749 0.7515 0.4010
0.6013 0.7545 0.4039
0.7297 0.7574 0.4069
0.8599 0.7604 0.4099
0.9916 0.7635 0.4129
0.0213 0.8807 0.4006
0.1251 0.8831 0.4030
0.2407 0.8857 0.4057
0.3613 0.8885 0.4084
0.4852 0.8914 0.4113
0.6116 0.8943 0.4142
0.7400 0.8973 0.4172
0.8702 0.9003 0.4202
1.0000 0.9033 0.4232
0.0317 1.0000 0.4110
0.1355 1.0000 0.4134
0.2511 1.0000 0.4160
0.3717 1.0000 0.4188
0.4956 1.0000 0.4217
0.6220 1.0000 0.4246
0.7504 1.0000 0.4276
0.8806 1.0000 0.4306
1.0000 1.0000 0.4336
0.0000 0.0000 0.4656
0.0579 0.0000 0.4680
0.1735 0.0000 0.4707
0.2941 0.0000 0.4735
0.4180 0.0000 0.4764
0.5444 0.0000 0.4793
0.6728 0.0000 0.4822
0.8030 0.0000 0.4852
0.9347 0.0000 0.4883
0.0000 0.0720 0.4743
0.0666 0.0744 0.4767
0.1822 0.0771 0.4794
0.3028 0.0799 0.4822
0.4266 0.0827 0.4850
0.5530 0.0856 0.4879
0.6815 0.0886 0.4909
0.8117 0.0916 0.4939
0.9434 0.0946 0.4970
0.0000 0.1999 0.4837
0.0760 0.2023 0.4861
0.1916 0.2050 0.4888
0.3122 0.2078 0.4916
0.4361 0.2107 0.4944
0.5625 0.2136 0.4974
0.6909 0.2165 0.5003
0.8211 0.2195 0.5033
0.9528 0.2226 0.5064
0.0000 0.3320 0.4935
0.0857 0.3343 0.4959
0.2013 0.3370 0.4985
0.3219 0.3398 0.5013
0.4458 0.3427 0.5042
0.5722 0.3456 0.5071
0.7006 0.3485 0.5100
0.8308 0.3515 0.5131
0.9625 0.3546 0.5161
0.0000 0.4667 0.5034
0.0956 0.4691 0.5058
0.2113 0.4717 0.5084
0.3318 0.4745 0.5112
0.4557 0.4774 0.5141
0.5821 0.4803 0.5170
0.7105 0.4833 0.5200
0.8407 0.4863 0.5230
0.9724 0.4893 0.5260
0.0019 0.6035 0.5134
0.1057 0.6058 0.5158
0.2213 0.6085 0.5185
0.3419 0.6113 0.5213
0.4658 0.6142 0.5242
0.5922 0.6171 0.5271
0.7206 0.6200 0.5300
0.8508 0.6230 0.5330
0.9825 0.6261 0.5361
0.0121 0.7419 0.5236
0.1159 0.7443 0.5260
0.2315 0.7470 0.5287
0.3521 0.7497 0.5315
0.4759 0.7526 0.5343
0.6024 0.7555 0.5373
0.7308 0.7585 0.5402
0.8610 0.7615 0.5432
0.9927 0.7645 0.5463
0.0224 0.8817 0.5339
0.1262 0.8841 0.5363
0.2418 0.8868 0.5390
0.3624 0.8896 0.5418
0.4862 0.8924 0.5446
0.6126 0.8954 0.5476
0.7411 0.8983 0.5505
0.8713 0.9013 0.5535
1.0000 0.9044 0.5566
0.0328 1.0000 0.5443
0.1366 1.0000 0.5467
0.2522 1.0000 0.5494
0.3727 1.0000 0.5522
0.4966 1.0000 0.5550
0.6230 1.0000 0.5579
0.7515 1.0000 0.5609
0.8817 1.0000 0.5639
1.0000 1.0000 0.5669
0.0000 0.0000 0.6003
0.0590 0.0000 0.6027
0.1746 0.0000 0.6054
0.2951 0.0000 0.6082
0.4190 0.0000 0.6110
0.5454 0.0000 0.6140
0.6739 0.0000 0.6169
0.8041 0.0000 0.6199
0.9358 0.0000 0.6230
0.0000 0.0731 0.6090
0.0676 0.0755 0.6114
0.1833 0.0782 0.6141
0.3038 0.0809 0.6169
0.4277 0.0838 0.6197
0.5541 0.0867 0.6226
0.6826 0.0897 0.6256
0.8128 0.0927 0.6286
0.9444 0.0957 0.6316
0.0000 0.2010 0.6184
0.0771 0.2034 0.6208
0.1927 0.2061 0.6235
0.3132 0.2089 0.6263
0.4371 0.2117 0.6291
0.5635 0.2146 0.6321
0.6920 0.2176 0.6350
0.8222 0.2206 0.6380
0.9539 0.2236 0.6411
0.0000 0.3330 0.6282
0.0868 0.3354 0.6305
0.2024 0.3381 0.6332
0.3230 0.3409 0.6360
0.4468 0.3437 0.6389
0.5732 0.3466 0.6418
0.7017 0.3496 0.6447
0.8319 0.3526 0.6477
0.9636 0.3557 0.6508
0.0000 0.4677 0.6381
0.0967 0.4701 0.6405
0.2123 0.4728 0.6431
0.3329 0.4756 0.6459
0.4568 0.4784 0.6488
0.5832 0.4814 0.6517
0.7116 0.4843 0.6547
0.8418 0.4873 0.6577
0.9735 0.4904 0.6607
0.0030 0.6045 0.6481
0.1068 0.6069 0.6505
0.2224 0.6096 0.6532
0.3429 0.6124 0.6560
0.4668 0.6152 0.6588
0.5932 0.6181 0.6618
0.7217 0.6211 0.6647
0.8519 0.6241 0.6677
0.9836 0.6272 0.6708
0.0132 0.7430 0.6583
0.1170 0.7454 0.6607
0.2326 0.7480 0.6634
0.3531 0.7508 0.6662
0.4770 0.7537 0.6690
0.6034 0.7566 0.6720
0.7319 0.7595 0.6749
0.8621 0.7626 0.6779
0.9938 0.7656 0.6810
0.0235 0.8828 0.6686
0.1273 0.8852 0.6710
0.2429 0.8879 0.6737
0.3634 0.8906 0.6765
0.4873 0.8935 0.6793
0.6137 0.8964 0.6822
0.7422 0.8994 0.6852
0.8724 0.9024 0.6882
1.0000 0.9054 0.6913
0.0338 1.0000 0.6790
0.1376 1.0000 0.6814
0.2533 1.0000 0.6841
0.3738 1.0000 0.6869
0.4977 1.0000 0.6897
0.6241 1.0000 0.6926
0.7526 1.0000 0.6956
0.8827 1.0000 0.6986
1.0000 1.0000 0.7016
0.0000 0.0000 0.7361
0.0600 0.0000 0.7385
0.1757 0.0000 0.7412
0.2962 0.0000 0.7440
0.4201 0.0000 0.7468
0.5465 0.0000 0.7497
0.6750 0.0000 0.7527
0.8052 0.0000 0.7557
0.9368 0.0000 0.7587
0.0000 0.0742 0.7448
0.0687 0.0766 0.7472
0.1844 0.0792 0.7499
0.3049 0.0820 0.7526
0.4288 0.0849 0.7555
0.5552 0.0878 0.7584
0.6836 0.0908 0.7614
0.8138 0.0938 0.7644
0.9455 0.0968 0.7674
0.0000 0.2021 0.7542
0.0781 0.2045 0.7566
0.1938 0.2072 0.7593
0.3143 0.2099 0.7621
0.4382 0.2128 0.7649
0.5646 0.2157 0.7678
0.6931 0.2187 0.7708
0.8233 0.2217 0.7738
0.9549 0.2247 0.7768
0.0000 0.3341 0.7639
0.0879 0.3365 0.7663
0.2035 0.3392 0.7690
0.3240 0.3420 0.7718
0.4479 0.3448 0.7746
0.5743 0.3477 0.7776
0.7028 0.3507 0.7805
0.8330 0.3537 0.7835
0.9647 0.3567 0.7866
0.0000 0.4688 0.7739
0.0978 0.4712 0.7762
0.2134 0.4739 0.7789
0.3340 0.4767 0.7817
0.4578 0.4795 0.7846
0.5842 0.4824 0.7875
0.7127 0.4854 0.7904
0.8429 0.4884 0.7934
0.9746 0.4915 0.7965
0.0041 0.6056 0.7839
0.1078 0.6080 0.7863
0.2235 0.6107 0.7890
0.3440 0.6134 0.7918
0.4679 0.6163 0.7946
0.5943 0.6192 0.7975
0.7228 0.6222 0.8005
0.8530 0.6252 0.8035
0.9847 0.6282 0.8065
0.0143 0.7440 0.7941
0.1180 0.7464 0.7965
0.2337 0.7491 0.7992
0.3542 0.7519 0.8020
0.4781 0.7547 0.8048
0.6045 0.7577 0.8077
0.7330 0.7606 0.8107
0.8632 0.7636 0.8137
0.9948 0.7667 0.8167
0.0245 0.8839 0.8044
0.1283 0.8863 0.8068
0.2440 0.8889 0.8095
0.3645 0.8917 0.8123
0.4884 0.8946 0.8151
0.6148 0.8975 0.8180
0.7433 0.9005 0.8210
0.8734 0.9035 0.8240
1.0000 0.9065 0.8270
0.0349 1.0000 0.8148
0.1387 1.0000 0.8172
0.2543 1.0000 0.8199
0.3749 1.0000 0.8226
0.4988 1.0000 0.8255
0.6252 1.0000 0.8284
0.7536 1.0000 0.8314
0.8838 1.0000 0.8344
1.0000 1.0000 0.8374
0.0000 0.0000 0.8728
0.0611 0.0000 0.8752
0.1768 0.0000 0.8779
0.2973 0.0000 0.8807
0.4212 0.0000 0.8835
0.5476 0.0000 0.8864
0.6761 0.0000 0.8894
0.8062 0.0000 0.8924
0.9379 0.0000 0.8954
0.0000 0.0753 0.8815
0.0698 0.0777 0.8839
0.1854 0.0803 0.8866
0.3060 0.0831 0.8893
0.4299 0.0860 0.8922
0.5563 0.0889 0.8951
0.6847 0.0918 0.8981
0.8149 0.0948 0.9011
0.9466 0.0979 0.9041
0.0000 0.2032 0.8909
0.0792 0.2056 0.8933
0.1949 0.2083 0.8960
0.3154 0.2110 0.8988
0.4393 0.2139 0.9016
0.5657 0.2168 0.9045
0.6942 0.2198 0.9075
0.8243 0.2228 0.9105
0.9560 0.2258 0.9135
0.0000 0.3352 0.9006
0.0889 0.3376 0.9030
0.2046 0.3403 0.9057
0.3251 0.3430 0.9085
0.4490 0.3459 0.9113
0.5754 0.3488 0.9142
0.7039 0.3518 0.9172
0.8341 0.3548 0.9202
0.9658 0.3578 0.9233
0.0000 0.4699 0.9105
0.0989 0.4723 0.9129
0.2145 0.4750 0.9156
0.3350 0.4778 0.9184
0.4589 0.4806 0.9212
0.5853 0.4835 0.9242
0.7138 0.4865 0.9271
0.8440 0.4895 0.9301
0.9757 0.4925 0.9332
0.0051 0.6067 0.9206
0.1089 0.6091 0.9230
0.2246 0.6118 0.9257
0.3451 0.6145 0.9285
0.4690 0.6174 0.9313
0.5954 0.6203 0.9342
0.7239 0.6233 0.9372
0.8540 0.6263 0.9402
0.9857 0.6293 0.9432
0.0153 0.7451 0.9308
0.1191 0.7475 0.9332
0.2348 0.7502 0.9359
0.3553 0.7530 0.9386
0.4792 0.7558 0.9415
0.6056 0.7588 0.9444
0.7340 0.7617 0.9474
0.8642 0.7647 0.9504
0.9959 0.7678 0.9534
0.0256 0.8850 0.9411
0.1294 0.8874 0.9435
0.2450 0.8900 0.9462
0.3656 0.8928 0.9489
0.4895 0.8957 0.9518
0.6159 0.8986 0.9547
0.7443 0.9016 0.9577
0.8745 0.9046 0.9607
1.0000 0.9076 0.9637
0.0360 1.0000 0.9515
0.1398 1.0000 0.9539
0.2554 1.0000 0.9565
0.3760 1.0000 0.9593
0.4999 1.0000 0.9622
0.6263 1.0000 0.9651
0.7547 1.0000 0.9681
0.8849 1.0000 0.9711
1.0000 1.0000 0.9741
0.0000 0.0000 0.9479
0.0617 0.0000 0.9503
0.1774 0.0000 0.9530
0.2979 0.0000 0.9558
0.4218 0.0000 0.9586
0.5482 0.0000 0.9616
0.6767 0.0000 0.9645
0.8068 0.0000 0.9675
0.9385 0.0000 0.9706
0.0000 0.0759 0.9566
0.0704 0.0783 0.9590
0.1860 0.0809 0.9617
0.3066 0.0837 0.9645
0.4305 0.0866 0.9673
0.5569 0.0895 0.9702
0.6853 0.0924 0.9732
0.8155 0.0954 0.9762
0.9472 0.0985 0.9793
0.0000 0.2038 0.9660
0.0798 0.2062 0.9684
0.1955 0.2089 0.9711
0.3160 0.2116 0.9739
0.4399 0.2145 0.9767
0.5663 0.2174 0.9797
0.6948 0.2204 0.9826
0.8249 0.2234 0.9856
0.9566 0.2264 0.9887
0.0000 0.3358 0.9758
0.0895 0.3382 0.9782
0.2052 0.3409 0.9808
0.3257 0.3436 0.9836
0.4496 0.3465 0.9865
0.5760 0.3494 0.9894
0.7045 0.3524 0.9923
0.8347 0.3554 0.9953
0.9663 0.3584 0.9984
0.0000 0.4705 0.9857
0.0995 0.4729 0.9881
0.2151 0.4756 0.9907
0.3356 0.4784 0.9935
0.4595 0.4812 0.9964
0.5859 0.4841 0.9993
0.7144 0.4871 1.0000
0.8446 0.4901 1.0000
0.9763 0.4931 1.0000
0.0057 0.6073 0.9957
0.1095 0.6097 0.9981
0.2252 0.6124 1.0000
0.3457 0.6151 1.0000
0.4696 0.6180 1.0000
0.5960 0.6209 1.0000
0.7245 0.6239 1.0000
0.8546 0.6269 1.0000
0.9863 0.6299 1.0000
0.0159 0.7457 1.0000
0.1197 0.7481 1.0000
0.2353 0.7508 1.0000
0.3559 0.7536 1.0000
0.4798 0.7564 1.0000
0.6062 0.7594 1.0000
0.7346 0.7623 1.0000
0.8648 0.7653 1.0000
0.9965 0.7684 1.0000
0.0262 0.8856 1.0000
0.1300 0.8880 1.0000
0.2456 0.8906 1.0000
0.3662 0.8934 1.0000
0.4901 0.8963 1.0000
0.6165 0.8992 1.0000
0.7449 0.9022 1.0000
0.8751 0.9052 1.0000
1.0000 0.9082 1.0000
0.0366 1.0000 1.0000
0.1404 1.0000 1.0000
0.2560 1.0000 1.0000
0.3766 1.0000 1.0000
0.5005 1.0000 1.0000
0.6269 1.0000 1.0000
0.7553 1.0000 1.0000
0.8855 1.0000 1.0000
1.0000 1.0000 1.0000
