luts/noir.cube
# edite look: Noir (CC0)
TITLE "Noir"
LUT_3D_SIZE 9
DOMAIN_MIN 0.0 0.0 0.0
DOMAIN_MAX 1.0 1.0 1.0
0.0000 0.0000 0.0000
0.0000 0.0000 0.0000
0.0000 0.0000 0.0000
0.0000 0.0000 0.0051
0.0000 0.0000 0.0364
0.0207 0.0301 0.0677
0.0553 0.0641 0.0991
0.0900 0.0981 0.1306
0.1246 0.1321 0.1623
0.0000 0.0000 0.0165
0.0000 0.0084 0.0478
0.0333 0.0425 0.0791
0.0680 0.0765 0.1106
0.1026 0.1105 0.1421
0.1372 0.1445 0.1738
0.1718 0.1785 0.2055
0.2063 0.2125 0.2373
0.2409 0.2466 0.2693
0.0806 0.0889 0.1221
0.1152 0.1229 0.1537
0.1498 0.1569 0.1853
0.1844 0.1909 0.2171
0.2189 0.2249 0.2490
0.2535 0.2589 0.2809
0.2880 0.2930 0.3130
0.3224 0.3270 0.3451
0.3569 0.3610 0.3773
0.1969 0.2033 0.2287
0.2315 0.2373 0.2606
0.2660 0.2713 0.2926
0.3005 0.3053 0.3246
0.3350 0.3394 0.3568
0.3694 0.3734 0.3891
0.4039 0.4074 0.4214
0.4383 0.4414 0.4539
0.4727 0.4754 0.4864
0.3131 0.3177 0.3363
0.3475 0.3517 0.3686
0.3820 0.3858 0.4009
0.4164 0.4198 0.4332
0.4508 0.4538 0.4657
0.4852 0.4878 0.4983
0.5195 0.5218 0.5310
0.5539 0.5558 0.5637
0.5882 0.5899 0.5966
0.4289 0.4322 0.4451
0.4633 0.4662 0.4776
0.4977 0.5002 0.5102
0.5320 0.5342 0.5429
0.5664 0.5682 0.5757
0.6007 0.6022 0.6086
0.6349 0.6363 0.6415
0.6692 0.6703 0.6746
0.7034 0.7043 0.7078
0.5445 0.5466 0.5548
0.5788 0.5806 0.5876
0.6131 0.6146 0.6206
0.6474 0.6486 0.6536
0.6816 0.6827 0.6867
0.7159 0.7167 0.7199
0.7501 0.7507 0.7532
0.7842 0.7847 0.7866
0.8184 0.8187 0.8200
0.6599 0.6610 0.6656
0.6941 0.6950 0.6988
0.7283 0.7291 0.7320
0.7625 0.7631 0.7653
0.7967 0.7971 0.7987
0.8308 0.8311 0.8322
0.8649 0.8651 0.8658
0.8990 0.8991 0.8995
0.9331 0.9332 0.9333
0.7750 0.7755 0.7775
0.8091 0.8095 0.8109
0.8432 0.8435 0.8445
0.8774 0.8775 0.8781
0.9114 0.9115 0.9118
0.9455 0.9455 0.9457
0.9795 0.9796 0.9796
1.0000 1.0000 1.0000
1.0000 1.0000 1.0000
0.0000 0.0000 0.0000
0.0000 0.0000 0.0000
0.0000 0.0000 0.0000
0.0000 0.0000 0.0157
0.0000 0.0076 0.0470
0.0324 0.0416 0.0784
0.0671 0.0756 0.1098
0.1017 0.1097 0.1414
0.1363 0.1437 0.1730
0.0000 0.0000 0.0271
0.0104 0.0200 0.0584
0.0451 0.0540 0.0898
0.0797 0.0880 0.1213
0.1143 0.1220 0.1529
0.1489 0.1561 0.1846
0.1835 0.1901 0.2163
0.2181 0.2241 0.2482
0.2526 0.2581 0.2801
0.0923 0.1004 0.1328
0.1269 0.1344 0.1644
0.1615 0.1684 0.1961
0.1961 0.2025 0.2279
0.2307 0.2365 0.2598
0.2652 0.2705 0.2918
0.2997 0.3045 0.3239
0.3342 0.3385 0.3560
0.3686 0.3725 0.3883
0.2087 0.2148 0.2395
0.2432 0.2489 0.2714
0.2777 0.2829 0.3035
0.3122 0.3169 0.3356
0.3467 0.3509 0.3678
0.3811 0.3849 0.4001
0.4156 0.4189 0.4324
0.4500 0.4530 0.4649
0.4843 0.4870 0.4975
0.3248 0.3293 0.3473
0.3592 0.3633 0.3795
0.3937 0.3973 0.4118
0.4281 0.4313 0.4443
0.4625 0.4653 0.4768
0.4969 0.4994 0.5094
0.5312 0.5334 0.5421
0.5655 0.5674 0.5749
0.5998 0.6014 0.6078
0.4406 0.4437 0.4561
0.4750 0.4777 0.4886
0.5094 0.5117 0.5213
0.5437 0.5458 0.5540
0.5780 0.5798 0.5868
0.6123 0.6138 0.6198
0.6466 0.6478 0.6528
0.6808 0.6818 0.6859
0.7150 0.7158 0.7191
0.5562 0.5581 0.5660
0.5905 0.5922 0.5988
0.6248 0.6262 0.6318
0.6590 0.6602 0.6648
0.6933 0.6942 0.6979
0.7275 0.7282 0.7312
0.7617 0.7622 0.7645
0.7958 0.7963 0.7979
0.8300 0.8303 0.8314
0.6715 0.6726 0.6769
0.7057 0.7066 0.7100
0.7399 0.7406 0.7433
0.7741 0.7746 0.7767
0.8083 0.8086 0.8101
0.8424 0.8427 0.8436
0.8765 0.8767 0.8773
0.9106 0.9107 0.9110
0.9447 0.9447 0.9448
0.7866 0.7870 0.7888
0.8207 0.8210 0.8223
0.8548 0.8550 0.8559
0.8889 0.8891 0.8895
0.9230 0.9231 0.9233
0.9571 0.9571 0.9572
0.9911 0.9911 0.9911
1.0000 1.0000 1.0000
1.0000 1.0000 1.0000
0.0000 0.0000 0.0000
0.0000 0.0000 0.0000
0.0000 0.0000 0.0000
0.0000 0.0000 0.0263
0.0095 0.0192 0.0576
0.0442 0.0532 0.0890
0.0789 0.0872 0.1205
0.1135 0.1212 0.1521
0.1481 0.1552 0.1838
0.0000 0.0000 0.0377
0.0222 0.0316 0.0691
0.0568 0.0656 0.1005
0.0915 0.0996 0.1320
0.1261 0.1336 0.1636
0.1607 0.1676 0.1953
0.1953 0.2016 0.2271
0.2298 0.2356 0.2590
0.2643 0.2697 0.2910
0.1041 0.1120 0.1435
0.1387 0.1460 0.1752
0.1733 0.1800 0.2069
0.2078 0.2140 0.2387
0.2424 0.2480 0.2707
0.2769 0.2820 0.3027
0.3114 0.3161 0.3348
0.3459 0.3501 0.3670
0.3803 0.3841 0.3993
0.2204 0.2264 0.2503
0.2549 0.2604 0.2823
0.2895 0.2944 0.3143
0.3239 0.3284 0.3465
0.3584 0.3625 0.3787
0.3928 0.3965 0.4110
0.4273 0.4305 0.4435
0.4616 0.4645 0.4760
0.4960 0.4985 0.5086
0.3365 0.3408 0.3582
0.3709 0.3748 0.3905
0.4054 0.4089 0.4228
0.4398 0.4429 0.4553
0.4742 0.4769 0.4878
0.5085 0.5109 0.5205
0.5429 0.5449 0.5532
0.5772 0.5789 0.5860
0.6115 0.6130 0.6190
0.4523 0.4553 0.4671
0.4867 0.4893 0.4997
0.5210 0.5233 0.5324
0.5554 0.5573 0.5652
0.5897 0.5913 0.5980
0.6239 0.6253 0.6310
0.6582 0.6594 0.6640
0.6924 0.6934 0.6971
0.7266 0.7274 0.7304
0.5678 0.5697 0.5771
0.6021 0.6037 0.6100
0.6364 0.6377 0.6430
0.6707 0.6717 0.6761
0.7049 0.7058 0.7092
0.7391 0.7398 0.7425
0.7733 0.7738 0.7758
0.8074 0.8078 0.8093
0.8416 0.8418 0.8428
0.6831 0.6841 0.6881
0.7173 0.7181 0.7213
0.7515 0.7522 0.7546
0.7857 0.7862 0.7880
0.8199 0.8202 0.8215
0.8540 0.8542 0.8551
0.8881 0.8882 0.8887
0.9222 0.9222 0.9225
0.9562 0.9563 0.9563
0.7982 0.7986 0.8002
0.8323 0.8326 0.8337
0.8664 0.8666 0.8673
0.9005 0.9006 0.9010
0.9346 0.9346 0.9348
0.9686 0.9686 0.9687
1.0000 1.0000 1.0000
1.0000 1.0000 1.0000
1.0000 1.0000 1.0000
0.0000 0.0000 0.0000
0.0000 0.0000 0.0000
0.0000 0.0000 0.0057
0.0000 0.0000 0.0370
0.0213 0.0307 0.0683
0.0560 0.0647 0.0997
0.0906 0.0988 0.1312
0.1252 0.1328 0.1629
0.1598 0.1668 0.1946
0.0000 0.0091 0.0484
0.0339 0.0431 0.0797
0.0686 0.0771 0.1112
0.1032 0.1111 0.1427
0.1378 0.1452 0.1744
0.1724 0.1792 0.2061
0.2070 0.2132 0.2379
0.2415 0.2472 0.2699
0.2760 0.2812 0.3019
0.1158 0.1235 0.1542
0.1504 0.1575 0.1859
0.1850 0.1916 0.2177
0.2196 0.2256 0.2496
0.2541 0.2596 0.2815
0.2886 0.2936 0.3136
0.3231 0.3276 0.3457
0.3576 0.3616 0.3779
0.3920 0.3956 0.4103
0.2321 0.2380 0.2612
0.2667 0.2720 0.2932
0.3012 0.3060 0.3253
0.3356 0.3400 0.3574
0.3701 0.3740 0.3897
0.4045 0.4080 0.4220
0.4389 0.4420 0.4545
0.4733 0.4761 0.4870
0.5077 0.5101 0.5197
0.3482 0.3524 0.3692
0.3826 0.3864 0.4015
0.4171 0.4204 0.4339
0.4515 0.4544 0.4663
0.4858 0.4884 0.4989
0.5202 0.5225 0.5316
0.5545 0.5565 0.5643
0.5888 0.5905 0.5972
0.6231 0.6245 0.6302
0.4640 0.4668 0.4782
0.4983 0.5008 0.5108
0.5327 0.5348 0.5435
0.5670 0.5689 0.5763
0.6013 0.6029 0.6092
0.6356 0.6369 0.6422
0.6698 0.6709 0.6752
0.7041 0.7049 0.7084
0.7383 0.7389 0.7417
0.5795 0.5812 0.5883
0.6138 0.6153 0.6212
0.6480 0.6493 0.6542
0.6823 0.6833 0.6873
0.7165 0.7173 0.7205
0.7507 0.7513 0.7538
0.7849 0.7853 0.7872
0.8190 0.8194 0.8207
0.8532 0.8534 0.8542
0.6948 0.6957 0.6994
0.7290 0.7297 0.7326
0.7632 0.7637 0.7659
0.7973 0.7977 0.7994
0.8315 0.8317 0.8329
0.8656 0.8658 0.8665
0.8997 0.8998 0.9002
0.9337 0.9338 0.9340
0.9678 0.9678 0.9678
0.8098 0.8101 0.8116
0.8439 0.8441 0.8451
0.8780 0.8781 0.8787
0.9121 0.9122 0.9125
0.9461 0.9462 0.9463
0.9802 0.9802 0.9802
1.0000 1.0000 1.0000
1.0000 1.0000 1.0000
1.0000 1.0000 1.0000
0.0000 0.0000 0.0000
0.0000 0.0000 0.0000
0.0000 0.0000 0.0163
0.0000 0.0083 0.0476
0.0331 0.0423 0.0790
0.0678 0.0763 0.1104
0.1024 0.1103 0.1420
0.1370 0.1443 0.1736
0.1716 0.1783 0.2053
0.0110 0.0206 0.0590
0.0457 0.0547 0.0904
0.0804 0.0887 0.1219
0.1150 0.1227 0.1535
0.1496 0.1567 0.1851
0.1842 0.1907 0.2169
0.2187 0.2247 0.2488
0.2533 0.2588 0.2807
0.2878 0.2928 0.3128
0.1276 0.1351 0.1650
0.1622 0.1691 0.1967
0.1968 0.2031 0.2285
0.2313 0.2371 0.2604
0.2658 0.2711 0.2924
0.3003 0.3052 0.3245
0.3348 0.3392 0.3566
0.3693 0.3732 0.3889
0.4037 0.4072 0.4213
0.2439 0.2495 0.2720
0.2784 0.2835 0.3041
0.3129 0.3175 0.3362
0.3473 0.3516 0.3684
0.3818 0.3856 0.4007
0.4162 0.4196 0.4331
0.4506 0.4536 0.4655
0.4850 0.4876 0.4981
0.5193 0.5216 0.5308
0.3599 0.3639 0.3801
0.3943 0.3980 0.4125
0.4287 0.4320 0.4449
0.4631 0.4660 0.4774
0.4975 0.5000 0.5100
0.5318 0.5340 0.5427
0.5662 0.5680 0.5755
0.6005 0.6020 0.6084
0.6347 0.6361 0.6414
0.4756 0.4784 0.4893
0.5100 0.5124 0.5219
0.5443 0.5464 0.5546
0.5787 0.5804 0.5875
0.6129 0.6144 0.6204
0.6472 0.6484 0.6534
0.6815 0.6825 0.6865
0.7157 0.7165 0.7197
0.7499 0.7505 0.7530
0.5911 0.5928 0.5994
0.6254 0.6268 0.6324
0.6597 0.6608 0.6654
0.6939 0.6948 0.6986
0.7281 0.7289 0.7318
0.7623 0.7629 0.7651
0.7965 0.7969 0.7985
0.8306 0.8309 0.8321
0.8647 0.8649 0.8657
0.7064 0.7072 0.7107
0.7406 0.7412 0.7439
0.7748 0.7753 0.7773
0.8089 0.8093 0.8107
0.8431 0.8433 0.8443
0.8772 0.8773 0.8779
0.9112 0.9113 0.9116
0.9453 0.9453 0.9455
0.9794 0.9794 0.9794
0.8213 0.8217 0.8229
0.8555 0.8557 0.8565
0.8896 0.8897 0.8902
0.9237 0.9237 0.9239
0.9577 0.9577 0.9578
0.9917 0.9917 0.9917
1.0000 1.0000 1.0000
1.0000 1.0000 1.0000
1.0000 1.0000 1.0000
0.0000 0.0000 0.0000
0.0000 0.0000 0.0000
0.0000 0.0000 0.0269
0.0102 0.0198 0.0582
0.0449 0.0538 0.0896
0.0795 0.0878 0.1211
0.1141 0.1219 0.1527
0.1487 0.1559 0.1844
0.1833 0.1899 0.2161
0.0228 0.0322 0.0697
0.0575 0.0662 0.1011
0.0921 0.1002 0.1326
0.1267 0.1342 0.1642
0.1613 0.1683 0.1959
0.1959 0.2023 0.2277
0.2305 0.2363 0.2596
0.2650 0.2703 0.2916
0.2995 0.3043 0.3237
0.1393 0.1466 0.1758
0.1739 0.1806 0.2075
0.2085 0.2147 0.2393
0.2430 0.2487 0.2713
0.2775 0.2827 0.3033
0.3120 0.3167 0.3354
0.3465 0.3507 0.3676
0.3810 0.3847 0.3999
0.4154 0.4188 0.4323
0.2556 0.2611 0.2829
0.2901 0.2951 0.3149
0.3246 0.3291 0.3471
0.3590 0.3631 0.3793
0.3935 0.3971 0.4117
0.4279 0.4311 0.4441
0.4623 0.4652 0.4766
0.4967 0.4992 0.5092
0.5310 0.5332 0.5419
0.3716 0.3755 0.3911
0.4060 0.4095 0.4235
0.4404 0.4435 0.4559
0.4748 0.4775 0.4885
0.5092 0.5116 0.5211
0.5435 0.5456 0.5538
0.5778 0.5796 0.5867
0.6121 0.6136 0.6196
0.6464 0.6476 0.6526
0.4873 0.4899 0.5003
0.5217 0.5239 0.5330
0.5560 0.5580 0.5658
0.5903 0.5920 0.5986
0.6246 0.6260 0.6316
0.6588 0.6600 0.6646
0.6931 0.6940 0.6978
0.7273 0.7280 0.7310
0.7615 0.7620 0.7643
0.6028 0.6044 0.6106
0.6371 0.6384 0.6436
0.6713 0.6724 0.6767
0.7055 0.7064 0.7098
0.7397 0.7404 0.7431
0.7739 0.7744 0.7765
0.8081 0.8084 0.8099
0.8422 0.8425 0.8435
0.8763 0.8765 0.8771
0.7180 0.7188 0.7219
0.7522 0.7528 0.7552
0.7864 0.7868 0.7886
0.8205 0.8208 0.8221
0.8546 0.8548 0.8557
0.8887 0.8889 0.8894
0.9228 0.9229 0.9231
0.9569 0.9569 0.9570
0.9909 0.9909 0.9909
0.8329 0.8332 0.8343
0.8671 0.8672 0.8679
0.9012 0.9012 0.9016
0.9352 0.9353 0.9354
0.9693 0.9693 0.9693
1.0000 1.0000 1.0000
1.0000 1.0000 1.0000
1.0000 1.0000 1.0000
1.0000 1.0000 1.0000
0.0000 0.0000 0.0000
0.0000 0.0000 0.0063
0.0000 0.0000 0.0376
0.0220 0.0314 0.0689
0.0566 0.0654 0.1003
0.0913 0.0994 0.1318
0.1259 0.1334 0.1634
0.1605 0.1674 0.1952
0.1951 0.2014 0.2269
0.0346 0.0437 0.0803
0.0693 0.0778 0.1118
0.1039 0.1118 0.1433
0.1385 0.1458 0.1750
0.1731 0.1798 0.2067
0.2076 0.2138 0.2385
0.2422 0.2478 0.2705
0.2767 0.2819 0.3025
0.3112 0.3159 0.3346
0.1511 0.1582 0.1865
0.1857 0.1922 0.2183
0.2202 0.2262 0.2502
0.2548 0.2602 0.2821
0.2893 0.2942 0.3142
0.3237 0.3283 0.3463
0.3582 0.3623 0.3785
0.3926 0.3963 0.4109
0.4271 0.4303 0.4433
0.2673 0.2726 0.2938
0.3018 0.3066 0.3259
0.3363 0.3406 0.3580
0.3707 0.3747 0.3903
0.4052 0.4087 0.4227
0.4396 0.4427 0.4551
0.4740 0.4767 0.4877
0.5083 0.5107 0.5203
0.5427 0.5447 0.5530
0.3833 0.3870 0.4021
0.4177 0.4211 0.4345
0.4521 0.4551 0.4669
0.4865 0.4891 0.4995
0.5208 0.5231 0.5322
0.5552 0.5571 0.5650
0.5895 0.5911 0.5978
0.6237 0.6252 0.6308
0.6580 0.6592 0.6638
0.4990 0.5015 0.5114
0.5333 0.5355 0.5441
0.5677 0.5695 0.5769
0.6019 0.6035 0.6098
0.6362 0.6375 0.6428
0.6705 0.6716 0.6759
0.7047 0.7056 0.7090
0.7389 0.7396 0.7423
0.7731 0.7736 0.7757
0.6144 0.6159 0.6218
0.6487 0.6499 0.6548
0.6829 0.6839 0.6879
0.7172 0.7180 0.7211
0.7514 0.7520 0.7544
0.7855 0.7860 0.7878
0.8197 0.8200 0.8213
0.8538 0.8540 0.8549
0.8879 0.8880 0.8885
0.7296 0.7303 0.7332
0.7638 0.7644 0.7666
0.7980 0.7984 0.8000
0.8321 0.8324 0.8335
0.8662 0.8664 0.8671
0.9003 0.9004 0.9008
0.9344 0.9344 0.9346
0.9684 0.9684 0.9685
1.0000 1.0000 1.0000
0.8445 0.8448 0.8457
0.8786 0.8788 0.8794
0.9127 0.9128 0.9131
0.9468 0.9468 0.9469
0.9808 0.9808 0.9808
1.0000 1.0000 1.0000
1.0000 1.0000 1.0000
1.0000 1.0000 1.0000
1.0000 1.0000 1.0000
0.0000 0.0000 0.0000
0.0000 0.0000 0.0169
0.0000 0.0089 0.0482
0.0338 0.0429 0.0796
0.0684 0.0769 0.1110
0.1030 0.1109 0.1426
0.1376 0.1450 0.1742
0.1722 0.1790 0.2059
0.2068 0.2130 0.2378
0.0464 0.0553 0.0910
0.0810 0.0893 0.1225
0.1156 0.1233 0.1541
0.1502 0.1573 0.1857
0.1848 0.1914 0.2175
0.2194 0.2254 0.2494
0.2539 0.2594 0.2813
0.2884 0.2934 0.3134
0.3229 0.3274 0.3455
0.1628 0.1697 0.1973
0.1974 0.2037 0.2291
0.2319 0.2378 0.2610
0.2665 0.2718 0.2930
0.3010 0.3058 0.3251
0.3354 0.3398 0.3572
0.3699 0.3738 0.3895
0.4043 0.4078 0.4219
0.4387 0.4419 0.4543
0.2790 0.2842 0.3047
0.3135 0.3182 0.3368
0.3480 0.3522 0.3690
0.3824 0.3862 0.4013
0.4169 0.4202 0.4337
0.4513 0.4542 0.4662
0.4856 0.4883 0.4987
0.5200 0.5223 0.5314
0.5543 0.5563 0.5642
0.3950 0.3986 0.4131
0.4294 0.4326 0.4455
0.4638 0.4666 0.4780
0.4981 0.5006 0.5106
0.5325 0.5347 0.5433
0.5668 0.5687 0.5761
0.6011 0.6027 0.6090
0.6354 0.6367 0.6420
0.6696 0.6707 0.6751
0.5107 0.5130 0.5225
0.5450 0.5470 0.5552
0.5793 0.5811 0.5881
0.6136 0.6151 0.6210
0.6479 0.6491 0.6540
0.6821 0.6831 0.6871
0.7163 0.7171 0.7203
0.7505 0.7511 0.7536
0.7847 0.7852 0.7870
0.6261 0.6275 0.6330
0.6603 0.6615 0.6661
0.6946 0.6955 0.6992
0.7288 0.7295 0.7324
0.7630 0.7635 0.7658
0.7971 0.7975 0.7992
0.8313 0.8316 0.8327
0.8654 0.8656 0.8663
0.8995 0.8996 0.9000
0.7412 0.7419 0.7446
0.7754 0.7759 0.7779
0.8096 0.8099 0.8114
0.8437 0.8439 0.8449
0.8778 0.8780 0.8785
0.9119 0.9120 0.9123
0.9460 0.9460 0.9461
0.9800 0.9800 0.9800
1.0000 1.0000 1.0000
0.8561 0.8563 0.8571
0.8902 0.8903 0.8908
0.9243 0.9244 0.9246
0.9584 0.9584 0.9584
0.9924 0.9924 0.9924
1.0000 1.0000 1.0000
1.0000 1.0000 1.0000
1.0000 1.0000 1.0000
1.0000 1.0000 1.0000
0.0000 0.0000 0.0000
0.0000 0.0000 0.0275
0.0109 0.0204 0.0588
0.0455 0.0545 0.0902
0.0802 0.0885 0.1217
0.1148 0.1225 0.1533
0.1494 0.1565 0.1850
0.1840 0.1905 0.2167
0.2185 0.2245 0.2486
0.0581 0.0668 0.1017
0.0928 0.1009 0.1332
0.1274 0.1349 0.1648
0.1620 0.1689 0.1965
0.1966 0.2029 0.2283
0.2311 0.2369 0.2602
0.2656 0.2709 0.2922
0.3001 0.3050 0.3243
0.3346 0.3390 0.3565
0.1746 0.1813 0.2081
0.2091 0.2153 0.2399
0.2437 0.2493 0.2719
0.2782 0.2833 0.3039
0.3127 0.3173 0.3360
0.3472 0.3514 0.3682
0.3816 0.3854 0.4005
0.4160 0.4194 0.4329
0.4504 0.4534 0.4654
0.2908 0.2957 0.3156
0.3252 0.3297 0.3477
0.3597 0.3637 0.3799
0.3941 0.3978 0.4123
0.4285 0.4318 0.4447
0.4629 0.4658 0.4772
0.4973 0.4998 0.5098
0.5317 0.5338 0.5425
0.5660 0.5678 0.5753
0.4067 0.4101 0.4241
0.4411 0.4442 0.4565
0.4755 0.4782 0.4891
0.5098 0.5122 0.5217
0.5441 0.5462 0.5544
0.5785 0.5802 0.5873
0.6128 0.6142 0.6202
0.6470 0.6483 0.6532
0.6813 0.6823 0.6863
0.5223 0.5246 0.5336
0.5566 0.5586 0.5664
0.5909 0.5926 0.5992
0.6252 0.6266 0.6322
0.6595 0.6606 0.6652
0.6937 0.6947 0.6984
0.7279 0.7287 0.7316
0.7621 0.7627 0.7649
0.7963 0.7967 0.7984
0.6377 0.6390 0.6442
0.6720 0.6730 0.6773
0.7062 0.7070 0.7105
0.7404 0.7411 0.7437
0.7746 0.7751 0.7771
0.8087 0.8091 0.8105
0.8429 0.8431 0.8441
0.8770 0.8771 0.8777
0.9111 0.9111 0.9115
0.7528 0.7534 0.7559
0.7870 0.7875 0.7893
0.8212 0.8215 0.8227
0.8553 0.8555 0.8563
0.8894 0.8895 0.8900
0.9235 0.9235 0.9238
0.9575 0.9575 0.9576
0.9916 0.9916 0.9916
1.0000 1.0000 1.0000
0.8677 0.8679 0.8686
0.9018 0.9019 0.9023
0.9359 0.9359 0.9361
0.9699 0.9699 0.9700
1.0000 1.0000 1.0000
1.0000 1.0000 1.0000
1.0000 1.0000 1.0000
1.0000 1.0000 1.0000
1.0000 1.0000 1.0000
