luts/noir.cube
# edite look: Noir (CC0)
TITLE "Noir"
LUT_3D_SIZE 5
DOMAIN_MIN 0.0 0.0 0.0
DOMAIN_MAX 1.0 1.0 1.0
0.0000 0.0000 0.0000
0.0000 0.0000 0.0000
0.0000 0.0000 0.0364
0.0553 0.0641 0.0991
0.1246 0.1321 0.1623
0.0806 0.0889 0.1221
0.1498 0.1569 0.1853
0.2189 0.2249 0.2490
0.2880 0.2930 0.3130
0.3569 0.3610 0.3773
0.3131 0.3177 0.3363
0.3820 0.3858 0.4009
0.4508 0.4538 0.4657
0.5195 0.5218 0.5310
0.5882 0.5899 0.5966
0.5445 0.5466 0.5548
0.6131 0.6146 0.6206
0.6816 0.6827 0.6867
0.7501 0.7507 0.7532
0.8184 0.8187 0.8200
0.7750 0.7755 0.7775
0.8432 0.8435 0.8445
0.9114 0.9115 0.9118
0.9795 0.9796 0.9796
1.0000 1.0000 1.0000
0.0000 0.0000 0.0000
0.0000 0.0000 0.0000
0.0095 0.0192 0.0576
0.0789 0.0872 0.1205
0.1481 0.1552 0.1838
0.1041 0.1120 0.1435
0.1733 0.1800 0.2069
0.2424 0.2480 0.2707
0.3114 0.3161 0.3348
0.3803 0.3841 0.3993
0.3365 0.3408 0.3582
0.4054 0.4089 0.4228
0.4742 0.4769 0.4878
0.5429 0.5449 0.5532
0.6115 0.6130 0.6190
0.5678 0.5697 0.5771
0.6364 0.6377 0.6430
0.7049 0.7058 0.7092
0.7733 0.7738 0.7758
0.8416 0.8418 0.8428
0.7982 0.7986 0.8002
0.8664 0.8666 0.8673
0.9346 0.9346 0.9348
1.0000 1.0000 1.0000
1.0000 1.0000 1.0000
0.0000 0.0000 0.0000
0.0000 0.0000 0.0163
0.0331 0.0423 0.0790
0.1024 0.1103 0.1420
0.1716 0.1783 0.2053
0.1276 0.1351 0.1650
0.1968 0.2031 0.2285
0.2658 0.2711 0.2924
0.3348 0.3392 0.3566
0.4037 0.4072 0.4213
0.3599 0.3639 0.3801
0.4287 0.4320 0.4449
0.4975 0.5000 0.5100
0.5662 0.5680 0.5755
0.6347 0.6361 0.6414
0.5911 0.5928 0.5994
0.6597 0.6608 0.6654
0.7281 0.7289 0.7318
0.7965 0.7969 0.7985
0.8647 0.8649 0.8657
0.8213 0.8217 0.8229
0.8896 0.8897 0.8902
0.9577 0.9577 0.9578
1.0000 1.0000 1.0000
1.0000 1.0000 1.0000
0.0000 0.0000 0.0000
0.0000 0.0000 0.0376
0.0566 0.0654 0.1003
0.1259 0.1334 0.1634
0.1951 0.2014 0.2269
0.1511 0.1582 0.1865
0.2202 0.2262 0.2502
0.2893 0.2942 0.3142
0.3582 0.3623 0.3785
0.4271 0.4303 0.4433
0.3833 0.3870 0.4021
0.4521 0.4551 0.4669
0.5208 0.5231 0.5322
0.5895 0.5911 0.5978
0.6580 0.6592 0.6638
0.6144 0.6159 0.6218
0.6829 0.6839 0.6879
0.7514 0.7520 0.7544
0.8197 0.8200 0.8213
0.8879 0.8880 0.8885
0.8445 0.8448 0.8457
0.9127 0.9128 0.9131
0.9808 0.9808 0.9808
1.0000 1.0000 1.0000
1.0000 1.0000 1.0000
0.0000 0.0000 0.0000
0.0109 0.0204 0.0588
0.0802 0.0885 0.1217
0.1494 0.1565 0.1850
0.2185 0.2245 0.2486
0.1746 0.1813 0.2081
0.2437 0.2493 0.2719
0.3127 0.3173 0.3360
0.3816 0.3854 0.4005
0.4504 0.4534 0.4654
0.4067 0.4101 0.4241
0.4755 0.4782 0.4891
0.5441 0.5462 0.5544
0.6128 0.6142 0.6202
0.6813 0.6823 0.6863
0.6377 0.6390 0.6442
0.7062 0.7070 0.7105
0.7746 0.7751 0.7771
0.8429 0.8431 0.8441
0.9111 0.9111 0.9115
0.8677 0.8679 0.8686
0.9359 0.9359 0.9361
1.0000 1.0000 1.0000
1.0000 1.0000 1.0000
1.0000 1.0000 1.0000
