luts/noir.cube
# edite look: Noir (CC0)
TITLE "Noir"
LUT_3D_SIZE 17
DOMAIN_MIN 0.0 0.0 0.0
DOMAIN_MAX 1.0 1.0 1.0
0.0000 0.0000 0.0000
0.0000 0.0000 0.0000
0.0000 0.0000 0.0000
0.0000 0.0000 0.0000
0.0000 0.0000 0.0000
0.0000 0.0000 0.0000
0.0000 0.0000 0.0051
0.0000 0.0000 0.0207
0.0000 0.0000 0.0364
0.0033 0.0131 0.0520
0.0207 0.0301 0.0677
0.0380 0.0471 0.0834
0.0553 0.0641 0.0991
0.0727 0.0811 0.1149
0.0900 0.0981 0.1306
0.1073 0.1151 0.1464
0.1246 0.1321 0.1623
0.0000 0.0000 0.0000
0.0000 0.0000 0.0000
0.0000 0.0000 0.0000
0.0000 0.0000 0.0108
0.0000 0.0000 0.0264
0.0000 0.0023 0.0421
0.0096 0.0193 0.0577
0.0270 0.0363 0.0734
0.0443 0.0533 0.0891
0.0616 0.0703 0.1049
0.0790 0.0873 0.1206
0.0963 0.1043 0.1364
0.1136 0.1213 0.1522
0.1309 0.1383 0.1680
0.1482 0.1553 0.1839
0.1655 0.1723 0.1997
0.1828 0.1893 0.2156
0.0000 0.0000 0.0165
0.0000 0.0000 0.0321
0.0000 0.0084 0.0478
0.0160 0.0255 0.0634
0.0333 0.0425 0.0791
0.0506 0.0595 0.0949
0.0680 0.0765 0.1106
0.0853 0.0935 0.1264
0.1026 0.1105 0.1421
0.1199 0.1275 0.1580
0.1372 0.1445 0.1738
0.1545 0.1615 0.1896
0.1718 0.1785 0.2055
0.1891 0.1955 0.2214
0.2063 0.2125 0.2373
0.2236 0.2296 0.2533
0.2409 0.2466 0.2693
0.0223 0.0316 0.0692
0.0396 0.0487 0.0849
0.0569 0.0657 0.1006
0.0743 0.0827 0.1163
0.0916 0.0997 0.1321
0.1089 0.1167 0.1479
0.1262 0.1337 0.1637
0.1435 0.1507 0.1796
0.1608 0.1677 0.1954
0.1781 0.1847 0.2113
0.1954 0.2017 0.2272
0.2126 0.2187 0.2432
0.2299 0.2357 0.2591
0.2472 0.2528 0.2751
0.2644 0.2698 0.2911
0.2817 0.2868 0.3071
0.2989 0.3038 0.3232
0.0806 0.0889 0.1221
0.0979 0.1059 0.1379
0.1152 0.1229 0.1537
0.1325 0.1399 0.1695
0.1498 0.1569 0.1853
0.1671 0.1739 0.2012
0.1844 0.1909 0.2171
0.2016 0.2079 0.2330
0.2189 0.2249 0.2490
0.2362 0.2419 0.2649
0.2535 0.2589 0.2809
0.2707 0.2760 0.2969
0.2880 0.2930 0.3130
0.3052 0.3100 0.3290
0.3224 0.3270 0.3451
0.3397 0.3440 0.3612
0.3569 0.3610 0.3773
0.1388 0.1461 0.1752
0.1561 0.1631 0.1911
0.1734 0.1801 0.2070
0.1907 0.1971 0.2229
0.2079 0.2141 0.2388
0.2252 0.2311 0.2548
0.2425 0.2481 0.2707
0.2597 0.2651 0.2867
0.2770 0.2821 0.3028
0.2942 0.2992 0.3188
0.3115 0.3162 0.3349
0.3287 0.3332 0.3510
0.3460 0.3502 0.3671
0.3632 0.3672 0.3832
0.3804 0.3842 0.3994
0.3976 0.4012 0.4155
0.4148 0.4182 0.4317
0.1969 0.2033 0.2287
0.2142 0.2203 0.2446
0.2315 0.2373 0.2606
0.2488 0.2543 0.2766
0.2660 0.2713 0.2926
0.2833 0.2883 0.3086
0.3005 0.3053 0.3246
0.3178 0.3224 0.3407
0.3350 0.3394 0.3568
0.3522 0.3564 0.3729
0.3694 0.3734 0.3891
0.3867 0.3904 0.4052
0.4039 0.4074 0.4214
0.4211 0.4244 0.4377
0.4383 0.4414 0.4539
0.4555 0.4584 0.4701
0.4727 0.4754 0.4864
0.2550 0.2605 0.2824
0.2723 0.2775 0.2984
0.2896 0.2945 0.3144
0.3068 0.3115 0.3305
0.3240 0.3285 0.3466
0.3413 0.3456 0.3627
0.3585 0.3626 0.3788
0.3757 0.3796 0.3950
0.3929 0.3966 0.4111
0.4101 0.4136 0.4273
0.4273 0.4306 0.4436
0.4445 0.4476 0.4598
0.4617 0.4646 0.4761
0.4789 0.4816 0.4924
0.4961 0.4986 0.5087
0.5133 0.5156 0.5250
0.5305 0.5326 0.5414
0.3131 0.3177 0.3363
0.3303 0.3347 0.3524
0.3475 0.3517 0.3686
0.3648 0.3688 0.3847
0.3820 0.3858 0.4009
0.3992 0.4028 0.4170
0.4164 0.4198 0.4332
0.4336 0.4368 0.4495
0.4508 0.4538 0.4657
0.4680 0.4708 0.4820
0.4852 0.4878 0.4983
0.5024 0.5048 0.5146
0.5195 0.5218 0.5310
0.5367 0.5388 0.5473
0.5539 0.5558 0.5637
0.5710 0.5728 0.5801
0.5882 0.5899 0.5966
0.3710 0.3749 0.3906
0.3883 0.3920 0.4067
0.4055 0.4090 0.4229
0.4227 0.4260 0.4391
0.4399 0.4430 0.4554
0.4571 0.4600 0.4716
0.4743 0.4770 0.4879
0.4914 0.4940 0.5042
0.5086 0.5110 0.5206
0.5258 0.5280 0.5369
0.5430 0.5450 0.5533
0.5601 0.5620 0.5697
0.5773 0.5790 0.5861
0.5944 0.5960 0.6026
0.6116 0.6131 0.6190
0.6287 0.6301 0.6355
0.6458 0.6471 0.6521
0.4289 0.4322 0.4451
0.4461 0.4492 0.4613
0.4633 0.4662 0.4776
0.4805 0.4832 0.4939
0.4977 0.5002 0.5102
0.5149 0.5172 0.5265
0.5320 0.5342 0.5429
0.5492 0.5512 0.5593
0.5664 0.5682 0.5757
0.5835 0.5852 0.5921
0.6007 0.6022 0.6086
0.6178 0.6192 0.6250
0.6349 0.6363 0.6415
0.6521 0.6533 0.6581
0.6692 0.6703 0.6746
0.6863 0.6873 0.6912
0.7034 0.7043 0.7078
0.4868 0.4894 0.4998
0.5039 0.5064 0.5161
0.5211 0.5234 0.5325
0.5383 0.5404 0.5488
0.5554 0.5574 0.5652
0.5726 0.5744 0.5817
0.5898 0.5914 0.5981
0.6069 0.6084 0.6146
0.6240 0.6254 0.6311
0.6412 0.6424 0.6476
0.6583 0.6595 0.6641
0.6754 0.6765 0.6807
0.6925 0.6935 0.6972
0.7096 0.7105 0.7138
0.7267 0.7275 0.7305
0.7438 0.7445 0.7471
0.7609 0.7615 0.7638
0.5445 0.5466 0.5548
0.5617 0.5636 0.5712
0.5788 0.5806 0.5876
0.5960 0.5976 0.6041
0.6131 0.6146 0.6206
0.6303 0.6316 0.6371
0.6474 0.6486 0.6536
0.6645 0.6656 0.6701
0.6816 0.6827 0.6867
0.6988 0.6997 0.7033
0.7159 0.7167 0.7199
0.7330 0.7337 0.7365
0.7501 0.7507 0.7532
0.7672 0.7677 0.7699
0.7842 0.7847 0.7866
0.8013 0.8017 0.8033
0.8184 0.8187 0.8200
0.6022 0.6038 0.6101
0.6194 0.6208 0.6266
0.6365 0.6378 0.6431
0.6536 0.6548 0.6596
0.6708 0.6718 0.6761
0.6879 0.6888 0.6927
0.7050 0.7059 0.7093
0.7221 0.7229 0.7259
0.7392 0.7399 0.7426
0.7563 0.7569 0.7592
0.7734 0.7739 0.7759
0.7905 0.7909 0.7926
0.8075 0.8079 0.8094
0.8246 0.8249 0.8261
0.8417 0.8419 0.8429
0.8587 0.8589 0.8597
0.8758 0.8759 0.8766
0.6599 0.6610 0.6656
0.6770 0.6780 0.6822
0.6941 0.6950 0.6988
0.7112 0.7120 0.7154
0.7283 0.7291 0.7320
0.7454 0.7461 0.7486
0.7625 0.7631 0.7653
0.7796 0.7801 0.7820
0.7967 0.7971 0.7987
0.8138 0.8141 0.8155
0.8308 0.8311 0.8322
0.8479 0.8481 0.8490
0.8649 0.8651 0.8658
0.8820 0.8821 0.8827
0.8990 0.8991 0.8995
0.9161 0.9161 0.9164
0.9331 0.9332 0.9333
0.7174 0.7182 0.7214
0.7345 0.7352 0.7381
0.7516 0.7523 0.7547
0.7687 0.7693 0.7714
0.7858 0.7863 0.7881
0.8029 0.8033 0.8048
0.8200 0.8203 0.8216
0.8370 0.8373 0.8384
0.8541 0.8543 0.8552
0.8711 0.8713 0.8720
0.8882 0.8883 0.8888
0.9052 0.9053 0.9057
0.9223 0.9223 0.9226
0.9393 0.9393 0.9395
0.9563 0.9564 0.9564
0.9734 0.9734 0.9734
0.9904 0.9904 0.9904
0.7750 0.7755 0.7775
0.7920 0.7925 0.7942
0.8091 0.8095 0.8109
0.8262 0.8265 0.8277
0.8432 0.8435 0.8445
0.8603 0.8605 0.8613
0.8774 0.8775 0.8781
0.8944 0.8945 0.8950
0.9114 0.9115 0.9118
0.9285 0.9285 0.9287
0.9455 0.9455 0.9457
0.9625 0.9625 0.9626
0.9795 0.9796 0.9796
0.9966 0.9966 0.9966
1.0000 1.0000 1.0000
1.0000 1.0000 1.0000
1.0000 1.0000 1.0000
0.0000 0.0000 0.0000
0.0000 0.0000 0.0000
0.0000 0.0000 0.0000
0.0000 0.0000 0.0000
0.0000 0.0000 0.0000
0.0000 0.0000 0.0000
0.0000 0.0000 0.0104
0.0000 0.0000 0.0261
0.0000 0.0018 0.0417
0.0092 0.0188 0.0574
0.0266 0.0359 0.0730
0.0439 0.0529 0.0887
0.0612 0.0699 0.1045
0.0785 0.0869 0.1202
0.0959 0.1039 0.1360
0.1132 0.1209 0.1518
0.1305 0.1379 0.1676
0.0000 0.0000 0.0000
0.0000 0.0000 0.0000
0.0000 0.0000 0.0005
0.0000 0.0000 0.0161
0.0000 0.0000 0.0317
0.0000 0.0080 0.0474
0.0155 0.0250 0.0631
0.0329 0.0420 0.0788
0.0502 0.0591 0.0945
0.0675 0.0761 0.1102
0.0848 0.0931 0.1260
0.1022 0.1101 0.1418
0.1195 0.1271 0.1576
0.1368 0.1441 0.1734
0.1541 0.1611 0.1893
0.1714 0.1781 0.2051
0.1886 0.1951 0.2210
0.0000 0.0000 0.0218
0.0000 0.0000 0.0374
0.0045 0.0142 0.0531
0.0218 0.0312 0.0688
0.0392 0.0482 0.0845
0.0565 0.0652 0.1002
0.0738 0.0823 0.1159
0.0912 0.0993 0.1317
0.1085 0.1163 0.1475
0.1258 0.1333 0.1633
0.1431 0.1503 0.1792
0.1604 0.1673 0.1950
0.1777 0.1843 0.2109
0.1949 0.2013 0.2268
0.2122 0.2183 0.2428
0.2295 0.2353 0.2587
0.2467 0.2523 0.2747
0.0282 0.0374 0.0745
0.0455 0.0544 0.0902
0.0628 0.0714 0.1059
0.0801 0.0884 0.1217
0.0975 0.1055 0.1375
0.1148 0.1225 0.1533
0.1321 0.1395 0.1691
0.1494 0.1565 0.1849
0.1667 0.1735 0.2008
0.1839 0.1905 0.2167
0.2012 0.2075 0.2326
0.2185 0.2245 0.2486
0.2358 0.2415 0.2645
0.2530 0.2585 0.2805
0.2703 0.2755 0.2965
0.2875 0.2925 0.3126
0.3048 0.3096 0.3286
0.0864 0.0946 0.1274
0.1038 0.1116 0.1432
0.1211 0.1287 0.1590
0.1384 0.1457 0.1749
0.1557 0.1627 0.1907
0.1730 0.1797 0.2066
0.1902 0.1967 0.2225
0.2075 0.2137 0.2384
0.2248 0.2307 0.2544
0.2421 0.2477 0.2703
0.2593 0.2647 0.2863
0.2766 0.2817 0.3024
0.2938 0.2987 0.3184
0.3111 0.3157 0.3345
0.3283 0.3328 0.3506
0.3455 0.3498 0.3667
0.3628 0.3668 0.3828
0.1447 0.1519 0.1806
0.1620 0.1689 0.1965
0.1792 0.1859 0.2124
0.1965 0.2029 0.2283
0.2138 0.2199 0.2442
0.2311 0.2369 0.2602
0.2483 0.2539 0.2762
0.2656 0.2709 0.2922
0.2828 0.2879 0.3082
0.3001 0.3049 0.3243
0.3173 0.3219 0.3403
0.3346 0.3389 0.3564
0.3518 0.3560 0.3725
0.3690 0.3730 0.3887
0.3862 0.3900 0.4049
0.4035 0.4070 0.4210
0.4207 0.4240 0.4373
0.2028 0.2091 0.2341
0.2201 0.2261 0.2500
0.2374 0.2431 0.2660
0.2546 0.2601 0.2820
0.2719 0.2771 0.2980
0.2891 0.2941 0.3140
0.3064 0.3111 0.3301
0.3236 0.3281 0.3462
0.3408 0.3451 0.3623
0.3581 0.3621 0.3784
0.3753 0.3792 0.3946
0.3925 0.3962 0.4107
0.4097 0.4132 0.4269
0.4269 0.4302 0.4432
0.4441 0.4472 0.4594
0.4613 0.4642 0.4757
0.4785 0.4812 0.4920
0.2609 0.2663 0.2878
0.2782 0.2833 0.3038
0.2954 0.3003 0.3199
0.3127 0.3173 0.3360
0.3299 0.3343 0.3520
0.3471 0.3513 0.3682
0.3643 0.3683 0.3843
0.3816 0.3853 0.4005
0.3988 0.4024 0.4166
0.4160 0.4194 0.4328
0.4332 0.4364 0.4491
0.4504 0.4534 0.4653
0.4676 0.4704 0.4816
0.4848 0.4874 0.4979
0.5019 0.5044 0.5142
0.5191 0.5214 0.5306
0.5363 0.5384 0.5469
0.3189 0.3235 0.3418
0.3362 0.3405 0.3579
0.3534 0.3575 0.3740
0.3706 0.3745 0.3902
0.3878 0.3915 0.4063
0.4050 0.4085 0.4225
0.4223 0.4256 0.4388
0.4395 0.4426 0.4550
0.4566 0.4596 0.4713
0.4738 0.4766 0.4875
0.4910 0.4936 0.5038
0.5082 0.5106 0.5202
0.5254 0.5276 0.5365
0.5425 0.5446 0.5529
0.5597 0.5616 0.5693
0.5768 0.5786 0.5857
0.5940 0.5956 0.6022
0.3769 0.3807 0.3961
0.3941 0.3977 0.4122
0.4113 0.4147 0.4284
0.4285 0.4317 0.4447
0.4457 0.4488 0.4609
0.4629 0.4658 0.4772
0.4801 0.4828 0.4935
0.4973 0.4998 0.5098
0.5144 0.5168 0.5261
0.5316 0.5338 0.5425
0.5488 0.5508 0.5589
0.5659 0.5678 0.5753
0.5831 0.5848 0.5917
0.6002 0.6018 0.6082
0.6174 0.6188 0.6246
0.6345 0.6358 0.6411
0.6516 0.6528 0.6577
0.4348 0.4379 0.4506
0.4520 0.4549 0.4668
0.4692 0.4720 0.4831
0.4863 0.4890 0.4994
0.5035 0.5060 0.5157
0.5207 0.5230 0.5321
0.5379 0.5400 0.5484
0.5550 0.5570 0.5648
0.5722 0.5740 0.5813
0.5893 0.5910 0.5977
0.6065 0.6080 0.6142
0.6236 0.6250 0.6306
0.6408 0.6420 0.6472
0.6579 0.6590 0.6637
0.6750 0.6760 0.6802
0.6921 0.6931 0.6968
0.7092 0.7101 0.7134
0.4926 0.4952 0.5053
0.5098 0.5122 0.5217
0.5270 0.5292 0.5380
0.5441 0.5462 0.5544
0.5613 0.5632 0.5708
0.5784 0.5802 0.5872
0.5956 0.5972 0.6037
0.6127 0.6142 0.6202
0.6299 0.6312 0.6367
0.6470 0.6482 0.6532
0.6641 0.6652 0.6697
0.6812 0.6822 0.6863
0.6983 0.6992 0.7029
0.7155 0.7163 0.7195
0.7326 0.7333 0.7361
0.7496 0.7503 0.7528
0.7667 0.7673 0.7694
0.5504 0.5524 0.5604
0.5675 0.5694 0.5768
0.5847 0.5864 0.5932
0.6018 0.6034 0.6097
0.6190 0.6204 0.6262
0.6361 0.6374 0.6427
0.6532 0.6544 0.6592
0.6703 0.6714 0.6757
0.6875 0.6884 0.6923
0.7046 0.7054 0.7089
0.7217 0.7224 0.7255
0.7388 0.7395 0.7422
0.7559 0.7565 0.7588
0.7730 0.7735 0.7755
0.7900 0.7905 0.7922
0.8071 0.8075 0.8090
0.8242 0.8245 0.8257
0.6081 0.6096 0.6157
0.6252 0.6266 0.6322
0.6423 0.6436 0.6487
0.6595 0.6606 0.6652
0.6766 0.6776 0.6818
0.6937 0.6946 0.6984
0.7108 0.7116 0.7150
0.7279 0.7286 0.7316
0.7450 0.7456 0.7482
0.7621 0.7627 0.7649
0.7792 0.7797 0.7816
0.7963 0.7967 0.7983
0.8133 0.8137 0.8151
0.8304 0.8307 0.8318
0.8475 0.8477 0.8486
0.8645 0.8647 0.8654
0.8816 0.8817 0.8823
0.6657 0.6668 0.6712
0.6828 0.6838 0.6878
0.6999 0.7008 0.7044
0.7170 0.7178 0.7210
0.7341 0.7348 0.7376
0.7512 0.7518 0.7543
0.7683 0.7688 0.7710
0.7854 0.7859 0.7877
0.8025 0.8029 0.8044
0.8195 0.8199 0.8212
0.8366 0.8369 0.8379
0.8537 0.8539 0.8547
0.8707 0.8709 0.8716
0.8878 0.8879 0.8884
0.9048 0.9049 0.9053
0.9219 0.9219 0.9222
0.9389 0.9389 0.9391
0.7233 0.7240 0.7271
0.7404 0.7410 0.7437
0.7574 0.7580 0.7604
0.7745 0.7750 0.7771
0.7916 0.7920 0.7938
0.8087 0.8091 0.8105
0.8258 0.8261 0.8273
0.8428 0.8431 0.8441
0.8599 0.8601 0.8609
0.8769 0.8771 0.8777
0.8940 0.8941 0.8945
0.9110 0.9111 0.9114
0.9281 0.9281 0.9283
0.9451 0.9451 0.9452
0.9621 0.9621 0.9622
0.9791 0.9791 0.9792
0.9961 0.9961 0.9961
0.7808 0.7812 0.7831
0.7978 0.7982 0.7999
0.8149 0.8152 0.8166
0.8320 0.8323 0.8334
0.8490 0.8493 0.8502
0.8661 0.8663 0.8670
0.8831 0.8833 0.8838
0.9002 0.9003 0.9007
0.9172 0.9173 0.9176
0.9343 0.9343 0.9345
0.9513 0.9513 0.9514
0.9683 0.9683 0.9684
0.9853 0.9853 0.9853
1.0000 1.0000 1.0000
1.0000 1.0000 1.0000
1.0000 1.0000 1.0000
1.0000 1.0000 1.0000
0.0000 0.0000 0.0000
0.0000 0.0000 0.0000
0.0000 0.0000 0.0000
0.0000 0.0000 0.0000
0.0000 0.0000 0.0000
0.0000 0.0000 0.0001
0.0000 0.0000 0.0157
0.0000 0.0000 0.0314
0.0000 0.0076 0.0470
0.0151 0.0246 0.0627
0.0324 0.0416 0.0784
0.0498 0.0586 0.0941
0.0671 0.0756 0.1098
0.0844 0.0927 0.1256
0.1017 0.1097 0.1414
0.1190 0.1267 0.1572
0.1363 0.1437 0.1730
0.0000 0.0000 0.0000
0.0000 0.0000 0.0000
0.0000 0.0000 0.0058
0.0000 0.0000 0.0214
0.0000 0.0000 0.0371
0.0041 0.0138 0.0527
0.0214 0.0308 0.0684
0.0388 0.0478 0.0841
0.0561 0.0648 0.0998
0.0734 0.0818 0.1156
0.0907 0.0988 0.1313
0.1080 0.1159 0.1471
0.1253 0.1329 0.1629
0.1426 0.1499 0.1788
0.1599 0.1669 0.1946
0.1772 0.1839 0.2105
0.1945 0.2009 0.2264
0.0000 0.0000 0.0271
0.0000 0.0030 0.0428
0.0104 0.0200 0.0584
0.0277 0.0370 0.0741
0.0451 0.0540 0.0898
0.0624 0.0710 0.1055
0.0797 0.0880 0.1213
0.0970 0.1050 0.1371
0.1143 0.1220 0.1529
0.1316 0.1391 0.1687
0.1489 0.1561 0.1846
0.1662 0.1731 0.2004
0.1835 0.1901 0.2163
0.2008 0.2071 0.2322
0.2181 0.2241 0.2482
0.2353 0.2411 0.2641
0.2526 0.2581 0.2801
0.0340 0.0432 0.0798
0.0514 0.0602 0.0955
0.0687 0.0772 0.1113
0.0860 0.0942 0.1270
0.1033 0.1112 0.1428
0.1206 0.1282 0.1586
0.1379 0.1452 0.1745
0.1552 0.1623 0.1903
0.1725 0.1793 0.2062
0.1898 0.1963 0.2221
0.2071 0.2133 0.2380
0.2244 0.2303 0.2540
0.2416 0.2473 0.2700
0.2589 0.2643 0.2860
0.2761 0.2813 0.3020
0.2934 0.2983 0.3180
0.3106 0.3153 0.3341
0.0923 0.1004 0.1328
0.1096 0.1174 0.1486
0.1269 0.1344 0.1644
0.1442 0.1514 0.1802
0.1615 0.1684 0.1961
0.1788 0.1855 0.2120
0.1961 0.2025 0.2279
0.2134 0.2195 0.2438
0.2307 0.2365 0.2598
0.2479 0.2535 0.2758
0.2652 0.2705 0.2918
0.2824 0.2875 0.3078
0.2997 0.3045 0.3239
0.3169 0.3215 0.3399
0.3342 0.3385 0.3560
0.3514 0.3555 0.3721
0.3686 0.3725 0.3883
0.1505 0.1576 0.1860
0.1678 0.1746 0.2019
0.1851 0.1916 0.2178
0.2024 0.2087 0.2337
0.2197 0.2257 0.2496
0.2369 0.2427 0.2656
0.2542 0.2597 0.2816
0.2715 0.2767 0.2976
0.2887 0.2937 0.3137
0.3060 0.3107 0.3297
0.3232 0.3277 0.3458
0.3404 0.3447 0.3619
0.3577 0.3617 0.3780
0.3749 0.3787 0.3942
0.3921 0.3957 0.4103
0.4093 0.4128 0.4265
0.4265 0.4298 0.4428
0.2087 0.2148 0.2395
0.2260 0.2319 0.2555
0.2432 0.2489 0.2714
0.2605 0.2659 0.2874
0.2777 0.2829 0.3035
0.2950 0.2999 0.3195
0.3122 0.3169 0.3356
0.3295 0.3339 0.3517
0.3467 0.3509 0.3678
0.3639 0.3679 0.3839
0.3811 0.3849 0.4001
0.3984 0.4019 0.4162
0.4156 0.4189 0.4324
0.4328 0.4360 0.4487
0.4500 0.4530 0.4649
0.4672 0.4700 0.4812
0.4843 0.4870 0.4975
0.2668 0.2721 0.2933
0.2840 0.2891 0.3093
0.3013 0.3061 0.3253
0.3185 0.3231 0.3414
0.3357 0.3401 0.3575
0.3530 0.3571 0.3736
0.3702 0.3741 0.3898
0.3874 0.3911 0.4059
0.4046 0.4081 0.4221
0.4218 0.4251 0.4384
0.4390 0.4421 0.4546
0.4562 0.4592 0.4709
0.4734 0.4762 0.4871
0.4906 0.4932 0.5034
0.5078 0.5102 0.5198
0.5249 0.5272 0.5361
0.5421 0.5442 0.5525
0.3248 0.3293 0.3473
0.3420 0.3463 0.3634
0.3592 0.3633 0.3795
0.3765 0.3803 0.3957
0.3937 0.3973 0.4118
0.4109 0.4143 0.4280
0.4281 0.4313 0.4443
0.4453 0.4483 0.4605
0.4625 0.4653 0.4768
0.4797 0.4824 0.4931
0.4969 0.4994 0.5094
0.5140 0.5164 0.5257
0.5312 0.5334 0.5421
0.5484 0.5504 0.5585
0.5655 0.5674 0.5749
0.5827 0.5844 0.5913
0.5998 0.6014 0.6078
0.3827 0.3865 0.4016
0.3999 0.4035 0.4177
0.4172 0.4205 0.4339
0.4344 0.4375 0.4502
0.4516 0.4545 0.4664
0.4687 0.4715 0.4827
0.4859 0.4885 0.4990
0.5031 0.5056 0.5153
0.5203 0.5226 0.5317
0.5374 0.5396 0.5480
0.5546 0.5566 0.5644
0.5718 0.5736 0.5809
0.5889 0.5906 0.5973
0.6061 0.6076 0.6138
0.6232 0.6246 0.6302
0.6403 0.6416 0.6468
0.6575 0.6586 0.6633
0.4406 0.4437 0.4561
0.4578 0.4607 0.4724
0.4750 0.4777 0.4886
0.4922 0.4947 0.5049
0.5094 0.5117 0.5213
0.5265 0.5288 0.5376
0.5437 0.5458 0.5540
0.5609 0.5628 0.5704
0.5780 0.5798 0.5868
0.5952 0.5968 0.6033
0.6123 0.6138 0.6198
0.6294 0.6308 0.6363
0.6466 0.6478 0.6528
0.6637 0.6648 0.6693
0.6808 0.6818 0.6859
0.6979 0.6988 0.7025
0.7150 0.7158 0.7191
0.4984 0.5009 0.5109
0.5156 0.5179 0.5272
0.5328 0.5349 0.5436
0.5499 0.5520 0.5600
0.5671 0.5690 0.5764
0.5843 0.5860 0.5928
0.6014 0.6030 0.6093
0.6185 0.6200 0.6258
0.6357 0.6370 0.6423
0.6528 0.6540 0.6588
0.6699 0.6710 0.6753
0.6870 0.6880 0.6919
0.7042 0.7050 0.7085
0.7213 0.7220 0.7251
0.7384 0.7390 0.7418
0.7555 0.7560 0.7584
0.7725 0.7731 0.7751
0.5562 0.5581 0.5660
0.5733 0.5752 0.5824
0.5905 0.5922 0.5988
0.6076 0.6092 0.6153
0.6248 0.6262 0.6318
0.6419 0.6432 0.6483
0.6590 0.6602 0.6648
0.6762 0.6772 0.6814
0.6933 0.6942 0.6979
0.7104 0.7112 0.7146
0.7275 0.7282 0.7312
0.7446 0.7452 0.7478
0.7617 0.7622 0.7645
0.7788 0.7792 0.7812
0.7958 0.7963 0.7979
0.8129 0.8133 0.8147
0.8300 0.8303 0.8314
0.6139 0.6154 0.6213
0.6310 0.6324 0.6378
0.6481 0.6494 0.6543
0.6653 0.6664 0.6708
0.6824 0.6834 0.6874
0.6995 0.7004 0.7040
0.7166 0.7174 0.7206
0.7337 0.7344 0.7372
0.7508 0.7514 0.7539
0.7679 0.7684 0.7706
0.7850 0.7854 0.7873
0.8021 0.8024 0.8040
0.8191 0.8195 0.8208
0.8362 0.8365 0.8375
0.8533 0.8535 0.8543
0.8703 0.8705 0.8712
0.8874 0.8875 0.8880
0.6715 0.6726 0.6769
0.6886 0.6896 0.6934
0.7057 0.7066 0.7100
0.7228 0.7236 0.7267
0.7399 0.7406 0.7433
0.7570 0.7576 0.7600
0.7741 0.7746 0.7767
0.7912 0.7916 0.7934
0.8083 0.8086 0.8101
0.8253 0.8256 0.8269
0.8424 0.8427 0.8436
0.8595 0.8597 0.8605
0.8765 0.8767 0.8773
0.8936 0.8937 0.8941
0.9106 0.9107 0.9110
0.9276 0.9277 0.9279
0.9447 0.9447 0.9448
0.7291 0.7298 0.7327
0.7462 0.7468 0.7494
0.7633 0.7638 0.7660
0.7803 0.7808 0.7827
0.7974 0.7978 0.7995
0.8145 0.8148 0.8162
0.8316 0.8318 0.8330
0.8486 0.8488 0.8498
0.8657 0.8659 0.8666
0.8827 0.8829 0.8834
0.8998 0.8999 0.9003
0.9168 0.9169 0.9172
0.9338 0.9339 0.9341
0.9509 0.9509 0.9510
0.9679 0.9679 0.9679
0.9849 0.9849 0.9849
1.0000 1.0000 1.0000
0.7866 0.7870 0.7888
0.8036 0.8040 0.8056
0.8207 0.8210 0.8223
0.8378 0.8380 0.8391
0.8548 0.8550 0.8559
0.8719 0.8720 0.8727
0.8889 0.8891 0.8895
0.9060 0.9061 0.9064
0.9230 0.9231 0.9233
0.9400 0.9401 0.9402
0.9571 0.9571 0.9572
0.9741 0.9741 0.9741
0.9911 0.9911 0.9911
1.0000 1.0000 1.0000
1.0000 1.0000 1.0000
1.0000 1.0000 1.0000
1.0000 1.0000 1.0000
0.0000 0.0000 0.0000
0.0000 0.0000 0.0000
0.0000 0.0000 0.0000
0.0000 0.0000 0.0000
0.0000 0.0000 0.0000
0.0000 0.0000 0.0054
0.0000 0.0000 0.0210
0.0000 0.0000 0.0367
0.0037 0.0134 0.0523
0.0210 0.0304 0.0680
0.0383 0.0474 0.0837
0.0557 0.0644 0.0994
0.0730 0.0814 0.1152
0.0903 0.0984 0.1309
0.1076 0.1154 0.1467
0.1249 0.1324 0.1626
0.1422 0.1495 0.1784
0.0000 0.0000 0.0000
0.0000 0.0000 0.0000
0.0000 0.0000 0.0111
0.0000 0.0000 0.0267
0.0000 0.0026 0.0424
0.0100 0.0196 0.0580
0.0273 0.0366 0.0737
0.0446 0.0536 0.0894
0.0620 0.0706 0.1052
0.0793 0.0876 0.1209
0.0966 0.1046 0.1367
0.1139 0.1216 0.1525
0.1312 0.1386 0.1683
0.1485 0.1556 0.1842
0.1658 0.1727 0.2000
0.1831 0.1897 0.2159
