luts/portrait.cube
# edite look: Portrait (CC0)
TITLE "Portrait"
LUT_3D_SIZE 17
DOMAIN_MIN 0.0 0.0 0.0
DOMAIN_MAX 1.0 1.0 1.0
0.0154 0.0154 0.0154
0.0795 0.0159 0.0159
0.1435 0.0163 0.0163
0.2075 0.0167 0.0167
0.2715 0.0171 0.0171
0.3355 0.0175 0.0175
0.3996 0.0180 0.0180
0.4636 0.0184 0.0184
0.5276 0.0188 0.0188
0.5916 0.0192 0.0192
0.6556 0.0196 0.0196
0.7196 0.0200 0.0200
0.7837 0.0205 0.0205
0.8477 0.0209 0.0209
0.9117 0.0213 0.0213
0.9757 0.0217 0.0217
1.0000 0.0221 0.0221
0.0168 0.0774 0.0168
0.0808 0.0778 0.0172
0.1448 0.0782 0.0176
0.2088 0.0786 0.0180
0.2729 0.0790 0.0185
0.3369 0.0795 0.0189
0.4009 0.0799 0.0193
0.4649 0.0803 0.0197
0.5289 0.0807 0.0201
0.5929 0.0811 0.0206
0.6570 0.0815 0.0210
0.7210 0.0820 0.0214
0.7850 0.0824 0.0218
0.8490 0.0828 0.0222
0.9130 0.0832 0.0226
0.9770 0.0836 0.0231
1.0000 0.0841 0.0235
0.0181 0.1393 0.0181
0.0821 0.1397 0.0185
0.1462 0.1401 0.0190
0.2102 0.1405 0.0194
0.2742 0.1409 0.0198
0.3382 0.1414 0.0202
0.4022 0.1418 0.0206
0.4662 0.1422 0.0211
0.5303 0.1426 0.0215
0.5943 0.1430 0.0219
0.6583 0.1435 0.0223
0.7223 0.1439 0.0227
0.7863 0.1443 0.0231
0.8504 0.1447 0.0236
0.9144 0.1451 0.0240
0.9784 0.1455 0.0244
1.0000 0.1460 0.0248
0.0195 0.2012 0.0195
0.0835 0.2016 0.0199
0.1475 0.2020 0.0203
0.2115 0.2024 0.0207
0.2755 0.2029 0.0211
0.3396 0.2033 0.0216
0.4036 0.2037 0.0220
0.4676 0.2041 0.0224
0.5316 0.2045 0.0228
0.5956 0.2049 0.0232
0.6596 0.2054 0.0237
0.7237 0.2058 0.0241
0.7877 0.2062 0.0245
0.8517 0.2066 0.0249
0.9157 0.2070 0.0253
0.9797 0.2075 0.0257
1.0000 0.2079 0.0262
0.0208 0.2631 0.0208
0.0848 0.2635 0.0212
0.1488 0.2639 0.0216
0.2129 0.2643 0.0221
0.2769 0.2648 0.0225
0.3409 0.2652 0.0229
0.4049 0.2656 0.0233
0.4689 0.2660 0.0237
0.5329 0.2664 0.0242
0.5970 0.2669 0.0246
0.6610 0.2673 0.0250
0.7250 0.2677 0.0254
0.7890 0.2681 0.0258
0.8530 0.2685 0.0262
0.9170 0.2689 0.0267
0.9811 0.2694 0.0271
1.0000 0.2698 0.0275
0.0221 0.3250 0.0221
0.0862 0.3254 0.0226
0.1502 0.3258 0.0230
0.2142 0.3263 0.0234
0.2782 0.3267 0.0238
0.3422 0.3271 0.0242
0.4063 0.3275 0.0247
0.4703 0.3279 0.0251
0.5343 0.3283 0.0255
0.5983 0.3288 0.0259
0.6623 0.3292 0.0263
0.7263 0.3296 0.0267
0.7904 0.3300 0.0272
0.8544 0.3304 0.0276
0.9184 0.3309 0.0280
0.9824 0.3313 0.0284
1.0000 0.3317 0.0288
0.0235 0.3869 0.0235
0.0875 0.3873 0.0239
0.1515 0.3877 0.0243
0.2155 0.3882 0.0247
0.2796 0.3886 0.0252
0.3436 0.3890 0.0256
0.4076 0.3894 0.0260
0.4716 0.3898 0.0264
0.5356 0.3903 0.0268
0.5996 0.3907 0.0273
0.6637 0.3911 0.0277
0.7277 0.3915 0.0281
0.7917 0.3919 0.0285
0.8557 0.3923 0.0289
0.9197 0.3928 0.0293
0.9837 0.3932 0.0298
1.0000 0.3936 0.0302
0.0248 0.4488 0.0248
0.0888 0.4492 0.0252
0.1529 0.4497 0.0257
0.2169 0.4501 0.0261
0.2809 0.4505 0.0265
0.3449 0.4509 0.0269
0.4089 0.4513 0.0273
0.4729 0.4517 0.0278
0.5370 0.4522 0.0282
0.6010 0.4526 0.0286
0.6650 0.4530 0.0290
0.7290 0.4534 0.0294
0.7930 0.4538 0.0298
0.8571 0.4543 0.0303
0.9211 0.4547 0.0307
0.9851 0.4551 0.0311
1.0000 0.4555 0.0315
0.0262 0.5107 0.0262
0.0902 0.5112 0.0266
0.1542 0.5116 0.0270
0.2182 0.5120 0.0274
0.2822 0.5124 0.0278
0.3463 0.5128 0.0283
0.4103 0.5132 0.0287
0.4743 0.5137 0.0291
0.5383 0.5141 0.0295
0.6023 0.5145 0.0299
0.6663 0.5149 0.0304
0.7304 0.5153 0.0308
0.7944 0.5157 0.0312
0.8584 0.5162 0.0316
0.9224 0.5166 0.0320
0.9864 0.5170 0.0324
1.0000 0.5174 0.0329
0.0275 0.5726 0.0275
0.0915 0.5731 0.0279
0.1555 0.5735 0.0283
0.2196 0.5739 0.0288
0.2836 0.5743 0.0292
0.3476 0.5747 0.0296
0.4116 0.5752 0.0300
0.4756 0.5756 0.0304
0.5396 0.5760 0.0309
0.6037 0.5764 0.0313
0.6677 0.5768 0.0317
0.7317 0.5772 0.0321
0.7957 0.5777 0.0325
0.8597 0.5781 0.0329
0.9237 0.5785 0.0334
0.9878 0.5789 0.0338
1.0000 0.5793 0.0342
0.0288 0.6346 0.0288
0.0929 0.6350 0.0293
0.1569 0.6354 0.0297
0.2209 0.6358 0.0301
0.2849 0.6362 0.0305
0.3489 0.6366 0.0309
0.4130 0.6371 0.0314
0.4770 0.6375 0.0318
0.5410 0.6379 0.0322
0.6050 0.6383 0.0326
0.6690 0.6387 0.0330
0.7330 0.6392 0.0334
0.7971 0.6396 0.0339
0.8611 0.6400 0.0343
0.9251 0.6404 0.0347
0.9891 0.6408 0.0351
1.0000 0.6412 0.0355
0.0302 0.6965 0.0302
0.0942 0.6969 0.0306
0.1582 0.6973 0.0310
0.2222 0.6977 0.0314
0.2863 0.6981 0.0319
0.3503 0.6986 0.0323
0.4143 0.6990 0.0327
0.4783 0.6994 0.0331
0.5423 0.6998 0.0335
0.6063 0.7002 0.0340
0.6704 0.7006 0.0344
0.7344 0.7011 0.0348
0.7984 0.7015 0.0352
0.8624 0.7019 0.0356
0.9264 0.7023 0.0360
0.9904 0.7027 0.0365
1.0000 0.7032 0.0369
0.0315 0.7584 0.0315
0.0955 0.7588 0.0319
0.1596 0.7592 0.0324
0.2236 0.7596 0.0328
0.2876 0.7600 0.0332
0.3516 0.7605 0.0336
0.4156 0.7609 0.0340
0.4796 0.7613 0.0345
0.5437 0.7617 0.0349
0.6077 0.7621 0.0353
0.6717 0.7626 0.0357
0.7357 0.7630 0.0361
0.7997 0.7634 0.0365
0.8638 0.7638 0.0370
0.9278 0.7642 0.0374
0.9918 0.7646 0.0378
1.0000 0.7651 0.0382
0.0329 0.8203 0.0329
0.0969 0.8207 0.0333
0.1609 0.8211 0.0337
0.2249 0.8215 0.0341
0.2889 0.8220 0.0345
0.3530 0.8224 0.0350
0.4170 0.8228 0.0354
0.4810 0.8232 0.0358
0.5450 0.8236 0.0362
0.6090 0.8240 0.0366
0.6730 0.8245 0.0370
0.7371 0.8249 0.0375
0.8011 0.8253 0.0379
0.8651 0.8257 0.0383
0.9291 0.8261 0.0387
0.9931 0.8266 0.0391
1.0000 0.8270 0.0396
0.0342 0.8822 0.0342
0.0982 0.8826 0.0346
0.1622 0.8830 0.0350
0.2263 0.8834 0.0355
0.2903 0.8839 0.0359
0.3543 0.8843 0.0363
0.4183 0.8847 0.0367
0.4823 0.8851 0.0371
0.5463 0.8855 0.0376
0.6104 0.8860 0.0380
0.6744 0.8864 0.0384
0.7384 0.8868 0.0388
0.8024 0.8872 0.0392
0.8664 0.8876 0.0396
0.9304 0.8880 0.0401
0.9945 0.8885 0.0405
1.0000 0.8889 0.0409
0.0355 0.9441 0.0355
0.0996 0.9445 0.0360
0.1636 0.9449 0.0364
0.2276 0.9454 0.0368
0.2916 0.9458 0.0372
0.3556 0.9462 0.0376
0.4196 0.9466 0.0381
0.4837 0.9470 0.0385
0.5477 0.9474 0.0389
0.6117 0.9479 0.0393
0.6757 0.9483 0.0397
0.7397 0.9487 0.0401
0.8038 0.9491 0.0406
0.8678 0.9495 0.0410
0.9318 0.9500 0.0414
0.9958 0.9504 0.0418
1.0000 0.9508 0.0422
0.0369 1.0000 0.0369
0.1009 1.0000 0.0373
0.1649 1.0000 0.0377
0.2289 1.0000 0.0381
0.2930 1.0000 0.0386
0.3570 1.0000 0.0390
0.4210 1.0000 0.0394
0.4850 1.0000 0.0398
0.5490 1.0000 0.0402
0.6130 1.0000 0.0407
0.6771 1.0000 0.0411
0.7411 1.0000 0.0415
0.8051 1.0000 0.0419
0.8691 1.0000 0.0423
0.9331 1.0000 0.0427
0.9971 1.0000 0.0432
1.0000 1.0000 0.0436
0.0156 0.0156 0.0743
0.0796 0.0160 0.0748
0.1436 0.0164 0.0752
0.2076 0.0168 0.0756
0.2716 0.0173 0.0760
0.3357 0.0177 0.0764
0.3997 0.0181 0.0768
0.4637 0.0185 0.0773
0.5277 0.0189 0.0777
0.5917 0.0193 0.0781
0.6558 0.0198 0.0785
0.7198 0.0202 0.0789
0.7838 0.0206 0.0794
0.8478 0.0210 0.0798
0.9118 0.0214 0.0802
0.9758 0.0219 0.0806
1.0000 0.0223 0.0810
0.0169 0.0775 0.0757
0.0809 0.0779 0.0761
0.1450 0.0783 0.0765
0.2090 0.0787 0.0769
0.2730 0.0792 0.0773
0.3370 0.0796 0.0778
0.4010 0.0800 0.0782
0.4650 0.0804 0.0786
0.5291 0.0808 0.0790
0.5931 0.0813 0.0794
0.6571 0.0817 0.0799
0.7211 0.0821 0.0803
0.7851 0.0825 0.0807
0.8491 0.0829 0.0811
0.9132 0.0833 0.0815
0.9772 0.0838 0.0819
1.0000 0.0842 0.0824
0.0183 0.1394 0.0770
0.0823 0.1398 0.0774
0.1463 0.1402 0.0779
0.2103 0.1407 0.0783
0.2743 0.1411 0.0787
0.3383 0.1415 0.0791
0.4024 0.1419 0.0795
0.4664 0.1423 0.0799
0.5304 0.1427 0.0804
0.5944 0.1432 0.0808
0.6584 0.1436 0.0812
0.7224 0.1440 0.0816
0.7865 0.1444 0.0820
0.8505 0.1448 0.0825
0.9145 0.1453 0.0829
0.9785 0.1457 0.0833
1.0000 0.1461 0.0837
0.0196 0.2013 0.0784
0.0836 0.2017 0.0788
0.1476 0.2021 0.0792
0.2117 0.2026 0.0796
0.2757 0.2030 0.0800
0.3397 0.2034 0.0804
0.4037 0.2038 0.0809
0.4677 0.2042 0.0813
0.5317 0.2047 0.0817
0.5958 0.2051 0.0821
0.6598 0.2055 0.0825
0.7238 0.2059 0.0830
0.7878 0.2063 0.0834
0.8518 0.2067 0.0838
0.9158 0.2072 0.0842
0.9799 0.2076 0.0846
1.0000 0.2080 0.0850
0.0209 0.2632 0.0797
0.0850 0.2636 0.0801
0.1490 0.2641 0.0805
0.2130 0.2645 0.0809
0.2770 0.2649 0.0814
0.3410 0.2653 0.0818
0.4050 0.2657 0.0822
0.4691 0.2661 0.0826
0.5331 0.2666 0.0830
0.5971 0.2670 0.0835
0.6611 0.2674 0.0839
0.7251 0.2678 0.0843
0.7891 0.2682 0.0847
0.8532 0.2687 0.0851
0.9172 0.2691 0.0855
0.9812 0.2695 0.0860
1.0000 0.2699 0.0864
0.0223 0.3251 0.0810
0.0863 0.3256 0.0815
0.1503 0.3260 0.0819
0.2143 0.3264 0.0823
0.2783 0.3268 0.0827
0.3424 0.3272 0.0831
0.4064 0.3276 0.0835
0.4704 0.3281 0.0840
0.5344 0.3285 0.0844
0.5984 0.3289 0.0848
0.6625 0.3293 0.0852
0.7265 0.3297 0.0856
0.7905 0.3302 0.0861
0.8545 0.3306 0.0865
0.9185 0.3310 0.0869
0.9825 0.3314 0.0873
1.0000 0.3318 0.0877
0.0236 0.3870 0.0824
0.0876 0.3875 0.0828
0.1517 0.3879 0.0832
0.2157 0.3883 0.0836
0.2797 0.3887 0.0840
0.3437 0.3891 0.0845
0.4077 0.3896 0.0849
0.4717 0.3900 0.0853
0.5358 0.3904 0.0857
0.5998 0.3908 0.0861
0.6638 0.3912 0.0866
0.7278 0.3916 0.0870
0.7918 0.3921 0.0874
0.8558 0.3925 0.0878
0.9199 0.3929 0.0882
0.9839 0.3933 0.0886
1.0000 0.3937 0.0891
0.0250 0.4490 0.0837
0.0890 0.4494 0.0841
0.1530 0.4498 0.0845
0.2170 0.4502 0.0850
0.2810 0.4506 0.0854
0.3450 0.4510 0.0858
0.4091 0.4515 0.0862
0.4731 0.4519 0.0866
0.5371 0.4523 0.0871
0.6011 0.4527 0.0875
0.6651 0.4531 0.0879
0.7291 0.4536 0.0883
0.7932 0.4540 0.0887
0.8572 0.4544 0.0891
0.9212 0.4548 0.0896
0.9852 0.4552 0.0900
1.0000 0.4556 0.0904
0.0263 0.5109 0.0851
0.0903 0.5113 0.0855
0.1543 0.5117 0.0859
0.2184 0.5121 0.0863
0.2824 0.5125 0.0867
0.3464 0.5130 0.0871
0.4104 0.5134 0.0876
0.4744 0.5138 0.0880
0.5384 0.5142 0.0884
0.6025 0.5146 0.0888
0.6665 0.5150 0.0892
0.7305 0.5155 0.0897
0.7945 0.5159 0.0901
0.8585 0.5163 0.0905
0.9225 0.5167 0.0909
0.9866 0.5171 0.0913
1.0000 0.5176 0.0917
0.0276 0.5728 0.0864
0.0917 0.5732 0.0868
0.1557 0.5736 0.0872
0.2197 0.5740 0.0876
0.2837 0.5744 0.0881
0.3477 0.5749 0.0885
0.4117 0.5753 0.0889
0.4758 0.5757 0.0893
0.5398 0.5761 0.0897
0.6038 0.5765 0.0902
0.6678 0.5770 0.0906
0.7318 0.5774 0.0910
0.7958 0.5778 0.0914
0.8599 0.5782 0.0918
0.9239 0.5786 0.0922
0.9879 0.5790 0.0927
1.0000 0.5795 0.0931
0.0290 0.6347 0.0877
0.0930 0.6351 0.0882
0.1570 0.6355 0.0886
0.2210 0.6359 0.0890
0.2850 0.6364 0.0894
0.3491 0.6368 0.0898
0.4131 0.6372 0.0902
0.4771 0.6376 0.0907
0.5411 0.6380 0.0911
0.6051 0.6384 0.0915
0.6692 0.6389 0.0919
0.7332 0.6393 0.0923
0.7972 0.6397 0.0928
0.8612 0.6401 0.0932
0.9252 0.6405 0.0936
0.9892 0.6410 0.0940
1.0000 0.6414 0.0944
0.0303 0.6966 0.0891
0.0943 0.6970 0.0895
0.1584 0.6974 0.0899
0.2224 0.6978 0.0903
0.2864 0.6983 0.0907
0.3504 0.6987 0.0912
0.4144 0.6991 0.0916
0.4784 0.6995 0.0920
0.5425 0.6999 0.0924
0.6065 0.7004 0.0928
0.6705 0.7008 0.0933
0.7345 0.7012 0.0937
0.7985 0.7016 0.0941
0.8625 0.7020 0.0945
0.9266 0.7024 0.0949
0.9906 0.7029 0.0953
1.0000 0.7033 0.0958
0.0317 0.7585 0.0904
0.0957 0.7589 0.0908
0.1597 0.7593 0.0912
0.2237 0.7598 0.0917
0.2877 0.7602 0.0921
0.3517 0.7606 0.0925
0.4158 0.7610 0.0929
0.4798 0.7614 0.0933
0.5438 0.7618 0.0938
0.6078 0.7623 0.0942
0.6718 0.7627 0.0946
0.7358 0.7631 0.0950
0.7999 0.7635 0.0954
0.8639 0.7639 0.0958
0.9279 0.7644 0.0963
0.9919 0.7648 0.0967
1.0000 0.7652 0.0971
0.0330 0.8204 0.0918
0.0970 0.8208 0.0922
0.1610 0.8213 0.0926
0.2250 0.8217 0.0930
0.2891 0.8221 0.0934
0.3531 0.8225 0.0938
0.4171 0.8229 0.0943
0.4811 0.8233 0.0947
0.5451 0.8238 0.0951
0.6092 0.8242 0.0955
0.6732 0.8246 0.0959
0.7372 0.8250 0.0964
0.8012 0.8254 0.0968
0.8652 0.8259 0.0972
0.9292 0.8263 0.0976
0.9933 0.8267 0.0980
1.0000 0.8271 0.0984
0.0343 0.8823 0.0931
0.0984 0.8827 0.0935
0.1624 0.8832 0.0939
0.2264 0.8836 0.0943
0.2904 0.8840 0.0948
0.3544 0.8844 0.0952
0.4184 0.8848 0.0956
0.4825 0.8853 0.0960
0.5465 0.8857 0.0964
0.6105 0.8861 0.0969
0.6745 0.8865 0.0973
0.7385 0.8869 0.0977
0.8025 0.8873 0.0981
0.8666 0.8878 0.0985
0.9306 0.8882 0.0989
0.9946 0.8886 0.0994
1.0000 0.8890 0.0998
0.0357 0.9442 0.0944
0.0997 0.9447 0.0948
0.1637 0.9451 0.0953
0.2277 0.9455 0.0957
0.2917 0.9459 0.0961
0.3558 0.9463 0.0965
0.4198 0.9467 0.0969
0.4838 0.9472 0.0974
0.5478 0.9476 0.0978
0.6118 0.9480 0.0982
0.6758 0.9484 0.0986
0.7399 0.9488 0.0990
0.8039 0.9493 0.0994
0.8679 0.9497 0.0999
0.9319 0.9501 0.1003
0.9959 0.9505 0.1007
1.0000 0.9509 0.1011
0.0370 1.0000 0.0958
0.1010 1.0000 0.0962
0.1651 1.0000 0.0966
0.2291 1.0000 0.0970
0.2931 1.0000 0.0974
0.3571 1.0000 0.0979
0.4211 1.0000 0.0983
0.4851 1.0000 0.0987
0.5492 1.0000 0.0991
0.6132 1.0000 0.0995
0.6772 1.0000 0.1000
0.7412 1.0000 0.1004
0.8052 1.0000 0.1008
0.8692 1.0000 0.1012
0.9333 1.0000 0.1016
0.9973 1.0000 0.1020
1.0000 1.0000 0.1025
0.0157 0.0157 0.1332
0.0797 0.0161 0.1336
0.1437 0.0165 0.1341
0.2078 0.0170 0.1345
0.2718 0.0174 0.1349
0.3358 0.0178 0.1353
0.3998 0.0182 0.1357
0.4638 0.0186 0.1361
0.5278 0.0191 0.1366
0.5919 0.0195 0.1370
0.6559 0.0199 0.1374
0.7199 0.0203 0.1378
0.7839 0.0207 0.1382
0.8479 0.0211 0.1387
0.9120 0.0216 0.1391
0.9760 0.0220 0.1395
1.0000 0.0224 0.1399
0.0171 0.0776 0.1346
0.0811 0.0780 0.1350
0.1451 0.0785 0.1354
0.2091 0.0789 0.1358
0.2731 0.0793 0.1362
0.3371 0.0797 0.1366
0.4012 0.0801 0.1371
0.4652 0.0805 0.1375
0.5292 0.0810 0.1379
0.5932 0.0814 0.1383
0.6572 0.0818 0.1387
0.7212 0.0822 0.1392
0.7853 0.0826 0.1396
0.8493 0.0831 0.1400
0.9133 0.0835 0.1404
0.9773 0.0839 0.1408
1.0000 0.0843 0.1412
0.0184 0.1395 0.1359
0.0824 0.1400 0.1363
0.1464 0.1404 0.1367
0.2104 0.1408 0.1372
0.2745 0.1412 0.1376
0.3385 0.1416 0.1380
0.4025 0.1420 0.1384
0.4665 0.1425 0.1388
0.5305 0.1429 0.1392
0.5945 0.1433 0.1397
0.6586 0.1437 0.1401
0.7226 0.1441 0.1405
0.7866 0.1446 0.1409
0.8506 0.1450 0.1413
0.9146 0.1454 0.1418
0.9786 0.1458 0.1422
1.0000 0.1462 0.1426
0.0197 0.2014 0.1372
0.0837 0.2019 0.1377
0.1478 0.2023 0.1381
0.2118 0.2027 0.1385
0.2758 0.2031 0.1389
0.3398 0.2035 0.1393
0.4038 0.2040 0.1397
0.4679 0.2044 0.1402
0.5319 0.2048 0.1406
0.5959 0.2052 0.1410
0.6599 0.2056 0.1414
0.7239 0.2060 0.1418
0.7879 0.2065 0.1423
0.8520 0.2069 0.1427
0.9160 0.2073 0.1431
0.9800 0.2077 0.1435
1.0000 0.2081 0.1439
0.0211 0.2634 0.1386
0.0851 0.2638 0.1390
0.1491 0.2642 0.1394
0.2131 0.2646 0.1398
0.2771 0.2650 0.1403
0.3412 0.2654 0.1407
0.4052 0.2659 0.1411
0.4692 0.2663 0.1415
0.5332 0.2667 0.1419
0.5972 0.2671 0.1423
0.6612 0.2675 0.1428
0.7253 0.2680 0.1432
0.7893 0.2684 0.1436
0.8533 0.2688 0.1440
0.9173 0.2692 0.1444
0.9813 0.2696 0.1449
1.0000 0.2700 0.1453
0.0224 0.3253 0.1399
0.0864 0.3257 0.1403
0.1504 0.3261 0.1408
0.2145 0.3265 0.1412
0.2785 0.3269 0.1416
0.3425 0.3274 0.1420
0.4065 0.3278 0.1424
0.4705 0.3282 0.1428
0.5345 0.3286 0.1433
0.5986 0.3290 0.1437
0.6626 0.3294 0.1441
0.7266 0.3299 0.1445
0.7906 0.3303 0.1449
0.8546 0.3307 0.1454
0.9187 0.3311 0.1458
0.9827 0.3315 0.1462
1.0000 0.3320 0.1466
0.0238 0.3872 0.1413
0.0878 0.3876 0.1417
0.1518 0.3880 0.1421
0.2158 0.3884 0.1425
0.2798 0.3888 0.1429
0.3438 0.3893 0.1433
0.4079 0.3897 0.1438
0.4719 0.3901 0.1442
0.5359 0.3905 0.1446
0.5999 0.3909 0.1450
0.6639 0.3914 0.1454
0.7279 0.3918 0.1459
0.7920 0.3922 0.1463
0.8560 0.3926 0.1467
0.9200 0.3930 0.1471
0.9840 0.3934 0.1475
1.0000 0.3939 0.1479
0.0251 0.4491 0.1426
0.0891 0.4495 0.1430
0.1531 0.4499 0.1434
0.2171 0.4503 0.1439
0.2812 0.4508 0.1443
0.3452 0.4512 0.1447
0.4092 0.4516 0.1451
0.4732 0.4520 0.1455
0.5372 0.4524 0.1459
0.6012 0.4528 0.1464
0.6653 0.4533 0.1468
0.7293 0.4537 0.1472
0.7933 0.4541 0.1476
0.8573 0.4545 0.1480
0.9213 0.4549 0.1485
0.9853 0.4554 0.1489
1.0000 0.4558 0.1493
0.0264 0.5110 0.1439
0.0904 0.5114 0.1444
0.1545 0.5118 0.1448
0.2185 0.5122 0.1452
0.2825 0.5127 0.1456
0.3465 0.5131 0.1460
0.4105 0.5135 0.1464
0.4746 0.5139 0.1469
0.5386 0.5143 0.1473
0.6026 0.5148 0.1477
0.6666 0.5152 0.1481
0.7306 0.5156 0.1485
0.7946 0.5160 0.1490
0.8587 0.5164 0.1494
0.9227 0.5168 0.1498
0.9867 0.5173 0.1502
1.0000 0.5177 0.1506
0.0278 0.5729 0.1453
0.0918 0.5733 0.1457
0.1558 0.5737 0.1461
0.2198 0.5742 0.1465
0.2838 0.5746 0.1469
0.3479 0.5750 0.1474
0.4119 0.5754 0.1478
0.4759 0.5758 0.1482
0.5399 0.5762 0.1486
0.6039 0.5767 0.1490
0.6679 0.5771 0.1495
0.7320 0.5775 0.1499
0.7960 0.5779 0.1503
0.8600 0.5783 0.1507
0.9240 0.5788 0.1511
0.9880 0.5792 0.1515
1.0000 0.5796 0.1520
0.0291 0.6348 0.1466
0.0931 0.6352 0.1470
0.1571 0.6357 0.1475
0.2212 0.6361 0.1479
0.2852 0.6365 0.1483
0.3492 0.6369 0.1487
0.4132 0.6373 0.1491
0.4772 0.6377 0.1495
0.5412 0.6382 0.1500
0.6053 0.6386 0.1504
0.6693 0.6390 0.1508
0.7333 0.6394 0.1512
0.7973 0.6398 0.1516
0.8613 0.6403 0.1521
0.9254 0.6407 0.1525
0.9894 0.6411 0.1529
1.0000 0.6415 0.1533
0.0305 0.6967 0.1480
0.0945 0.6971 0.1484
0.1585 0.6976 0.1488
0.2225 0.6980 0.1492
0.2865 0.6984 0.1496
0.3505 0.6988 0.1500
0.4146 0.6992 0.1505
0.4786 0.6997 0.1509
0.5426 0.7001 0.1513
0.6066 0.7005 0.1517
0.6706 0.7009 0.1521
0.7346 0.7013 0.1526
0.7987 0.7017 0.1530
0.8627 0.7022 0.1534
0.9267 0.7026 0.1538
0.9907 0.7030 0.1542
1.0000 0.7034 0.1546
0.0318 0.7586 0.1493
0.0958 0.7591 0.1497
0.1598 0.7595 0.1501
0.2238 0.7599 0.1506
0.2879 0.7603 0.1510
0.3519 0.7607 0.1514
0.4159 0.7611 0.1518
0.4799 0.7616 0.1522
0.5439 0.7620 0.1526
0.6079 0.7624 0.1531
0.6720 0.7628 0.1535
0.7360 0.7632 0.1539
0.8000 0.7637 0.1543
0.8640 0.7641 0.1547
0.9280 0.7645 0.1552
0.9920 0.7649 0.1556
1.0000 0.7653 0.1560
0.0331 0.8205 0.1506
0.0971 0.8210 0.1511
0.1612 0.8214 0.1515
0.2252 0.8218 0.1519
0.2892 0.8222 0.1523
0.3532 0.8226 0.1527
0.4172 0.8231 0.1531
0.4812 0.8235 0.1536
0.5453 0.8239 0.1540
0.6093 0.8243 0.1544
0.6733 0.8247 0.1548
0.7373 0.8251 0.1552
0.8013 0.8256 0.1557
0.8654 0.8260 0.1561
0.9294 0.8264 0.1565
0.9934 0.8268 0.1569
1.0000 0.8272 0.1573
0.0345 0.8825 0.1520
0.0985 0.8829 0.1524
0.1625 0.8833 0.1528
0.2265 0.8837 0.1532
0.2905 0.8841 0.1536
0.3546 0.8845 0.1541
0.4186 0.8850 0.1545
0.4826 0.8854 0.1549
0.5466 0.8858 0.1553
0.6106 0.8862 0.1557
0.6746 0.8866 0.1562
0.7387 0.8871 0.1566
0.8027 0.8875 0.1570
0.8667 0.8879 0.1574
0.9307 0.8883 0.1578
0.9947 0.8887 0.1582
1.0000 0.8891 0.1587
0.0358 0.9444 0.1533
0.0998 0.9448 0.1537
0.1638 0.9452 0.1542
0.2279 0.9456 0.1546
0.2919 0.9460 0.1550
0.3559 0.9465 0.1554
0.4199 0.9469 0.1558
0.4839 0.9473 0.1562
0.5479 0.9477 0.1567
0.6120 0.9481 0.1571
0.6760 0.9485 0.1575
0.7400 0.9490 0.1579
0.8040 0.9494 0.1583
0.8680 0.9498 0.1588
0.9320 0.9502 0.1592
0.9961 0.9506 0.1596
1.0000 0.9511 0.1600
0.0371 1.0000 0.1547
0.1012 1.0000 0.1551
0.1652 1.0000 0.1555
0.2292 1.0000 0.1559
0.2932 1.0000 0.1563
0.3572 1.0000 0.1567
0.4213 1.0000 0.1572
0.4853 1.0000 0.1576
0.5493 1.0000 0.1580
0.6133 1.0000 0.1584
0.6773 1.0000 0.1588
0.7413 1.0000 0.1593
0.8054 1.0000 0.1597
0.8694 1.0000 0.1601
0.9334 1.0000 0.1605
0.9974 1.0000 0.1609
1.0000 1.0000 0.1613
0.0158 0.0158 0.1921
0.0799 0.0163 0.1925
0.1439 0.0167 0.1929
0.2079 0.0171 0.1934
0.2719 0.0175 0.1938
0.3359 0.0179 0.1942
0.3999 0.0184 0.1946
0.4640 0.0188 0.1950
0.5280 0.0192 0.1954
0.5920 0.0196 0.1959
0.6560 0.0200 0.1963
0.7200 0.0204 0.1967
0.7840 0.0209 0.1971
0.8481 0.0213 0.1975
0.9121 0.0217 0.1980
0.9761 0.0221 0.1984
1.0000 0.0225 0.1988
0.0172 0.0778 0.1934
0.0812 0.0782 0.1939
0.1452 0.0786 0.1943
0.2092 0.0790 0.1947
0.2733 0.0794 0.1951
0.3373 0.0798 0.1955
0.4013 0.0803 0.1960
0.4653 0.0807 0.1964
0.5293 0.0811 0.1968
0.5933 0.0815 0.1972
0.6574 0.0819 0.1976
0.7214 0.0824 0.1980
0.7854 0.0828 0.1985
0.8494 0.0832 0.1989
0.9134 0.0836 0.1993
0.9774 0.0840 0.1997
