luts/portrait.cube
# edite look: Portrait (CC0)
TITLE "Portrait"
LUT_3D_SIZE 9
DOMAIN_MIN 0.0 0.0 0.0
DOMAIN_MAX 1.0 1.0 1.0
0.0154 0.0154 0.0154
0.1435 0.0163 0.0163
0.2715 0.0171 0.0171
0.3996 0.0180 0.0180
0.5276 0.0188 0.0188
0.6556 0.0196 0.0196
0.7837 0.0205 0.0205
0.9117 0.0213 0.0213
1.0000 0.0221 0.0221
0.0181 0.1393 0.0181
0.1462 0.1401 0.0190
0.2742 0.1409 0.0198
0.4022 0.1418 0.0206
0.5303 0.1426 0.0215
0.6583 0.1435 0.0223
0.7863 0.1443 0.0231
0.9144 0.1451 0.0240
1.0000 0.1460 0.0248
0.0208 0.2631 0.0208
0.1488 0.2639 0.0216
0.2769 0.2648 0.0225
0.4049 0.2656 0.0233
0.5329 0.2664 0.0242
0.6610 0.2673 0.0250
0.7890 0.2681 0.0258
0.9170 0.2689 0.0267
1.0000 0.2698 0.0275
0.0235 0.3869 0.0235
0.1515 0.3877 0.0243
0.2796 0.3886 0.0252
0.4076 0.3894 0.0260
0.5356 0.3903 0.0268
0.6637 0.3911 0.0277
0.7917 0.3919 0.0285
0.9197 0.3928 0.0293
1.0000 0.3936 0.0302
0.0262 0.5107 0.0262
0.1542 0.5116 0.0270
0.2822 0.5124 0.0278
0.4103 0.5132 0.0287
0.5383 0.5141 0.0295
0.6663 0.5149 0.0304
0.7944 0.5157 0.0312
0.9224 0.5166 0.0320
1.0000 0.5174 0.0329
0.0288 0.6346 0.0288
0.1569 0.6354 0.0297
0.2849 0.6362 0.0305
0.4130 0.6371 0.0314
0.5410 0.6379 0.0322
0.6690 0.6387 0.0330
0.7971 0.6396 0.0339
0.9251 0.6404 0.0347
1.0000 0.6412 0.0355
0.0315 0.7584 0.0315
0.1596 0.7592 0.0324
0.2876 0.7600 0.0332
0.4156 0.7609 0.0340
0.5437 0.7617 0.0349
0.6717 0.7626 0.0357
0.7997 0.7634 0.0365
0.9278 0.7642 0.0374
1.0000 0.7651 0.0382
0.0342 0.8822 0.0342
0.1622 0.8830 0.0350
0.2903 0.8839 0.0359
0.4183 0.8847 0.0367
0.5463 0.8855 0.0376
0.6744 0.8864 0.0384
0.8024 0.8872 0.0392
0.9304 0.8880 0.0401
1.0000 0.8889 0.0409
0.0369 1.0000 0.0369
0.1649 1.0000 0.0377
0.2930 1.0000 0.0386
0.4210 1.0000 0.0394
0.5490 1.0000 0.0402
0.6771 1.0000 0.0411
0.8051 1.0000 0.0419
0.9331 1.0000 0.0427
1.0000 1.0000 0.0436
0.0157 0.0157 0.1332
0.1437 0.0165 0.1341
0.2718 0.0174 0.1349
0.3998 0.0182 0.1357
0.5278 0.0191 0.1366
0.6559 0.0199 0.1374
0.7839 0.0207 0.1382
0.9120 0.0216 0.1391
1.0000 0.0224 0.1399
0.0184 0.1395 0.1359
0.1464 0.1404 0.1367
0.2745 0.1412 0.1376
0.4025 0.1420 0.1384
0.5305 0.1429 0.1392
0.6586 0.1437 0.1401
0.7866 0.1446 0.1409
0.9146 0.1454 0.1418
1.0000 0.1462 0.1426
0.0211 0.2634 0.1386
0.1491 0.2642 0.1394
0.2771 0.2650 0.1403
0.4052 0.2659 0.1411
0.5332 0.2667 0.1419
0.6612 0.2675 0.1428
0.7893 0.2684 0.1436
0.9173 0.2692 0.1444
1.0000 0.2700 0.1453
0.0238 0.3872 0.1413
0.1518 0.3880 0.1421
0.2798 0.3888 0.1429
0.4079 0.3897 0.1438
0.5359 0.3905 0.1446
0.6639 0.3914 0.1454
0.7920 0.3922 0.1463
0.9200 0.3930 0.1471
1.0000 0.3939 0.1479
0.0264 0.5110 0.1439
0.1545 0.5118 0.1448
0.2825 0.5127 0.1456
0.4105 0.5135 0.1464
0.5386 0.5143 0.1473
0.6666 0.5152 0.1481
0.7946 0.5160 0.1490
0.9227 0.5168 0.1498
1.0000 0.5177 0.1506
0.0291 0.6348 0.1466
0.1571 0.6357 0.1475
0.2852 0.6365 0.1483
0.4132 0.6373 0.1491
0.5412 0.6382 0.1500
0.6693 0.6390 0.1508
0.7973 0.6398 0.1516
0.9254 0.6407 0.1525
1.0000 0.6415 0.1533
0.0318 0.7586 0.1493
0.1598 0.7595 0.1501
0.2879 0.7603 0.1510
0.4159 0.7611 0.1518
0.5439 0.7620 0.1526
0.6720 0.7628 0.1535
0.8000 0.7637 0.1543
0.9280 0.7645 0.1552
1.0000 0.7653 0.1560
0.0345 0.8825 0.1520
0.1625 0.8833 0.1528
0.2905 0.8841 0.1536
0.4186 0.8850 0.1545
0.5466 0.8858 0.1553
0.6746 0.8866 0.1562
0.8027 0.8875 0.1570
0.9307 0.8883 0.1578
1.0000 0.8891 0.1587
0.0371 1.0000 0.1547
0.1652 1.0000 0.1555
0.2932 1.0000 0.1563
0.4213 1.0000 0.1572
0.5493 1.0000 0.1580
0.6773 1.0000 0.1588
0.8054 1.0000 0.1597
0.9334 1.0000 0.1605
1.0000 1.0000 0.1613
0.0160 0.0160 0.2510
0.1440 0.0168 0.2518
0.2720 0.0176 0.2527
0.4001 0.0185 0.2535
0.5281 0.0193 0.2543
0.6561 0.0202 0.2552
0.7842 0.0210 0.2560
0.9122 0.0218 0.2568
1.0000 0.0227 0.2577
0.0187 0.1398 0.2537
0.1467 0.1406 0.2545
0.2747 0.1415 0.2553
0.4028 0.1423 0.2562
0.5308 0.1431 0.2570
0.6588 0.1440 0.2578
0.7869 0.1448 0.2587
0.9149 0.1456 0.2595
1.0000 0.1465 0.2604
0.0213 0.2636 0.2563
0.1494 0.2645 0.2572
0.2774 0.2653 0.2580
0.4054 0.2661 0.2589
0.5335 0.2670 0.2597
0.6615 0.2678 0.2605
0.7895 0.2686 0.2614
0.9176 0.2695 0.2622
1.0000 0.2703 0.2630
0.0240 0.3874 0.2590
0.1520 0.3883 0.2599
0.2801 0.3891 0.2607
0.4081 0.3899 0.2615
0.5362 0.3908 0.2624
0.6642 0.3916 0.2632
0.7922 0.3925 0.2640
0.9203 0.3933 0.2649
1.0000 0.3941 0.2657
0.0267 0.5113 0.2617
0.1547 0.5121 0.2625
0.2828 0.5129 0.2634
0.4108 0.5138 0.2642
0.5388 0.5146 0.2651
0.6669 0.5154 0.2659
0.7949 0.5163 0.2667
0.9229 0.5171 0.2676
1.0000 0.5179 0.2684
0.0294 0.6351 0.2644
0.1574 0.6359 0.2652
0.2854 0.6367 0.2661
0.4135 0.6376 0.2669
0.5415 0.6384 0.2677
0.6695 0.6393 0.2686
0.7976 0.6401 0.2694
0.9256 0.6409 0.2702
1.0000 0.6418 0.2711
0.0321 0.7589 0.2671
0.1601 0.7597 0.2679
0.2881 0.7606 0.2687
0.4162 0.7614 0.2696
0.5442 0.7622 0.2704
0.6722 0.7631 0.2712
0.8003 0.7639 0.2721
0.9283 0.7648 0.2729
1.0000 0.7656 0.2738
0.0347 0.8827 0.2697
0.1628 0.8836 0.2706
0.2908 0.8844 0.2714
0.4188 0.8852 0.2723
0.5469 0.8861 0.2731
0.6749 0.8869 0.2739
0.8029 0.8877 0.2748
0.9310 0.8886 0.2756
1.0000 0.8894 0.2764
0.0374 1.0000 0.2724
0.1654 1.0000 0.2733
0.2935 1.0000 0.2741
0.4215 1.0000 0.2749
0.5495 1.0000 0.2758
0.6776 1.0000 0.2766
0.8056 1.0000 0.2774
0.9337 1.0000 0.2783
1.0000 1.0000 0.2791
0.0162 0.0162 0.3688
0.1443 0.0171 0.3696
0.2723 0.0179 0.3704
0.4003 0.0187 0.3713
0.5284 0.0196 0.3721
0.6564 0.0204 0.3729
0.7844 0.0213 0.3738
0.9125 0.0221 0.3746
1.0000 0.0229 0.3754
0.0189 0.1401 0.3714
0.1470 0.1409 0.3723
0.2750 0.1417 0.3731
0.4030 0.1426 0.3739
0.5311 0.1434 0.3748
0.6591 0.1442 0.3756
0.7871 0.1451 0.3765
0.9152 0.1459 0.3773
1.0000 0.1467 0.3781
0.0216 0.2639 0.3741
0.1496 0.2647 0.3750
0.2777 0.2656 0.3758
0.4057 0.2664 0.3766
0.5337 0.2672 0.3775
0.6618 0.2681 0.3783
0.7898 0.2689 0.3791
0.9178 0.2697 0.3800
1.0000 0.2706 0.3808
0.0243 0.3877 0.3768
0.1523 0.3885 0.3776
0.2803 0.3894 0.3785
0.4084 0.3902 0.3793
0.5364 0.3910 0.3801
0.6644 0.3919 0.3810
0.7925 0.3927 0.3818
0.9205 0.3936 0.3827
1.0000 0.3944 0.3835
0.0270 0.5115 0.3795
0.1550 0.5124 0.3803
0.2830 0.5132 0.3811
0.4111 0.5140 0.3820
0.5391 0.5149 0.3828
0.6671 0.5157 0.3837
0.7952 0.5165 0.3845
0.9232 0.5174 0.3853
1.0000 0.5182 0.3862
0.0296 0.6353 0.3822
0.1577 0.6362 0.3830
0.2857 0.6370 0.3838
0.4137 0.6378 0.3847
0.5418 0.6387 0.3855
0.6698 0.6395 0.3863
0.7978 0.6404 0.3872
0.9259 0.6412 0.3880
1.0000 0.6420 0.3888
0.0323 0.7592 0.3848
0.1603 0.7600 0.3857
0.2884 0.7608 0.3865
0.4164 0.7617 0.3873
0.5445 0.7625 0.3882
0.6725 0.7633 0.3890
0.8005 0.7642 0.3899
0.9286 0.7650 0.3907
1.0000 0.7659 0.3915
0.0350 0.8830 0.3875
0.1630 0.8838 0.3884
0.2911 0.8847 0.3892
0.4191 0.8855 0.3900
0.5471 0.8863 0.3909
0.6752 0.8872 0.3917
0.8032 0.8880 0.3925
0.9312 0.8888 0.3934
1.0000 0.8897 0.3942
0.0377 1.0000 0.3902
0.1657 1.0000 0.3910
0.2937 1.0000 0.3919
0.4218 1.0000 0.3927
0.5498 1.0000 0.3935
0.6778 1.0000 0.3944
0.8059 1.0000 0.3952
0.9339 1.0000 0.3960
1.0000 1.0000 0.3969
0.0165 0.0165 0.4865
0.1445 0.0173 0.4874
0.2726 0.0182 0.4882
0.4006 0.0190 0.4890
0.5286 0.0198 0.4899
0.6567 0.0207 0.4907
0.7847 0.0215 0.4915
0.9127 0.0224 0.4924
1.0000 0.0232 0.4932
0.0192 0.1403 0.4892
0.1472 0.1412 0.4900
0.2752 0.1420 0.4909
0.4033 0.1428 0.4917
0.5313 0.1437 0.4926
0.6594 0.1445 0.4934
0.7874 0.1453 0.4942
0.9154 0.1462 0.4951
1.0000 0.1470 0.4959
0.0219 0.2641 0.4919
0.1499 0.2650 0.4927
0.2779 0.2658 0.4936
0.4060 0.2666 0.4944
0.5340 0.2675 0.4952
0.6620 0.2683 0.4961
0.7901 0.2692 0.4969
0.9181 0.2700 0.4977
1.0000 0.2708 0.4986
0.0245 0.3880 0.4946
0.1526 0.3888 0.4954
0.2806 0.3896 0.4962
0.4086 0.3905 0.4971
0.5367 0.3913 0.4979
0.6647 0.3921 0.4987
0.7927 0.3930 0.4996
0.9208 0.3938 0.5004
1.0000 0.3947 0.5013
0.0272 0.5118 0.4972
0.1553 0.5126 0.4981
0.2833 0.5135 0.4989
0.4113 0.5143 0.4998
0.5394 0.5151 0.5006
0.6674 0.5160 0.5014
0.7954 0.5168 0.5023
0.9235 0.5176 0.5031
1.0000 0.5185 0.5039
0.0299 0.6356 0.4999
0.1579 0.6364 0.5008
0.2860 0.6373 0.5016
0.4140 0.6381 0.5024
0.5420 0.6389 0.5033
0.6701 0.6398 0.5041
0.7981 0.6406 0.5049
0.9261 0.6415 0.5058
1.0000 0.6423 0.5066
0.0326 0.7594 0.5026
0.1606 0.7603 0.5034
0.2886 0.7611 0.5043
0.4167 0.7619 0.5051
0.5447 0.7628 0.5059
0.6727 0.7636 0.5068
0.8008 0.7644 0.5076
0.9288 0.7653 0.5085
1.0000 0.7661 0.5093
0.0353 0.8832 0.5053
0.1633 0.8841 0.5061
0.2913 0.8849 0.5070
0.4194 0.8858 0.5078
0.5474 0.8866 0.5086
0.6754 0.8874 0.5095
0.8035 0.8883 0.5103
0.9315 0.8891 0.5111
1.0000 0.8899 0.5120
0.0379 1.0000 0.5080
0.1660 1.0000 0.5088
0.2940 1.0000 0.5096
0.4220 1.0000 0.5105
0.5501 1.0000 0.5113
0.6781 1.0000 0.5121
0.8061 1.0000 0.5130
0.9342 1.0000 0.5138
1.0000 1.0000 0.5147
0.0168 0.0168 0.6043
0.1448 0.0176 0.6051
0.2728 0.0184 0.6060
0.4009 0.0193 0.6068
0.5289 0.0201 0.6076
0.6569 0.0209 0.6085
0.7850 0.0218 0.6093
0.9130 0.0226 0.6101
1.0000 0.0235 0.6110
0.0194 0.1406 0.6070
0.1475 0.1414 0.6078
0.2755 0.1423 0.6086
0.4035 0.1431 0.6095
0.5316 0.1439 0.6103
0.6596 0.1448 0.6112
0.7876 0.1456 0.6120
0.9157 0.1464 0.6128
1.0000 0.1473 0.6137
0.0221 0.2644 0.6097
0.1502 0.2652 0.6105
0.2782 0.2661 0.6113
0.4062 0.2669 0.6122
0.5343 0.2677 0.6130
0.6623 0.2686 0.6138
0.7903 0.2694 0.6147
0.9184 0.2703 0.6155
1.0000 0.2711 0.6163
0.0248 0.3882 0.6123
0.1528 0.3891 0.6132
0.2809 0.3899 0.6140
0.4089 0.3907 0.6148
0.5369 0.3916 0.6157
0.6650 0.3924 0.6165
0.7930 0.3932 0.6174
0.9210 0.3941 0.6182
1.0000 0.3949 0.6190
0.0275 0.5120 0.6150
0.1555 0.5129 0.6158
0.2835 0.5137 0.6167
0.4116 0.5146 0.6175
0.5396 0.5154 0.6184
0.6677 0.5162 0.6192
0.7957 0.5171 0.6200
0.9237 0.5179 0.6209
1.0000 0.5187 0.6217
0.0302 0.6359 0.6177
0.1582 0.6367 0.6185
0.2862 0.6375 0.6194
0.4143 0.6384 0.6202
0.5423 0.6392 0.6210
0.6703 0.6400 0.6219
0.7984 0.6409 0.6227
0.9264 0.6417 0.6235
1.0000 0.6426 0.6244
0.0328 0.7597 0.6204
0.1609 0.7605 0.6212
0.2889 0.7614 0.6220
0.4169 0.7622 0.6229
0.5450 0.7630 0.6237
0.6730 0.7639 0.6246
0.8010 0.7647 0.6254
0.9291 0.7655 0.6262
1.0000 0.7664 0.6271
0.0355 0.8835 0.6231
0.1636 0.8843 0.6239
0.2916 0.8852 0.6247
0.4196 0.8860 0.6256
0.5477 0.8869 0.6264
0.6757 0.8877 0.6272
0.8037 0.8885 0.6281
0.9318 0.8894 0.6289
1.0000 0.8902 0.6297
0.0382 1.0000 0.6257
0.1662 1.0000 0.6266
0.2943 1.0000 0.6274
0.4223 1.0000 0.6282
0.5503 1.0000 0.6291
0.6784 1.0000 0.6299
0.8064 1.0000 0.6308
0.9344 1.0000 0.6316
1.0000 1.0000 0.6324
0.0170 0.0170 0.7221
0.1451 0.0179 0.7229
0.2731 0.0187 0.7237
0.4011 0.0195 0.7246
0.5292 0.0204 0.7254
0.6572 0.0212 0.7262
0.7852 0.0220 0.7271
0.9133 0.0229 0.7279
1.0000 0.0237 0.7288
0.0197 0.1408 0.7247
0.1477 0.1417 0.7256
0.2758 0.1425 0.7264
0.4038 0.1434 0.7273
0.5318 0.1442 0.7281
0.6599 0.1450 0.7289
0.7879 0.1459 0.7298
0.9159 0.1467 0.7306
1.0000 0.1475 0.7314
0.0224 0.2647 0.7274
0.1504 0.2655 0.7283
0.2785 0.2663 0.7291
0.4065 0.2672 0.7299
0.5345 0.2680 0.7308
0.6626 0.2688 0.7316
0.7906 0.2697 0.7324
0.9186 0.2705 0.7333
1.0000 0.2714 0.7341
0.0251 0.3885 0.7301
0.1531 0.3893 0.7309
0.2811 0.3902 0.7318
0.4092 0.3910 0.7326
0.5372 0.3918 0.7334
0.6652 0.3927 0.7343
0.7933 0.3935 0.7351
0.9213 0.3943 0.7360
1.0000 0.3952 0.7368
0.0277 0.5123 0.7328
0.1558 0.5131 0.7336
0.2838 0.5140 0.7345
0.4118 0.5148 0.7353
0.5399 0.5157 0.7361
0.6679 0.5165 0.7370
0.7959 0.5173 0.7378
0.9240 0.5182 0.7386
1.0000 0.5190 0.7395
0.0304 0.6361 0.7355
0.1585 0.6370 0.7363
0.2865 0.6378 0.7371
0.4145 0.6386 0.7380
0.5426 0.6395 0.7388
0.6706 0.6403 0.7396
0.7986 0.6411 0.7405
0.9267 0.6420 0.7413
1.0000 0.6428 0.7422
0.0331 0.7599 0.7381
0.1611 0.7608 0.7390
0.2892 0.7616 0.7398
0.4172 0.7625 0.7407
0.5452 0.7633 0.7415
0.6733 0.7641 0.7423
0.8013 0.7650 0.7432
0.9293 0.7658 0.7440
1.0000 0.7666 0.7448
0.0358 0.8838 0.7408
0.1638 0.8846 0.7417
0.2919 0.8854 0.7425
0.4199 0.8863 0.7433
0.5479 0.8871 0.7442
0.6760 0.8879 0.7450
0.8040 0.8888 0.7458
0.9320 0.8896 0.7467
1.0000 0.8905 0.7475
0.0385 1.0000 0.7435
0.1665 1.0000 0.7443
0.2945 1.0000 0.7452
0.4226 1.0000 0.7460
0.5506 1.0000 0.7468
0.6786 1.0000 0.7477
0.8067 1.0000 0.7485
0.9347 1.0000 0.7494
1.0000 1.0000 0.7502
0.0173 0.0173 0.8398
0.1453 0.0181 0.8407
0.2734 0.0190 0.8415
0.4014 0.0198 0.8423
0.5294 0.0206 0.8432
0.6575 0.0215 0.8440
0.7855 0.0223 0.8449
0.9135 0.0231 0.8457
1.0000 0.0240 0.8465
0.0200 0.1411 0.8425
0.1480 0.1419 0.8433
0.2760 0.1428 0.8442
0.4041 0.1436 0.8450
0.5321 0.1445 0.8459
0.6601 0.1453 0.8467
0.7882 0.1461 0.8475
0.9162 0.1470 0.8484
1.0000 0.1478 0.8492
0.0226 0.2649 0.8452
0.1507 0.2658 0.8460
0.2787 0.2666 0.8469
0.4067 0.2674 0.8477
0.5348 0.2683 0.8485
0.6628 0.2691 0.8494
0.7909 0.2699 0.8502
0.9189 0.2708 0.8510
1.0000 0.2716 0.8519
0.0253 0.3887 0.8479
0.1534 0.3896 0.8487
0.2814 0.3904 0.8495
0.4094 0.3913 0.8504
0.5375 0.3921 0.8512
0.6655 0.3929 0.8521
0.7935 0.3938 0.8529
0.9216 0.3946 0.8537
1.0000 0.3954 0.8546
0.0280 0.5126 0.8506
0.1560 0.5134 0.8514
0.2841 0.5142 0.8522
0.4121 0.5151 0.8531
0.5401 0.5159 0.8539
0.6682 0.5168 0.8547
0.7962 0.5176 0.8556
0.9242 0.5184 0.8564
1.0000 0.5193 0.8572
0.0307 0.6364 0.8532
0.1587 0.6372 0.8541
0.2868 0.6381 0.8549
0.4148 0.6389 0.8557
0.5428 0.6397 0.8566
0.6709 0.6406 0.8574
0.7989 0.6414 0.8582
0.9269 0.6422 0.8591
1.0000 0.6431 0.8599
0.0334 0.7602 0.8559
0.1614 0.7610 0.8567
0.2894 0.7619 0.8576
0.4175 0.7627 0.8584
0.5455 0.7636 0.8593
0.6735 0.7644 0.8601
0.8016 0.7652 0.8609
0.9296 0.7661 0.8618
1.0000 0.7669 0.8626
0.0360 0.8840 0.8586
0.1641 0.8849 0.8594
0.2921 0.8857 0.8603
0.4201 0.8865 0.8611
0.5482 0.8874 0.8619
0.6762 0.8882 0.8628
0.8042 0.8890 0.8636
0.9323 0.8899 0.8644
1.0000 0.8907 0.8653
0.0387 1.0000 0.8613
0.1668 1.0000 0.8621
0.2948 1.0000 0.8629
0.4228 1.0000 0.8638
0.5509 1.0000 0.8646
0.6789 1.0000 0.8655
0.8069 1.0000 0.8663
0.9350 1.0000 0.8671
1.0000 1.0000 0.8680
0.0175 0.0175 0.9576
0.1456 0.0184 0.9584
0.2736 0.0192 0.9593
0.4017 0.0201 0.9601
0.5297 0.0209 0.9609
0.6577 0.0217 0.9618
0.7858 0.0226 0.9626
0.9138 0.0234 0.9635
1.0000 0.0242 0.9643
0.0202 0.1414 0.9603
0.1483 0.1422 0.9611
0.2763 0.1430 0.9620
0.4043 0.1439 0.9628
0.5324 0.1447 0.9636
0.6604 0.1456 0.9645
0.7884 0.1464 0.9653
0.9165 0.1472 0.9661
1.0000 0.1481 0.9670
0.0229 0.2652 0.9630
0.1509 0.2660 0.9638
0.2790 0.2669 0.9646
0.4070 0.2677 0.9655
0.5350 0.2685 0.9663
0.6631 0.2694 0.9671
0.7911 0.2702 0.9680
0.9191 0.2710 0.9688
1.0000 0.2719 0.9697
0.0256 0.3890 0.9656
0.1536 0.3898 0.9665
0.2817 0.3907 0.9673
0.4097 0.3915 0.9682
0.5377 0.3924 0.9690
0.6658 0.3932 0.9698
0.7938 0.3940 0.9707
0.9218 0.3949 0.9715
1.0000 0.3957 0.9723
0.0283 0.5128 0.9683
0.1563 0.5137 0.9692
0.2843 0.5145 0.9700
0.4124 0.5153 0.9708
0.5404 0.5162 0.9717
0.6684 0.5170 0.9725
0.7965 0.5178 0.9733
0.9245 0.5187 0.9742
1.0000 0.5195 0.9750
0.0309 0.6367 0.9710
0.1590 0.6375 0.9718
0.2870 0.6383 0.9727
0.4150 0.6392 0.9735
0.5431 0.6400 0.9743
0.6711 0.6408 0.9752
0.7992 0.6417 0.9760
0.9272 0.6425 0.9769
1.0000 0.6433 0.9777
0.0336 0.7605 0.9737
0.1617 0.7613 0.9745
0.2897 0.7621 0.9754
0.4177 0.7630 0.9762
0.5458 0.7638 0.9770
0.6738 0.7647 0.9779
0.8018 0.7655 0.9787
0.9299 0.7663 0.9795
1.0000 0.7672 0.9804
0.0363 0.8843 0.9764
0.1643 0.8851 0.9772
0.2924 0.8860 0.9780
0.4204 0.8868 0.9789
0.5484 0.8876 0.9797
0.6765 0.8885 0.9805
0.8045 0.8893 0.9814
0.9325 0.8901 0.9822
1.0000 0.8910 0.9831
0.0390 1.0000 0.9790
0.1670 1.0000 0.9799
0.2951 1.0000 0.9807
0.4231 1.0000 0.9815
0.5511 1.0000 0.9824
0.6792 1.0000 0.9832
0.8072 1.0000 0.9841
0.9352 1.0000 0.9849
1.0000 1.0000 0.9857
