luts/portrait.cube
# edite look: Portrait (CC0)
TITLE "Portrait"
LUT_3D_SIZE 5
DOMAIN_MIN 0.0 0.0 0.0
DOMAIN_MAX 1.0 1.0 1.0
0.0154 0.0154 0.0154
0.2715 0.0171 0.0171
0.5276 0.0188 0.0188
0.7837 0.0205 0.0205
1.0000 0.0221 0.0221
0.0208 0.2631 0.0208
0.2769 0.2648 0.0225
0.5329 0.2664 0.0242
0.7890 0.2681 0.0258
1.0000 0.2698 0.0275
0.0262 0.5107 0.0262
0.2822 0.5124 0.0278
0.5383 0.5141 0.0295
0.7944 0.5157 0.0312
1.0000 0.5174 0.0329
0.0315 0.7584 0.0315
0.2876 0.7600 0.0332
0.5437 0.7617 0.0349
0.7997 0.7634 0.0365
1.0000 0.7651 0.0382
0.0369 1.0000 0.0369
0.2930 1.0000 0.0386
0.5490 1.0000 0.0402
0.8051 1.0000 0.0419
1.0000 1.0000 0.0436
0.0160 0.0160 0.2510
0.2720 0.0176 0.2527
0.5281 0.0193 0.2543
0.7842 0.0210 0.2560
1.0000 0.0227 0.2577
0.0213 0.2636 0.2563
0.2774 0.2653 0.2580
0.5335 0.2670 0.2597
0.7895 0.2686 0.2614
1.0000 0.2703 0.2630
0.0267 0.5113 0.2617
0.2828 0.5129 0.2634
0.5388 0.5146 0.2651
0.7949 0.5163 0.2667
1.0000 0.5179 0.2684
0.0321 0.7589 0.2671
0.2881 0.7606 0.2687
0.5442 0.7622 0.2704
0.8003 0.7639 0.2721
1.0000 0.7656 0.2738
0.0374 1.0000 0.2724
0.2935 1.0000 0.2741
0.5495 1.0000 0.2758
0.8056 1.0000 0.2774
1.0000 1.0000 0.2791
0.0165 0.0165 0.4865
0.2726 0.0182 0.4882
0.5286 0.0198 0.4899
0.7847 0.0215 0.4915
1.0000 0.0232 0.4932
0.0219 0.2641 0.4919
0.2779 0.2658 0.4936
0.5340 0.2675 0.4952
0.7901 0.2692 0.4969
1.0000 0.2708 0.4986
0.0272 0.5118 0.4972
0.2833 0.5135 0.4989
0.5394 0.5151 0.5006
0.7954 0.5168 0.5023
1.0000 0.5185 0.5039
0.0326 0.7594 0.5026
0.2886 0.7611 0.5043
0.5447 0.7628 0.5059
0.8008 0.7644 0.5076
1.0000 0.7661 0.5093
0.0379 1.0000 0.5080
0.2940 1.0000 0.5096
0.5501 1.0000 0.5113
0.8061 1.0000 0.5130
1.0000 1.0000 0.5147
0.0170 0.0170 0.7221
0.2731 0.0187 0.7237
0.5292 0.0204 0.7254
0.7852 0.0220 0.7271
1.0000 0.0237 0.7288
0.0224 0.2647 0.7274
0.2785 0.2663 0.7291
0.5345 0.2680 0.7308
0.7906 0.2697 0.7324
1.0000 0.2714 0.7341
0.0277 0.5123 0.7328
0.2838 0.5140 0.7345
0.5399 0.5157 0.7361
0.7959 0.5173 0.7378
1.0000 0.5190 0.7395
0.0331 0.7599 0.7381
0.2892 0.7616 0.7398
0.5452 0.7633 0.7415
0.8013 0.7650 0.7432
1.0000 0.7666 0.7448
0.0385 1.0000 0.7435
0.2945 1.0000 0.7452
0.5506 1.0000 0.7468
0.8067 1.0000 0.7485
1.0000 1.0000 0.7502
0.0175 0.0175 0.9576
0.2736 0.0192 0.9593
0.5297 0.0209 0.9609
0.7858 0.0226 0.9626
1.0000 0.0242 0.9643
0.0229 0.2652 0.9630
0.2790 0.2669 0.9646
0.5350 0.2685 0.9663
0.7911 0.2702 0.9680
1.0000 0.2719 0.9697
0.0283 0.5128 0.9683
0.2843 0.5145 0.9700
0.5404 0.5162 0.9717
0.7965 0.5178 0.9733
1.0000 0.5195 0.9750
0.0336 0.7605 0.9737
0.2897 0.7621 0.9754
0.5458 0.7638 0.9770
0.8018 0.7655 0.9787
1.0000 0.7672 0.9804
0.0390 1.0000 0.9790
0.2951 1.0000 0.9807
0.5511 1.0000 0.9824
0.8072 1.0000 0.9841
1.0000 1.0000 0.9857
