luts/tealorange.cube
# edite look: Teal & Orange (CC0)
TITLE "Teal & Orange"
LUT_3D_SIZE 5
DOMAIN_MIN 0.0 0.0 0.0
DOMAIN_MAX 1.0 1.0 1.0
0.0000 0.0000 0.0484
0.1842 0.0000 0.0345
0.4939 0.0000 0.0200
0.8040 0.0000 0.0053
1.0000 0.0000 0.0000
0.0000 0.2258 0.0004
0.1929 0.2224 0.0000
0.5039 0.2190 0.0000
0.8152 0.2157 0.0000
1.0000 0.2124 0.0000
0.0000 0.5121 0.0000
0.2053 0.5088 0.0000
0.5170 0.5056 0.0000
0.8289 0.5024 0.0000
1.0000 0.4992 0.0000
0.0000 0.7988 0.0000
0.2196 0.7956 0.0000
0.5317 0.7924 0.0000
0.8439 0.7893 0.0000
1.0000 0.7861 0.0000
0.0000 1.0000 0.0000
0.2349 1.0000 0.0000
0.5471 1.0000 0.0000
0.8593 1.0000 0.0000
1.0000 1.0000 0.0000
0.0000 0.0000 0.3462
0.1848 0.0000 0.3320
0.4946 0.0000 0.3174
0.8050 0.0000 0.3027
1.0000 0.0000 0.2878
0.0000 0.2247 0.2978
0.1940 0.2213 0.2829
0.5051 0.2179 0.2679
0.8165 0.2146 0.2530
1.0000 0.2114 0.2380
0.0000 0.5110 0.2481
0.2066 0.5078 0.2332
0.5184 0.5045 0.2183
0.8303 0.5013 0.2036
1.0000 0.4981 0.1889
0.0000 0.7977 0.1988
0.2211 0.7946 0.1842
0.5332 0.7914 0.1698
0.8454 0.7882 0.1555
1.0000 0.7851 0.1415
0.0000 1.0000 0.1510
0.2364 1.0000 0.1371
0.5486 1.0000 0.1235
0.8608 1.0000 0.1103
1.0000 1.0000 0.0976
0.0000 0.0000 0.6439
0.1855 0.0000 0.6295
0.4955 0.0000 0.6149
0.8060 0.0000 0.6000
1.0000 0.0000 0.5851
0.0000 0.2236 0.5952
0.1951 0.2202 0.5802
0.5063 0.2168 0.5653
0.8178 0.2136 0.5503
1.0000 0.2103 0.5354
0.0000 0.5099 0.5455
0.2080 0.5067 0.5306
0.5198 0.5035 0.5157
0.8318 0.5003 0.5010
1.0000 0.4971 0.4864
0.0000 0.7967 0.4963
0.2226 0.7935 0.4817
0.5348 0.7903 0.4673
0.8470 0.7872 0.4532
1.0000 0.7840 0.4393
0.0000 1.0000 0.4486
0.2380 1.0000 0.4348
0.5501 1.0000 0.4214
0.8622 1.0000 0.4083
1.0000 1.0000 0.3960
0.0000 0.0000 0.9415
0.1862 0.0000 0.9270
0.4964 0.0000 0.9123
0.8070 0.0000 0.8974
1.0000 0.0000 0.8825
0.0000 0.2224 0.8925
0.1963 0.2191 0.8776
0.5076 0.2157 0.8626
0.8191 0.2125 0.8477
1.0000 0.2092 0.8328
0.0000 0.5089 0.8428
0.2094 0.5056 0.8280
0.5213 0.5024 0.8132
0.8333 0.4992 0.7985
1.0000 0.4960 0.7839
0.0000 0.7956 0.7937
0.2241 0.7925 0.7792
0.5363 0.7893 0.7649
0.8485 0.7861 0.7508
1.0000 0.7830 0.7370
0.0000 1.0000 0.7463
0.2395 1.0000 0.7326
0.5516 1.0000 0.7193
0.8637 1.0000 0.7065
1.0000 1.0000 0.6944
0.0000 0.0000 1.0000
0.1870 0.0000 1.0000
0.4973 0.0000 1.0000
0.8080 0.0000 1.0000
1.0000 0.0000 1.0000
0.0000 0.2213 1.0000
0.1975 0.2180 1.0000
0.5088 0.2147 1.0000
0.8204 0.2114 1.0000
1.0000 0.2082 1.0000
0.0000 0.5078 1.0000
0.2108 0.5046 1.0000
0.5227 0.5013 1.0000
0.8347 0.4982 1.0000
1.0000 0.4950 1.0000
0.0000 0.7946 1.0000
0.2256 0.7914 1.0000
0.5378 0.7883 1.0000
0.8500 0.7851 1.0000
1.0000 0.7819 1.0000
0.0000 1.0000 1.0000
0.2410 1.0000 1.0000
0.5531 1.0000 1.0000
0.8651 1.0000 1.0000
1.0000 1.0000 0.9931
