luts/tealorange.cube
# edite look: Teal & Orange (CC0)
TITLE "Teal & Orange"
LUT_3D_SIZE 9
DOMAIN_MIN 0.0 0.0 0.0
DOMAIN_MAX 1.0 1.0 1.0
0.0000 0.0000 0.0484
0.0297 0.0000 0.0416
0.1842 0.0000 0.0345
0.3390 0.0000 0.0273
0.4939 0.0000 0.0200
0.6489 0.0000 0.0126
0.8040 0.0000 0.0053
0.9593 0.0000 0.0000
1.0000 0.0000 0.0000
0.0000 0.0829 0.0249
0.0328 0.0812 0.0176
0.1879 0.0794 0.0102
0.3431 0.0777 0.0028
0.4984 0.0759 0.0000
0.6538 0.0742 0.0000
0.8092 0.0725 0.0000
0.9648 0.0709 0.0000
1.0000 0.0692 0.0000
0.0000 0.2258 0.0004
0.0375 0.2241 0.0000
0.1929 0.2224 0.0000
0.3484 0.2207 0.0000
0.5039 0.2190 0.0000
0.6596 0.2174 0.0000
0.8152 0.2157 0.0000
0.9710 0.2141 0.0000
1.0000 0.2124 0.0000
0.0000 0.3689 0.0000
0.0432 0.3672 0.0000
0.1988 0.3656 0.0000
0.3545 0.3639 0.0000
0.5102 0.3623 0.0000
0.6660 0.3606 0.0000
0.8218 0.3590 0.0000
0.9777 0.3574 0.0000
1.0000 0.3558 0.0000
0.0000 0.5121 0.0000
0.0495 0.5105 0.0000
0.2053 0.5088 0.0000
0.3611 0.5072 0.0000
0.5170 0.5056 0.0000
0.6729 0.5040 0.0000
0.8289 0.5024 0.0000
0.9849 0.5008 0.0000
1.0000 0.4992 0.0000
0.0000 0.6554 0.0000
0.0563 0.6538 0.0000
0.2123 0.6522 0.0000
0.3682 0.6506 0.0000
0.5242 0.6490 0.0000
0.6803 0.6474 0.0000
0.8363 0.6458 0.0000
0.9924 0.6442 0.0000
1.0000 0.6426 0.0000
0.0000 0.7988 0.0000
0.0636 0.7972 0.0000
0.2196 0.7956 0.0000
0.3757 0.7940 0.0000
0.5317 0.7924 0.0000
0.6878 0.7908 0.0000
0.8439 0.7893 0.0000
1.0000 0.7877 0.0000
1.0000 0.7861 0.0000
0.0000 0.9422 0.0000
0.0711 0.9406 0.0000
0.2272 0.9391 0.0000
0.3833 0.9375 0.0000
0.5394 0.9359 0.0000
0.6955 0.9343 0.0000
0.8516 0.9327 0.0000
1.0000 0.9312 0.0000
1.0000 0.9296 0.0000
0.0000 1.0000 0.0000
0.0788 1.0000 0.0000
0.2349 1.0000 0.0000
0.3910 1.0000 0.0000
0.5471 1.0000 0.0000
0.7032 1.0000 0.0000
0.8593 1.0000 0.0000
1.0000 1.0000 0.0000
1.0000 1.0000 0.0000
0.0000 0.0000 0.1974
0.0299 0.0000 0.1904
0.1845 0.0000 0.1833
0.3393 0.0000 0.1760
0.4942 0.0000 0.1687
0.6493 0.0000 0.1614
0.8045 0.0000 0.1540
0.9598 0.0000 0.1465
1.0000 0.0000 0.1391
0.0000 0.0824 0.1736
0.0332 0.0806 0.1663
0.1884 0.0788 0.1589
0.3436 0.0771 0.1515
0.4989 0.0754 0.1441
0.6543 0.0737 0.1366
0.8098 0.0720 0.1292
0.9653 0.0703 0.1217
1.0000 0.0686 0.1142
0.0000 0.2253 0.1491
0.0380 0.2235 0.1417
0.1935 0.2218 0.1342
0.3490 0.2202 0.1267
0.5045 0.2185 0.1193
0.6602 0.2168 0.1118
0.8159 0.2152 0.1043
0.9716 0.2135 0.0968
1.0000 0.2119 0.0894
0.0000 0.3683 0.1243
0.0437 0.3667 0.1168
0.1994 0.3650 0.1093
0.3551 0.3634 0.1019
0.5109 0.3617 0.0944
0.6667 0.3601 0.0869
0.8225 0.3585 0.0795
0.9784 0.3569 0.0721
1.0000 0.3553 0.0646
0.0000 0.5116 0.0994
0.0501 0.5099 0.0920
0.2060 0.5083 0.0845
0.3618 0.5067 0.0771
0.5177 0.5051 0.0696
0.6737 0.5035 0.0622
0.8296 0.5019 0.0549
0.9856 0.5003 0.0475
1.0000 0.4987 0.0402
0.0000 0.6549 0.0746
0.0570 0.6533 0.0672
0.2130 0.6517 0.0598
0.3690 0.6501 0.0525
0.5250 0.6485 0.0451
0.6810 0.6469 0.0378
0.8370 0.6453 0.0306
0.9931 0.6437 0.0233
1.0000 0.6421 0.0161
0.0000 0.7983 0.0501
0.0643 0.7967 0.0428
0.2204 0.7951 0.0355
0.3764 0.7935 0.0282
0.5325 0.7919 0.0210
0.6886 0.7903 0.0138
0.8447 0.7887 0.0067
1.0000 0.7872 0.0000
1.0000 0.7856 0.0000
0.0000 0.9417 0.0259
0.0719 0.9401 0.0187
0.2280 0.9385 0.0115
0.3841 0.9370 0.0044
0.5402 0.9354 0.0000
0.6963 0.9338 0.0000
0.8524 0.9322 0.0000
1.0000 0.9306 0.0000
1.0000 0.9291 0.0000
0.0000 1.0000 0.0021
0.0796 1.0000 0.0000
0.2357 1.0000 0.0000
0.3918 1.0000 0.0000
0.5479 1.0000 0.0000
0.7040 1.0000 0.0000
0.8600 1.0000 0.0000
1.0000 1.0000 0.0000
1.0000 1.0000 0.0000
0.0000 0.0000 0.3462
0.0302 0.0000 0.3392
0.1848 0.0000 0.3320
0.3397 0.0000 0.3248
0.4946 0.0000 0.3174
0.6498 0.0000 0.3101
0.8050 0.0000 0.3027
0.9603 0.0000 0.2952
1.0000 0.0000 0.2878
0.0000 0.0818 0.3224
0.0337 0.0800 0.3150
0.1888 0.0783 0.3077
0.3441 0.0765 0.3002
0.4994 0.0748 0.2928
0.6549 0.0731 0.2853
0.8104 0.0714 0.2779
0.9659 0.0698 0.2704
1.0000 0.0681 0.2629
0.0000 0.2247 0.2978
0.0386 0.2230 0.2904
0.1940 0.2213 0.2829
0.3495 0.2196 0.2754
0.5051 0.2179 0.2679
0.6608 0.2163 0.2605
0.8165 0.2146 0.2530
0.9723 0.2130 0.2455
1.0000 0.2114 0.2380
0.0000 0.3678 0.2730
0.0444 0.3661 0.2655
0.2000 0.3645 0.2580
0.3557 0.3628 0.2505
0.5115 0.3612 0.2431
0.6673 0.3596 0.2356
0.8232 0.3579 0.2282
0.9791 0.3563 0.2208
1.0000 0.3547 0.2133
0.0000 0.5110 0.2481
0.0508 0.5094 0.2406
0.2066 0.5078 0.2332
0.3625 0.5061 0.2258
0.5184 0.5045 0.2183
0.6744 0.5029 0.2109
0.8303 0.5013 0.2036
0.9863 0.4997 0.1962
1.0000 0.4981 0.1889
0.0000 0.6543 0.2233
0.0577 0.6527 0.2159
0.2137 0.6511 0.2085
0.3697 0.6495 0.2012
0.5257 0.6479 0.1939
0.6817 0.6463 0.1866
0.8378 0.6448 0.1793
0.9939 0.6432 0.1721
1.0000 0.6416 0.1649
0.0000 0.7977 0.1988
0.0651 0.7961 0.1915
0.2211 0.7946 0.1842
0.3772 0.7930 0.1770
0.5332 0.7914 0.1698
0.6893 0.7898 0.1626
0.8454 0.7882 0.1555
1.0000 0.7866 0.1485
1.0000 0.7851 0.1415
0.0000 0.9412 0.1746
0.0726 0.9396 0.1674
0.2287 0.9380 0.1603
0.3848 0.9364 0.1532
0.5409 0.9349 0.1462
0.6970 0.9333 0.1393
0.8532 0.9317 0.1324
1.0000 0.9301 0.1256
1.0000 0.9285 0.1189
0.0000 1.0000 0.1510
0.0803 1.0000 0.1440
0.2364 1.0000 0.1371
0.3925 1.0000 0.1302
0.5486 1.0000 0.1235
0.7047 1.0000 0.1168
0.8608 1.0000 0.1103
1.0000 1.0000 0.1039
1.0000 1.0000 0.0976
0.0000 0.0000 0.4951
0.0304 0.0000 0.4880
0.1851 0.0000 0.4808
0.3400 0.0000 0.4735
0.4951 0.0000 0.4661
0.6502 0.0000 0.4588
0.8055 0.0000 0.4513
0.9608 0.0000 0.4439
1.0000 0.0000 0.4364
0.0000 0.0812 0.4711
0.0341 0.0794 0.4637
0.1893 0.0777 0.4563
0.3446 0.0760 0.4489
0.4999 0.0742 0.4415
0.6554 0.0726 0.4340
0.8109 0.0709 0.4265
0.9665 0.0692 0.4191
1.0000 0.0676 0.4116
0.0000 0.2241 0.4465
0.0391 0.2224 0.4390
0.1946 0.2207 0.4316
0.3501 0.2191 0.4241
0.5057 0.2174 0.4166
0.6614 0.2157 0.4091
0.8171 0.2141 0.4017
0.9729 0.2125 0.3942
1.0000 0.2108 0.3867
0.0000 0.3672 0.4217
0.0450 0.3656 0.4142
0.2007 0.3639 0.4067
0.3564 0.3623 0.3992
0.5122 0.3606 0.3918
0.6680 0.3590 0.3843
0.8239 0.3574 0.3769
0.9798 0.3558 0.3694
1.0000 0.3542 0.3621
0.0000 0.5105 0.3968
0.0515 0.5088 0.3893
0.2073 0.5072 0.3819
0.3632 0.5056 0.3744
0.5191 0.5040 0.3670
0.6751 0.5024 0.3597
0.8311 0.5008 0.3523
0.9871 0.4992 0.3450
1.0000 0.4976 0.3377
0.0000 0.6538 0.3720
0.0585 0.6522 0.3646
0.2144 0.6506 0.3573
0.3704 0.6490 0.3499
0.5264 0.6474 0.3426
0.6825 0.6458 0.3353
0.8385 0.6442 0.3281
0.9946 0.6427 0.3209
1.0000 0.6411 0.3137
0.0000 0.7972 0.3475
0.0658 0.7956 0.3402
0.2218 0.7940 0.3330
0.3779 0.7924 0.3257
0.5340 0.7909 0.3186
0.6901 0.7893 0.3114
0.8462 0.7877 0.3043
1.0000 0.7861 0.2973
1.0000 0.7845 0.2904
0.0000 0.9407 0.3234
0.0734 0.9391 0.3162
0.2295 0.9375 0.3091
0.3856 0.9359 0.3021
0.5417 0.9343 0.2951
0.6978 0.9328 0.2882
0.8539 0.9312 0.2813
1.0000 0.9296 0.2746
1.0000 0.9280 0.2679
0.0000 1.0000 0.2998
0.0811 1.0000 0.2928
0.2372 1.0000 0.2859
0.3933 1.0000 0.2791
0.5494 1.0000 0.2724
0.7055 1.0000 0.2658
0.8615 1.0000 0.2593
1.0000 1.0000 0.2529
1.0000 1.0000 0.2468
0.0000 0.0000 0.6439
0.0307 0.0000 0.6368
0.1855 0.0000 0.6295
0.3404 0.0000 0.6222
0.4955 0.0000 0.6149
0.6507 0.0000 0.6075
0.8060 0.0000 0.6000
0.9613 0.0000 0.5926
1.0000 0.0000 0.5851
0.0000 0.0806 0.6198
0.0345 0.0788 0.6125
0.1898 0.0771 0.6050
0.3451 0.0754 0.5976
0.5005 0.0737 0.5902
0.6560 0.0720 0.5827
0.8115 0.0703 0.5752
0.9671 0.0687 0.5677
1.0000 0.0670 0.5602
0.0000 0.2236 0.5952
0.0396 0.2219 0.5877
0.1951 0.2202 0.5802
0.3507 0.2185 0.5728
0.5063 0.2168 0.5653
0.6620 0.2152 0.5578
0.8178 0.2136 0.5503
0.9736 0.2119 0.5429
1.0000 0.2103 0.5354
0.0000 0.3667 0.5703
0.0456 0.3650 0.5628
0.2013 0.3634 0.5554
0.3570 0.3617 0.5479
0.5129 0.3601 0.5404
0.6687 0.3585 0.5330
0.8246 0.3569 0.5256
0.9805 0.3553 0.5181
1.0000 0.3537 0.5108
0.0000 0.5099 0.5455
0.0521 0.5083 0.5380
0.2080 0.5067 0.5306
0.3639 0.5051 0.5231
0.5198 0.5035 0.5157
0.6758 0.5019 0.5084
0.8318 0.5003 0.5010
0.9878 0.4987 0.4937
1.0000 0.4971 0.4864
0.0000 0.6533 0.5207
0.0592 0.6517 0.5133
0.2151 0.6501 0.5060
0.3711 0.6485 0.4986
0.5272 0.6469 0.4913
0.6832 0.6453 0.4841
0.8393 0.6437 0.4768
0.9954 0.6421 0.4697
1.0000 0.6405 0.4625
0.0000 0.7967 0.4963
0.0665 0.7951 0.4890
0.2226 0.7935 0.4817
0.3787 0.7919 0.4745
0.5348 0.7903 0.4673
0.6909 0.7888 0.4602
0.8470 0.7872 0.4532
1.0000 0.7856 0.4462
1.0000 0.7840 0.4393
0.0000 0.9401 0.4722
0.0741 0.9386 0.4650
0.2302 0.9370 0.4579
0.3864 0.9354 0.4509
0.5425 0.9338 0.4439
0.6986 0.9322 0.4370
0.8547 0.9307 0.4302
1.0000 0.9291 0.4235
1.0000 0.9275 0.4169
0.0000 1.0000 0.4486
0.0819 1.0000 0.4417
0.2380 1.0000 0.4348
0.3941 1.0000 0.4281
0.5501 1.0000 0.4214
0.7062 1.0000 0.4148
0.8622 1.0000 0.4083
1.0000 1.0000 0.4020
1.0000 1.0000 0.3960
0.0000 0.0000 0.7927
0.0310 0.0000 0.7855
0.1858 0.0000 0.7783
0.3408 0.0000 0.7709
0.4959 0.0000 0.7636
0.6512 0.0000 0.7562
0.8065 0.0000 0.7487
0.9619 0.0000 0.7413
1.0000 0.0000 0.7338
0.0000 0.0800 0.7685
0.0350 0.0783 0.7612
0.1902 0.0765 0.7537
0.3456 0.0748 0.7463
0.5010 0.0731 0.7388
0.6565 0.0714 0.7314
0.8121 0.0698 0.7239
0.9677 0.0681 0.7164
1.0000 0.0665 0.7089
0.0000 0.2230 0.7439
0.0402 0.2213 0.7364
0.1957 0.2196 0.7289
0.3513 0.2180 0.7214
0.5070 0.2163 0.7140
0.6627 0.2146 0.7065
0.8184 0.2130 0.6990
0.9742 0.2114 0.6915
1.0000 0.2098 0.6841
0.0000 0.3661 0.7190
0.0462 0.3645 0.7115
0.2019 0.3628 0.7040
0.3577 0.3612 0.6966
0.5135 0.3596 0.6891
0.6694 0.3580 0.6817
0.8253 0.3563 0.6743
0.9812 0.3547 0.6669
1.0000 0.3531 0.6595
0.0000 0.5094 0.6941
0.0528 0.5078 0.6867
0.2087 0.5062 0.6793
0.3646 0.5045 0.6718
0.5205 0.5029 0.6644
0.6765 0.5013 0.6571
0.8325 0.4997 0.6497
0.9886 0.4981 0.6424
1.0000 0.4966 0.6352
0.0000 0.6527 0.6694
0.0599 0.6511 0.6620
0.2159 0.6495 0.6547
0.3719 0.6479 0.6474
0.5279 0.6464 0.6401
0.6840 0.6448 0.6328
0.8400 0.6432 0.6256
0.9961 0.6416 0.6184
1.0000 0.6400 0.6113
0.0000 0.7962 0.6450
0.0673 0.7946 0.6377
0.2233 0.7930 0.6305
0.3794 0.7914 0.6233
0.5355 0.7898 0.6161
0.6916 0.7882 0.6090
0.8477 0.7867 0.6020
1.0000 0.7851 0.5950
1.0000 0.7835 0.5881
0.0000 0.9396 0.6210
0.0749 0.9380 0.6138
0.2310 0.9365 0.6068
0.3871 0.9349 0.5997
0.5432 0.9333 0.5928
0.6993 0.9317 0.5859
0.8554 0.9301 0.5791
1.0000 0.9286 0.5725
1.0000 0.9270 0.5659
0.0000 1.0000 0.5975
0.0826 1.0000 0.5906
0.2387 1.0000 0.5837
0.3948 1.0000 0.5770
0.5509 1.0000 0.5703
0.7069 1.0000 0.5638
0.8630 1.0000 0.5574
1.0000 1.0000 0.5512
1.0000 1.0000 0.5452
0.0000 0.0000 0.9415
0.0313 0.0000 0.9343
0.1862 0.0000 0.9270
0.3412 0.0000 0.9197
0.4964 0.0000 0.9123
0.6516 0.0000 0.9048
0.8070 0.0000 0.8974
0.9624 0.0000 0.8899
1.0000 0.0000 0.8825
0.0000 0.0794 0.9173
0.0355 0.0777 0.9099
0.1907 0.0760 0.9024
0.3461 0.0743 0.8950
0.5016 0.0726 0.8875
0.6571 0.0709 0.8800
0.8127 0.0692 0.8726
0.9683 0.0676 0.8651
1.0000 0.0659 0.8576
0.0000 0.2224 0.8925
0.0407 0.2207 0.8851
0.1963 0.2191 0.8776
0.3519 0.2174 0.8701
0.5076 0.2157 0.8626
0.6633 0.2141 0.8552
0.8191 0.2125 0.8477
0.9749 0.2108 0.8402
1.0000 0.2092 0.8328
0.0000 0.3656 0.8677
0.0468 0.3639 0.8602
0.2026 0.3623 0.8527
0.3584 0.3607 0.8453
0.5142 0.3590 0.8378
0.6701 0.3574 0.8304
0.8260 0.3558 0.8230
0.9819 0.3542 0.8156
1.0000 0.3526 0.8082
0.0000 0.5089 0.8428
0.0535 0.5072 0.8354
0.2094 0.5056 0.8280
0.3653 0.5040 0.8205
0.5213 0.5024 0.8132
0.6772 0.5008 0.8058
0.8333 0.4992 0.7985
0.9893 0.4976 0.7912
1.0000 0.4960 0.7839
0.0000 0.6522 0.8181
0.0606 0.6506 0.8108
0.2166 0.6490 0.8034
0.3726 0.6474 0.7961
0.5287 0.6458 0.7888
0.6847 0.6442 0.7816
0.8408 0.6427 0.7744
0.9969 0.6411 0.7672
1.0000 0.6395 0.7601
0.0000 0.7956 0.7937
0.0680 0.7940 0.7865
0.2241 0.7925 0.7792
0.3802 0.7909 0.7721
0.5363 0.7893 0.7649
0.6924 0.7877 0.7579
0.8485 0.7861 0.7508
1.0000 0.7846 0.7439
1.0000 0.7830 0.7370
0.0000 0.9391 0.7697
0.0757 0.9375 0.7626
0.2318 0.9359 0.7556
0.3879 0.9344 0.7486
0.5440 0.9328 0.7417
0.7001 0.9312 0.7348
0.8562 0.9296 0.7281
1.0000 0.9280 0.7214
1.0000 0.9264 0.7149
0.0000 1.0000 0.7463
0.0834 1.0000 0.7395
0.2395 1.0000 0.7326
0.3956 1.0000 0.7259
0.5516 1.0000 0.7193
0.7077 1.0000 0.7128
0.8637 1.0000 0.7065
1.0000 1.0000 0.7003
1.0000 1.0000 0.6944
0.0000 0.0000 1.0000
0.0316 0.0000 1.0000
0.1866 0.0000 1.0000
0.3417 0.0000 1.0000
0.4968 0.0000 1.0000
0.6521 0.0000 1.0000
0.8075 0.0000 1.0000
0.9630 0.0000 1.0000
1.0000 0.0000 1.0000
0.0000 0.0788 1.0000
0.0359 0.0771 1.0000
0.1912 0.0754 1.0000
0.3467 0.0737 1.0000
0.5021 0.0720 1.0000
0.6577 0.0703 1.0000
0.8133 0.0687 1.0000
0.9690 0.0670 1.0000
1.0000 0.0654 1.0000
0.0000 0.2219 1.0000
0.0413 0.2202 1.0000
0.1969 0.2185 1.0000
0.3525 0.2169 1.0000
0.5082 0.2152 1.0000
0.6640 0.2136 1.0000
0.8197 0.2119 0.9964
0.9756 0.2103 0.9889
1.0000 0.2087 0.9815
0.0000 0.3650 1.0000
0.0475 0.3634 1.0000
0.2032 0.3618 1.0000
0.3590 0.3601 0.9939
0.5149 0.3585 0.9865
0.6708 0.3569 0.9791
0.8267 0.3553 0.9717
0.9826 0.3537 0.9643
1.0000 0.3521 0.9569
0.0000 0.5083 0.9915
0.0542 0.5067 0.9841
0.2101 0.5051 0.9766
0.3660 0.5035 0.9692
0.5220 0.5019 0.9619
0.6780 0.5003 0.9545
0.8340 0.4987 0.9472
0.9900 0.4971 0.9399
1.0000 0.4955 0.9327
0.0000 0.6517 0.9668
0.0613 0.6501 0.9595
0.2173 0.6485 0.9521
0.3734 0.6469 0.9448
0.5294 0.6453 0.9376
0.6855 0.6437 0.9303
0.8416 0.6421 0.9232
0.9977 0.6406 0.9160
1.0000 0.6390 0.9090
0.0000 0.7951 0.9425
0.0688 0.7935 0.9352
0.2249 0.7919 0.9280
0.3809 0.7904 0.9208
0.5370 0.7888 0.9137
0.6931 0.7872 0.9067
0.8493 0.7856 0.8997
1.0000 0.7840 0.8928
1.0000 0.7825 0.8859
0.0000 0.9386 0.9185
0.0764 0.9370 0.9114
0.2325 0.9354 0.9044
0.3887 0.9338 0.8974
0.5448 0.9323 0.8906
0.7009 0.9307 0.8837
0.8570 0.9291 0.8770
1.0000 0.9275 0.8704
1.0000 0.9259 0.8639
0.0000 1.0000 0.8952
0.0841 1.0000 0.8883
0.2402 1.0000 0.8816
0.3963 1.0000 0.8749
0.5524 1.0000 0.8683
0.7084 1.0000 0.8619
0.8644 1.0000 0.8556
1.0000 1.0000 0.8495
1.0000 1.0000 0.8437
0.0000 0.0000 1.0000
0.0320 0.0000 1.0000
0.1870 0.0000 1.0000
0.3421 0.0000 1.0000
0.4973 0.0000 1.0000
0.6526 0.0000 1.0000
0.8080 0.0000 1.0000
0.9635 0.0000 1.0000
1.0000 0.0000 1.0000
0.0000 0.0783 1.0000
0.0364 0.0765 1.0000
0.1918 0.0748 1.0000
0.3472 0.0731 1.0000
0.5027 0.0715 1.0000
0.6583 0.0698 1.0000
0.8139 0.0681 1.0000
0.9696 0.0665 1.0000
1.0000 0.0648 1.0000
0.0000 0.2213 1.0000
0.0419 0.2196 1.0000
0.1975 0.2180 1.0000
0.3531 0.2163 1.0000
0.5088 0.2147 1.0000
0.6646 0.2130 1.0000
0.8204 0.2114 1.0000
0.9763 0.2098 1.0000
1.0000 0.2082 1.0000
0.0000 0.3645 1.0000
0.0481 0.3628 1.0000
0.2039 0.3612 1.0000
0.3597 0.3596 1.0000
0.5156 0.3580 1.0000
0.6715 0.3564 1.0000
0.8274 0.3547 1.0000
0.9834 0.3531 1.0000
1.0000 0.3515 1.0000
0.0000 0.5078 1.0000
0.0549 0.5062 1.0000
0.2108 0.5046 1.0000
0.3667 0.5029 1.0000
0.5227 0.5013 1.0000
0.6787 0.4998 1.0000
0.8347 0.4982 1.0000
0.9908 0.4966 1.0000
1.0000 0.4950 1.0000
0.0000 0.6512 1.0000
0.0621 0.6496 1.0000
0.2181 0.6480 1.0000
0.3741 0.6464 1.0000
0.5302 0.6448 1.0000
0.6862 0.6432 1.0000
0.8423 0.6416 1.0000
0.9984 0.6400 1.0000
1.0000 0.6385 1.0000
0.0000 0.7946 1.0000
0.0695 0.7930 1.0000
0.2256 0.7914 1.0000
0.3817 0.7898 1.0000
0.5378 0.7883 1.0000
0.6939 0.7867 1.0000
0.8500 0.7851 1.0000
1.0000 0.7835 1.0000
1.0000 0.7819 1.0000
0.0000 0.9380 1.0000
0.0772 0.9365 1.0000
0.2333 0.9349 1.0000
0.3894 0.9333 1.0000
0.5455 0.9317 1.0000
0.7016 0.9302 1.0000
0.8577 0.9286 1.0000
1.0000 0.9270 1.0000
1.0000 0.9254 1.0000
0.0000 1.0000 1.0000
0.0849 1.0000 1.0000
0.2410 1.0000 1.0000
0.3971 1.0000 1.0000
0.5531 1.0000 1.0000
0.7091 1.0000 1.0000
0.8651 1.0000 1.0000
1.0000 1.0000 0.9987
1.0000 1.0000 0.9931
