luts/tealorange.cube
# edite look: Teal & Orange (CC0)
TITLE "Teal & Orange"
LUT_3D_SIZE 17
DOMAIN_MIN 0.0 0.0 0.0
DOMAIN_MAX 1.0 1.0 1.0
0.0000 0.0000 0.0484
0.0000 0.0000 0.0451
0.0297 0.0000 0.0416
0.1070 0.0000 0.0380
0.1842 0.0000 0.0345
0.2616 0.0000 0.0309
0.3390 0.0000 0.0273
0.4164 0.0000 0.0236
0.4939 0.0000 0.0200
0.5714 0.0000 0.0163
0.6489 0.0000 0.0126
0.7265 0.0000 0.0090
0.8040 0.0000 0.0053
0.8817 0.0000 0.0016
0.9593 0.0000 0.0000
1.0000 0.0000 0.0000
1.0000 0.0000 0.0000
0.0000 0.0116 0.0369
0.0000 0.0107 0.0333
0.0310 0.0098 0.0297
0.1084 0.0089 0.0261
0.1859 0.0080 0.0225
0.2634 0.0071 0.0188
0.3409 0.0062 0.0151
0.4184 0.0053 0.0114
0.4960 0.0045 0.0078
0.5736 0.0036 0.0041
0.6512 0.0027 0.0003
0.7288 0.0019 0.0000
0.8065 0.0010 0.0000
0.8842 0.0002 0.0000
0.9619 0.0000 0.0000
1.0000 0.0000 0.0000
1.0000 0.0000 0.0000
0.0000 0.0829 0.0249
0.0000 0.0821 0.0213
0.0328 0.0812 0.0176
0.1104 0.0803 0.0139
0.1879 0.0794 0.0102
0.2655 0.0785 0.0065
0.3431 0.0777 0.0028
0.4207 0.0768 0.0000
0.4984 0.0759 0.0000
0.5761 0.0751 0.0000
0.6538 0.0742 0.0000
0.7315 0.0734 0.0000
0.8092 0.0725 0.0000
0.8870 0.0717 0.0000
0.9648 0.0709 0.0000
1.0000 0.0700 0.0000
1.0000 0.0692 0.0000
0.0000 0.1544 0.0127
0.0000 0.1535 0.0090
0.0350 0.1526 0.0053
0.1127 0.1517 0.0016
0.1903 0.1509 0.0000
0.2680 0.1500 0.0000
0.3456 0.1492 0.0000
0.4233 0.1483 0.0000
0.5011 0.1475 0.0000
0.5788 0.1466 0.0000
0.6566 0.1458 0.0000
0.7344 0.1450 0.0000
0.8121 0.1441 0.0000
0.8900 0.1433 0.0000
0.9678 0.1425 0.0000
1.0000 0.1416 0.0000
1.0000 0.1408 0.0000
0.0000 0.2258 0.0004
0.0000 0.2250 0.0000
0.0375 0.2241 0.0000
0.1152 0.2233 0.0000
0.1929 0.2224 0.0000
0.2707 0.2216 0.0000
0.3484 0.2207 0.0000
0.4262 0.2199 0.0000
0.5039 0.2190 0.0000
0.5817 0.2182 0.0000
0.6596 0.2174 0.0000
0.7374 0.2166 0.0000
0.8152 0.2157 0.0000
0.8931 0.2149 0.0000
0.9710 0.2141 0.0000
1.0000 0.2133 0.0000
1.0000 0.2124 0.0000
0.0000 0.2973 0.0000
0.0000 0.2965 0.0000
0.0402 0.2956 0.0000
0.1180 0.2948 0.0000
0.1958 0.2940 0.0000
0.2736 0.2931 0.0000
0.3514 0.2923 0.0000
0.4292 0.2915 0.0000
0.5070 0.2906 0.0000
0.5849 0.2898 0.0000
0.6627 0.2890 0.0000
0.7406 0.2882 0.0000
0.8185 0.2874 0.0000
0.8964 0.2865 0.0000
0.9743 0.2857 0.0000
1.0000 0.2849 0.0000
1.0000 0.2841 0.0000
0.0000 0.3689 0.0000
0.0000 0.3681 0.0000
0.0432 0.3672 0.0000
0.1210 0.3664 0.0000
0.1988 0.3656 0.0000
0.2766 0.3647 0.0000
0.3545 0.3639 0.0000
0.4323 0.3631 0.0000
0.5102 0.3623 0.0000
0.5881 0.3615 0.0000
0.6660 0.3606 0.0000
0.7439 0.3598 0.0000
0.8218 0.3590 0.0000
0.8998 0.3582 0.0000
0.9777 0.3574 0.0000
1.0000 0.3566 0.0000
1.0000 0.3558 0.0000
0.0000 0.4405 0.0000
0.0000 0.4397 0.0000
0.0462 0.4388 0.0000
0.1241 0.4380 0.0000
0.2020 0.4372 0.0000
0.2799 0.4364 0.0000
0.3577 0.4355 0.0000
0.4356 0.4347 0.0000
0.5136 0.4339 0.0000
0.5915 0.4331 0.0000
0.6694 0.4323 0.0000
0.7474 0.4315 0.0000
0.8253 0.4307 0.0000
0.9033 0.4299 0.0000
0.9813 0.4291 0.0000
1.0000 0.4283 0.0000
1.0000 0.4275 0.0000
0.0000 0.5121 0.0000
0.0000 0.5113 0.0000
0.0495 0.5105 0.0000
0.1274 0.5096 0.0000
0.2053 0.5088 0.0000
0.2832 0.5080 0.0000
0.3611 0.5072 0.0000
0.4391 0.5064 0.0000
0.5170 0.5056 0.0000
0.5950 0.5048 0.0000
0.6729 0.5040 0.0000
0.7509 0.5032 0.0000
0.8289 0.5024 0.0000
0.9069 0.5016 0.0000
0.9849 0.5008 0.0000
1.0000 0.5000 0.0000
1.0000 0.4992 0.0000
0.0000 0.5837 0.0000
0.0000 0.5829 0.0000
0.0529 0.5821 0.0000
0.1308 0.5813 0.0000
0.2087 0.5805 0.0000
0.2867 0.5797 0.0000
0.3646 0.5789 0.0000
0.4426 0.5781 0.0000
0.5206 0.5773 0.0000
0.5986 0.5765 0.0000
0.6766 0.5757 0.0000
0.7546 0.5749 0.0000
0.8326 0.5741 0.0000
0.9106 0.5733 0.0000
0.9886 0.5725 0.0000
1.0000 0.5717 0.0000
1.0000 0.5709 0.0000
0.0000 0.6554 0.0000
0.0000 0.6546 0.0000
0.0563 0.6538 0.0000
0.1343 0.6530 0.0000
0.2123 0.6522 0.0000
0.2903 0.6514 0.0000
0.3682 0.6506 0.0000
0.4462 0.6498 0.0000
0.5242 0.6490 0.0000
0.6022 0.6482 0.0000
0.6803 0.6474 0.0000
0.7583 0.6466 0.0000
0.8363 0.6458 0.0000
0.9143 0.6450 0.0000
0.9924 0.6442 0.0000
1.0000 0.6434 0.0000
1.0000 0.6426 0.0000
0.0000 0.7271 0.0000
0.0000 0.7263 0.0000
0.0599 0.7255 0.0000
0.1379 0.7247 0.0000
0.2159 0.7239 0.0000
0.2939 0.7231 0.0000
0.3719 0.7223 0.0000
0.4499 0.7215 0.0000
0.5280 0.7207 0.0000
0.6060 0.7199 0.0000
0.6840 0.7191 0.0000
0.7620 0.7183 0.0000
0.8401 0.7175 0.0000
0.9181 0.7167 0.0000
0.9962 0.7160 0.0000
1.0000 0.7152 0.0000
1.0000 0.7144 0.0000
0.0000 0.7988 0.0000
0.0000 0.7980 0.0000
0.0636 0.7972 0.0000
0.1416 0.7964 0.0000
0.2196 0.7956 0.0000
0.2976 0.7948 0.0000
0.3757 0.7940 0.0000
0.4537 0.7932 0.0000
0.5317 0.7924 0.0000
0.6098 0.7916 0.0000
0.6878 0.7908 0.0000
0.7659 0.7901 0.0000
0.8439 0.7893 0.0000
0.9220 0.7885 0.0000
1.0000 0.7877 0.0000
1.0000 0.7869 0.0000
1.0000 0.7861 0.0000
0.0000 0.8705 0.0000
0.0000 0.8697 0.0000
0.0673 0.8689 0.0000
0.1454 0.8681 0.0000
0.2234 0.8673 0.0000
0.3014 0.8665 0.0000
0.3795 0.8657 0.0000
0.4575 0.8650 0.0000
0.5356 0.8642 0.0000
0.6136 0.8634 0.0000
0.6917 0.8626 0.0000
0.7697 0.8618 0.0000
0.8478 0.8610 0.0000
0.9258 0.8602 0.0000
1.0000 0.8594 0.0000
1.0000 0.8586 0.0000
1.0000 0.8579 0.0000
0.0000 0.9422 0.0000
0.0000 0.9414 0.0000
0.0711 0.9406 0.0000
0.1492 0.9398 0.0000
0.2272 0.9391 0.0000
0.3052 0.9383 0.0000
0.3833 0.9375 0.0000
0.4614 0.9367 0.0000
0.5394 0.9359 0.0000
0.6175 0.9351 0.0000
0.6955 0.9343 0.0000
0.7736 0.9335 0.0000
0.8516 0.9327 0.0000
0.9297 0.9320 0.0000
1.0000 0.9312 0.0000
1.0000 0.9304 0.0000
1.0000 0.9296 0.0000
0.0000 1.0000 0.0000
0.0000 1.0000 0.0000
0.0749 1.0000 0.0000
0.1530 1.0000 0.0000
0.2310 1.0000 0.0000
0.3091 1.0000 0.0000
0.3872 1.0000 0.0000
0.4652 1.0000 0.0000
0.5433 1.0000 0.0000
0.6213 1.0000 0.0000
0.6994 1.0000 0.0000
0.7774 1.0000 0.0000
0.8555 1.0000 0.0000
0.9335 1.0000 0.0000
1.0000 1.0000 0.0000
1.0000 1.0000 0.0000
1.0000 1.0000 0.0000
0.0000 1.0000 0.0000
0.0007 1.0000 0.0000
0.0788 1.0000 0.0000
0.1569 1.0000 0.0000
0.2349 1.0000 0.0000
0.3130 1.0000 0.0000
0.3910 1.0000 0.0000
0.4691 1.0000 0.0000
0.5471 1.0000 0.0000
0.6252 1.0000 0.0000
0.7032 1.0000 0.0000
0.7812 1.0000 0.0000
0.8593 1.0000 0.0000
0.9373 1.0000 0.0000
1.0000 1.0000 0.0000
1.0000 1.0000 0.0000
1.0000 1.0000 0.0000
0.0000 0.0000 0.1229
0.0000 0.0000 0.1195
0.0298 0.0000 0.1160
0.1071 0.0000 0.1124
0.1844 0.0000 0.1089
0.2617 0.0000 0.1053
0.3391 0.0000 0.1016
0.4166 0.0000 0.0980
0.4941 0.0000 0.0943
0.5716 0.0000 0.0907
0.6491 0.0000 0.0870
0.7267 0.0000 0.0833
0.8043 0.0000 0.0796
0.8819 0.0000 0.0759
0.9595 0.0000 0.0722
1.0000 0.0000 0.0685
1.0000 0.0000 0.0647
0.0000 0.0113 0.1113
0.0000 0.0104 0.1077
0.0312 0.0095 0.1041
0.1086 0.0086 0.1005
0.1861 0.0077 0.0968
0.2635 0.0068 0.0932
0.3411 0.0059 0.0895
0.4186 0.0050 0.0858
0.4962 0.0042 0.0821
0.5738 0.0033 0.0784
0.6514 0.0024 0.0747
0.7291 0.0016 0.0710
0.8068 0.0007 0.0673
0.8845 0.0000 0.0635
0.9622 0.0000 0.0598
1.0000 0.0000 0.0561
1.0000 0.0000 0.0523
0.0000 0.0827 0.0993
0.0000 0.0818 0.0956
0.0330 0.0809 0.0920
0.1106 0.0800 0.0883
0.1881 0.0791 0.0846
0.2657 0.0782 0.0809
0.3434 0.0774 0.0772
0.4210 0.0765 0.0735
0.4987 0.0757 0.0698
0.5763 0.0748 0.0660
0.6540 0.0740 0.0623
0.7318 0.0731 0.0586
0.8095 0.0723 0.0548
0.8873 0.0714 0.0511
0.9650 0.0706 0.0474
1.0000 0.0698 0.0436
1.0000 0.0689 0.0399
0.0000 0.1541 0.0871
0.0000 0.1532 0.0834
0.0353 0.1523 0.0797
0.1129 0.1515 0.0760
0.1905 0.1506 0.0723
0.2682 0.1497 0.0685
0.3459 0.1489 0.0648
0.4236 0.1480 0.0611
0.5013 0.1472 0.0574
0.5791 0.1464 0.0536
0.6569 0.1455 0.0499
0.7346 0.1447 0.0461
0.8124 0.1438 0.0424
0.8903 0.1430 0.0387
0.9681 0.1422 0.0349
1.0000 0.1414 0.0312
1.0000 0.1405 0.0274
0.0000 0.2255 0.0748
0.0000 0.2247 0.0711
0.0378 0.2238 0.0673
0.1155 0.2230 0.0636
0.1932 0.2221 0.0599
0.2709 0.2213 0.0561
0.3487 0.2204 0.0524
0.4265 0.2196 0.0487
0.5042 0.2188 0.0449
0.5820 0.2179 0.0412
0.6599 0.2171 0.0374
0.7377 0.2163 0.0337
0.8155 0.2155 0.0300
0.8934 0.2146 0.0262
0.9713 0.2138 0.0225
1.0000 0.2130 0.0188
1.0000 0.2122 0.0150
0.0000 0.2971 0.0624
0.0000 0.2962 0.0587
0.0405 0.2954 0.0549
0.1183 0.2945 0.0512
0.1961 0.2937 0.0475
0.2738 0.2929 0.0437
0.3517 0.2920 0.0400
0.4295 0.2912 0.0362
0.5073 0.2904 0.0325
0.5852 0.2895 0.0287
0.6630 0.2887 0.0250
0.7409 0.2879 0.0213
0.8188 0.2871 0.0175
0.8967 0.2863 0.0138
0.9746 0.2855 0.0101
1.0000 0.2846 0.0064
1.0000 0.2838 0.0026
0.0000 0.3686 0.0500
0.0000 0.3678 0.0462
0.0434 0.3669 0.0425
0.1213 0.3661 0.0388
0.1991 0.3653 0.0350
0.2769 0.3645 0.0313
0.3548 0.3636 0.0275
0.4327 0.3628 0.0238
0.5105 0.3620 0.0201
0.5884 0.3612 0.0163
0.6663 0.3604 0.0126
0.7443 0.3596 0.0089
0.8222 0.3587 0.0051
0.9001 0.3579 0.0014
0.9781 0.3571 0.0000
1.0000 0.3563 0.0000
1.0000 0.3555 0.0000
0.0000 0.4402 0.0375
0.0000 0.4394 0.0338
0.0466 0.4386 0.0301
0.1244 0.4377 0.0263
0.2023 0.4369 0.0226
0.2802 0.4361 0.0188
0.3581 0.4353 0.0151
0.4360 0.4345 0.0114
0.5139 0.4337 0.0077
0.5918 0.4328 0.0039
0.6698 0.4320 0.0002
0.7477 0.4312 0.0000
0.8257 0.4304 0.0000
0.9036 0.4296 0.0000
0.9816 0.4288 0.0000
1.0000 0.4280 0.0000
1.0000 0.4272 0.0000
0.0000 0.5118 0.0251
0.0000 0.5110 0.0214
0.0498 0.5102 0.0176
0.1277 0.5094 0.0139
0.2056 0.5086 0.0102
0.2835 0.5078 0.0064
0.3615 0.5069 0.0027
0.4394 0.5061 0.0000
0.5174 0.5053 0.0000
0.5953 0.5045 0.0000
0.6733 0.5037 0.0000
0.7513 0.5029 0.0000
0.8293 0.5021 0.0000
0.9072 0.5013 0.0000
0.9852 0.5005 0.0000
1.0000 0.4997 0.0000
1.0000 0.4989 0.0000
0.0000 0.5835 0.0127
0.0000 0.5827 0.0090
0.0532 0.5818 0.0052
0.1311 0.5810 0.0015
0.2091 0.5802 0.0000
0.2870 0.5794 0.0000
0.3650 0.5786 0.0000
0.4430 0.5778 0.0000
0.5209 0.5770 0.0000
0.5989 0.5762 0.0000
0.6769 0.5754 0.0000
0.7549 0.5746 0.0000
0.8329 0.5738 0.0000
0.9109 0.5730 0.0000
0.9890 0.5722 0.0000
1.0000 0.5714 0.0000
1.0000 0.5706 0.0000
0.0000 0.6551 0.0003
0.0000 0.6543 0.0000
0.0567 0.6535 0.0000
0.1347 0.6527 0.0000
0.2126 0.6519 0.0000
0.2906 0.6511 0.0000
0.3686 0.6503 0.0000
0.4466 0.6495 0.0000
0.5246 0.6487 0.0000
0.6026 0.6479 0.0000
0.6806 0.6471 0.0000
0.7586 0.6463 0.0000
0.8367 0.6455 0.0000
0.9147 0.6448 0.0000
0.9927 0.6440 0.0000
1.0000 0.6432 0.0000
1.0000 0.6424 0.0000
0.0000 0.7268 0.0000
0.0000 0.7260 0.0000
0.0603 0.7252 0.0000
0.1383 0.7244 0.0000
0.2163 0.7236 0.0000
0.2943 0.7228 0.0000
0.3723 0.7220 0.0000
0.4503 0.7212 0.0000
0.5283 0.7204 0.0000
0.6064 0.7196 0.0000
0.6844 0.7189 0.0000
0.7624 0.7181 0.0000
0.8405 0.7173 0.0000
0.9185 0.7165 0.0000
0.9965 0.7157 0.0000
1.0000 0.7149 0.0000
1.0000 0.7141 0.0000
0.0000 0.7985 0.0000
0.0000 0.7977 0.0000
0.0640 0.7969 0.0000
0.1420 0.7961 0.0000
0.2200 0.7953 0.0000
0.2980 0.7945 0.0000
0.3760 0.7938 0.0000
0.4541 0.7930 0.0000
0.5321 0.7922 0.0000
0.6102 0.7914 0.0000
0.6882 0.7906 0.0000
0.7662 0.7898 0.0000
0.8443 0.7890 0.0000
0.9223 0.7882 0.0000
1.0000 0.7874 0.0000
1.0000 0.7866 0.0000
1.0000 0.7859 0.0000
0.0000 0.8702 0.0000
0.0000 0.8694 0.0000
0.0677 0.8686 0.0000
0.1457 0.8679 0.0000
0.2238 0.8671 0.0000
0.3018 0.8663 0.0000
0.3798 0.8655 0.0000
0.4579 0.8647 0.0000
0.5359 0.8639 0.0000
0.6140 0.8631 0.0000
0.6920 0.8623 0.0000
0.7701 0.8615 0.0000
0.8481 0.8607 0.0000
0.9262 0.8600 0.0000
1.0000 0.8592 0.0000
1.0000 0.8584 0.0000
1.0000 0.8576 0.0000
0.0000 0.9420 0.0000
0.0000 0.9412 0.0000
0.0715 0.9404 0.0000
0.1495 0.9396 0.0000
0.2276 0.9388 0.0000
0.3056 0.9380 0.0000
0.3837 0.9372 0.0000
0.4617 0.9364 0.0000
0.5398 0.9356 0.0000
0.6178 0.9349 0.0000
0.6959 0.9341 0.0000
0.7740 0.9333 0.0000
0.8520 0.9325 0.0000
0.9301 0.9317 0.0000
1.0000 0.9309 0.0000
1.0000 0.9301 0.0000
1.0000 0.9293 0.0000
0.0000 1.0000 0.0000
0.0000 1.0000 0.0000
0.0753 1.0000 0.0000
0.1534 1.0000 0.0000
0.2314 1.0000 0.0000
0.3095 1.0000 0.0000
0.3875 1.0000 0.0000
0.4656 1.0000 0.0000
0.5436 1.0000 0.0000
0.6217 1.0000 0.0000
0.6998 1.0000 0.0000
0.7778 1.0000 0.0000
0.8559 1.0000 0.0000
0.9339 1.0000 0.0000
1.0000 1.0000 0.0000
1.0000 1.0000 0.0000
1.0000 1.0000 0.0000
0.0000 1.0000 0.0000
0.0011 1.0000 0.0000
0.0792 1.0000 0.0000
0.1572 1.0000 0.0000
0.2353 1.0000 0.0000
0.3133 1.0000 0.0000
0.3914 1.0000 0.0000
0.4694 1.0000 0.0000
0.5475 1.0000 0.0000
0.6255 1.0000 0.0000
0.7036 1.0000 0.0000
0.7816 1.0000 0.0000
0.8597 1.0000 0.0000
0.9377 1.0000 0.0000
1.0000 1.0000 0.0000
1.0000 1.0000 0.0000
1.0000 1.0000 0.0000
0.0000 0.0000 0.1974
0.0000 0.0000 0.1939
0.0299 0.0000 0.1904
0.1072 0.0000 0.1868
0.1845 0.0000 0.1833
0.2619 0.0000 0.1796
0.3393 0.0000 0.1760
0.4168 0.0000 0.1724
0.4942 0.0000 0.1687
0.5718 0.0000 0.1650
0.6493 0.0000 0.1614
0.7269 0.0000 0.1577
0.8045 0.0000 0.1540
0.8821 0.0000 0.1502
0.9598 0.0000 0.1465
1.0000 0.0000 0.1428
1.0000 0.0000 0.1391
0.0000 0.0110 0.1857
0.0000 0.0101 0.1821
0.0313 0.0092 0.1785
0.1088 0.0083 0.1748
0.1862 0.0074 0.1712
0.2637 0.0065 0.1675
0.3413 0.0056 0.1638
0.4188 0.0048 0.1602
0.4964 0.0039 0.1565
0.5740 0.0030 0.1527
0.6517 0.0022 0.1490
0.7294 0.0013 0.1453
0.8070 0.0004 0.1416
0.8847 0.0000 0.1379
0.9625 0.0000 0.1341
1.0000 0.0000 0.1304
1.0000 0.0000 0.1267
0.0000 0.0824 0.1736
0.0000 0.0815 0.1700
0.0332 0.0806 0.1663
0.1108 0.0797 0.1626
0.1884 0.0788 0.1589
0.2660 0.0780 0.1552
0.3436 0.0771 0.1515
0.4212 0.0762 0.1478
0.4989 0.0754 0.1441
0.5766 0.0745 0.1404
0.6543 0.0737 0.1366
0.7320 0.0728 0.1329
0.8098 0.0720 0.1292
0.8876 0.0711 0.1254
0.9653 0.0703 0.1217
1.0000 0.0695 0.1180
1.0000 0.0686 0.1142
0.0000 0.1538 0.1614
0.0000 0.1529 0.1577
0.0355 0.1520 0.1540
0.1131 0.1512 0.1503
0.1908 0.1503 0.1466
0.2685 0.1495 0.1429
0.3462 0.1486 0.1392
0.4239 0.1478 0.1354
0.5016 0.1469 0.1317
0.5794 0.1461 0.1280
0.6571 0.1452 0.1242
0.7349 0.1444 0.1205
0.8127 0.1436 0.1167
0.8906 0.1427 0.1130
0.9684 0.1419 0.1093
1.0000 0.1411 0.1055
1.0000 0.1403 0.1018
0.0000 0.2253 0.1491
0.0000 0.2244 0.1454
0.0380 0.2235 0.1417
0.1157 0.2227 0.1380
0.1935 0.2218 0.1342
0.2712 0.2210 0.1305
0.3490 0.2202 0.1267
0.4267 0.2193 0.1230
0.5045 0.2185 0.1193
0.5823 0.2177 0.1155
0.6602 0.2168 0.1118
0.7380 0.2160 0.1080
0.8159 0.2152 0.1043
0.8937 0.2144 0.1006
0.9716 0.2135 0.0968
1.0000 0.2127 0.0931
1.0000 0.2119 0.0894
0.0000 0.2968 0.1367
0.0000 0.2959 0.1330
0.0408 0.2951 0.1293
0.1186 0.2943 0.1255
0.1963 0.2934 0.1218
0.2741 0.2926 0.1180
0.3520 0.2918 0.1143
0.4298 0.2909 0.1106
0.5076 0.2901 0.1068
0.5855 0.2893 0.1031
0.6634 0.2885 0.0993
0.7412 0.2876 0.0956
0.8191 0.2868 0.0919
0.8970 0.2860 0.0881
0.9749 0.2852 0.0844
1.0000 0.2844 0.0807
1.0000 0.2836 0.0770
0.0000 0.3683 0.1243
0.0000 0.3675 0.1206
0.0437 0.3667 0.1168
0.1216 0.3658 0.1131
0.1994 0.3650 0.1093
0.2772 0.3642 0.1056
0.3551 0.3634 0.1019
0.4330 0.3625 0.0981
0.5109 0.3617 0.0944
0.5888 0.3609 0.0907
0.6667 0.3601 0.0869
0.7446 0.3593 0.0832
0.8225 0.3585 0.0795
0.9005 0.3577 0.0758
0.9784 0.3569 0.0721
1.0000 0.3561 0.0683
1.0000 0.3553 0.0646
0.0000 0.4399 0.1119
0.0000 0.4391 0.1081
0.0469 0.4383 0.1044
0.1247 0.4375 0.1007
0.2026 0.4366 0.0969
0.2805 0.4358 0.0932
0.3584 0.4350 0.0894
0.4363 0.4342 0.0857
0.5142 0.4334 0.0820
0.5922 0.4326 0.0783
0.6701 0.4318 0.0746
0.7481 0.4310 0.0708
0.8260 0.4302 0.0671
0.9040 0.4294 0.0634
0.9820 0.4285 0.0597
1.0000 0.4277 0.0561
1.0000 0.4269 0.0524
0.0000 0.5116 0.0994
0.0000 0.5107 0.0957
0.0501 0.5099 0.0920
0.1280 0.5091 0.0882
0.2060 0.5083 0.0845
0.2839 0.5075 0.0808
0.3618 0.5067 0.0771
0.4398 0.5059 0.0734
0.5177 0.5051 0.0696
0.5957 0.5043 0.0659
0.6737 0.5035 0.0622
0.7516 0.5027 0.0585
0.8296 0.5019 0.0549
0.9076 0.5011 0.0512
0.9856 0.5003 0.0475
1.0000 0.4995 0.0438
1.0000 0.4987 0.0402
0.0000 0.5832 0.0870
0.0000 0.5824 0.0833
0.0535 0.5816 0.0796
0.1315 0.5808 0.0759
0.2094 0.5800 0.0721
0.2874 0.5792 0.0684
0.3653 0.5784 0.0647
0.4433 0.5776 0.0610
0.5213 0.5768 0.0573
0.5993 0.5760 0.0537
0.6773 0.5752 0.0500
0.7553 0.5744 0.0463
0.8333 0.5736 0.0427
0.9113 0.5728 0.0390
0.9893 0.5720 0.0354
1.0000 0.5712 0.0317
1.0000 0.5704 0.0281
0.0000 0.6549 0.0746
0.0000 0.6541 0.0709
0.0570 0.6533 0.0672
0.1350 0.6525 0.0635
0.2130 0.6517 0.0598
0.2910 0.6509 0.0561
0.3690 0.6501 0.0525
0.4470 0.6493 0.0488
0.5250 0.6485 0.0451
0.6030 0.6477 0.0415
0.6810 0.6469 0.0378
0.7590 0.6461 0.0342
0.8370 0.6453 0.0306
0.9151 0.6445 0.0269
0.9931 0.6437 0.0233
1.0000 0.6429 0.0197
1.0000 0.6421 0.0161
0.0000 0.7266 0.0623
0.0000 0.7258 0.0586
0.0606 0.7250 0.0550
0.1386 0.7242 0.0513
0.2166 0.7234 0.0476
0.2946 0.7226 0.0439
0.3727 0.7218 0.0403
0.4507 0.7210 0.0366
0.5287 0.7202 0.0330
0.6067 0.7194 0.0294
0.6848 0.7186 0.0258
0.7628 0.7178 0.0222
0.8408 0.7170 0.0186
0.9189 0.7162 0.0150
0.9969 0.7154 0.0114
1.0000 0.7146 0.0079
1.0000 0.7139 0.0043
0.0000 0.7983 0.0501
0.0000 0.7975 0.0464
0.0643 0.7967 0.0428
0.1423 0.7959 0.0391
0.2204 0.7951 0.0355
0.2984 0.7943 0.0318
0.3764 0.7935 0.0282
0.4544 0.7927 0.0246
0.5325 0.7919 0.0210
0.6105 0.7911 0.0174
0.6886 0.7903 0.0138
0.7666 0.7895 0.0103
0.8447 0.7887 0.0067
0.9227 0.7880 0.0032
1.0000 0.7872 0.0000
1.0000 0.7864 0.0000
1.0000 0.7856 0.0000
0.0000 0.8700 0.0379
0.0000 0.8692 0.0343
0.0681 0.8684 0.0307
0.1461 0.8676 0.0270
0.2241 0.8668 0.0234
0.3022 0.8660 0.0198
0.3802 0.8652 0.0162
0.4583 0.8644 0.0127
0.5363 0.8636 0.0091
0.6144 0.8629 0.0056
0.6924 0.8621 0.0020
0.7705 0.8613 0.0000
0.8485 0.8605 0.0000
0.9266 0.8597 0.0000
1.0000 0.8589 0.0000
1.0000 0.8581 0.0000
1.0000 0.8573 0.0000
0.0000 0.9417 0.0259
0.0000 0.9409 0.0223
0.0719 0.9401 0.0187
0.1499 0.9393 0.0151
0.2280 0.9385 0.0115
0.3060 0.9377 0.0080
0.3841 0.9370 0.0044
0.4621 0.9362 0.0009
0.5402 0.9354 0.0000
0.6182 0.9346 0.0000
0.6963 0.9338 0.0000
0.7743 0.9330 0.0000
0.8524 0.9322 0.0000
0.9304 0.9314 0.0000
1.0000 0.9306 0.0000
1.0000 0.9299 0.0000
1.0000 0.9291 0.0000
0.0000 1.0000 0.0139
0.0000 1.0000 0.0104
0.0757 1.0000 0.0068
0.1538 1.0000 0.0033
0.2318 1.0000 0.0000
0.3099 1.0000 0.0000
0.3879 1.0000 0.0000
0.4660 1.0000 0.0000
0.5440 1.0000 0.0000
0.6221 1.0000 0.0000
0.7001 1.0000 0.0000
0.7782 1.0000 0.0000
0.8562 1.0000 0.0000
0.9343 1.0000 0.0000
1.0000 1.0000 0.0000
1.0000 1.0000 0.0000
1.0000 1.0000 0.0000
0.0000 1.0000 0.0021
0.0015 1.0000 0.0000
0.0796 1.0000 0.0000
0.1576 1.0000 0.0000
0.2357 1.0000 0.0000
0.3137 1.0000 0.0000
0.3918 1.0000 0.0000
0.4698 1.0000 0.0000
0.5479 1.0000 0.0000
0.6259 1.0000 0.0000
0.7040 1.0000 0.0000
0.7820 1.0000 0.0000
0.8600 1.0000 0.0000
0.9380 1.0000 0.0000
1.0000 1.0000 0.0000
1.0000 1.0000 0.0000
1.0000 1.0000 0.0000
0.0000 0.0000 0.2718
0.0000 0.0000 0.2683
0.0300 0.0000 0.2648
0.1073 0.0000 0.2612
0.1847 0.0000 0.2576
0.2620 0.0000 0.2540
0.3395 0.0000 0.2504
0.4169 0.0000 0.2467
0.4944 0.0000 0.2431
0.5720 0.0000 0.2394
0.6495 0.0000 0.2357
0.7271 0.0000 0.2320
0.8047 0.0000 0.2283
0.8824 0.0000 0.2246
0.9600 0.0000 0.2209
1.0000 0.0000 0.2171
1.0000 0.0000 0.2134
0.0000 0.0107 0.2601
0.0000 0.0098 0.2565
0.0315 0.0089 0.2528
0.1090 0.0080 0.2492
0.1864 0.0071 0.2455
0.2639 0.0062 0.2419
0.3415 0.0053 0.2382
0.4191 0.0045 0.2345
0.4967 0.0036 0.2308
0.5743 0.0027 0.2271
0.6519 0.0019 0.2234
0.7296 0.0010 0.2197
0.8073 0.0002 0.2159
0.8850 0.0000 0.2122
0.9627 0.0000 0.2085
1.0000 0.0000 0.2047
