luts/vintage.cube
# edite look: Vintage (CC0)
TITLE "Vintage"
LUT_3D_SIZE 5
DOMAIN_MIN 0.0 0.0 0.0
DOMAIN_MAX 1.0 1.0 1.0
0.1052 0.0978 0.0904
0.2888 0.1082 0.1008
0.4724 0.1186 0.1112
0.6560 0.1290 0.1215
0.8396 0.1393 0.1319
0.1388 0.2982 0.1240
0.3224 0.3085 0.1344
0.5060 0.3189 0.1448
0.6897 0.3293 0.1552
0.8733 0.3397 0.1656
0.1725 0.4985 0.1576
0.3561 0.5089 0.1680
0.5397 0.5193 0.1784
0.7233 0.5297 0.1888
0.9069 0.5401 0.1992
0.2061 0.6989 0.1913
0.3897 0.7093 0.2017
0.5733 0.7196 0.2121
0.7569 0.7300 0.2224
0.9405 0.7404 0.2328
0.2397 0.8992 0.2249
0.4233 0.9096 0.2353
0.6069 0.9200 0.2457
0.7905 0.9304 0.2561
0.9742 0.9408 0.2665
0.1084 0.1009 0.2485
0.2920 0.1113 0.2589
0.4756 0.1217 0.2693
0.6592 0.1321 0.2797
0.8428 0.1425 0.2901
0.1420 0.3013 0.2822
0.3256 0.3117 0.2926
0.5092 0.3221 0.3029
0.6928 0.3325 0.3133
0.8764 0.3429 0.3237
0.1756 0.5017 0.3158
0.3592 0.5121 0.3262
0.5428 0.5224 0.3366
0.7264 0.5328 0.3470
0.9100 0.5432 0.3574
0.2093 0.7020 0.3494
0.3929 0.7124 0.3598
0.5765 0.7228 0.3702
0.7601 0.7332 0.3806
0.9437 0.7436 0.3910
0.2429 0.9024 0.3831
0.4265 0.9128 0.3935
0.6101 0.9232 0.4038
0.7937 0.9335 0.4142
0.9773 0.9439 0.4246
0.1115 0.1041 0.4067
0.2951 0.1145 0.4171
0.4787 0.1249 0.4275
0.6623 0.1353 0.4379
0.8459 0.1457 0.4482
0.1451 0.3045 0.4403
0.3288 0.3149 0.4507
0.5124 0.3252 0.4611
0.6960 0.3356 0.4715
0.8796 0.3460 0.4819
0.1788 0.5048 0.4740
0.3624 0.5152 0.4844
0.5460 0.5256 0.4947
0.7296 0.5360 0.5051
0.9132 0.5464 0.5155
0.2124 0.7052 0.5076
0.3960 0.7156 0.5180
0.5796 0.7260 0.5284
0.7632 0.7363 0.5388
0.9468 0.7467 0.5491
0.2460 0.9055 0.5412
0.4297 0.9159 0.5516
0.6133 0.9263 0.5620
0.7969 0.9367 0.5724
0.9805 0.9471 0.5828
0.1147 0.1073 0.5649
0.2983 0.1176 0.5752
0.4819 0.1280 0.5856
0.6655 0.1384 0.5960
0.8491 0.1488 0.6064
0.1483 0.3076 0.5985
0.3319 0.3180 0.6089
0.5155 0.3284 0.6193
0.6991 0.3388 0.6297
0.8827 0.3492 0.6400
0.1819 0.5080 0.6321
0.3655 0.5184 0.6425
0.5491 0.5288 0.6529
0.7328 0.5391 0.6633
0.9164 0.5495 0.6737
0.2156 0.7083 0.6658
0.3992 0.7187 0.6761
0.5828 0.7291 0.6865
0.7664 0.7395 0.6969
0.9500 0.7499 0.7073
0.2492 0.9087 0.6994
0.4328 0.9191 0.7098
0.6164 0.9295 0.7202
0.8000 0.9399 0.7305
0.9836 0.9502 0.7409
0.1178 0.1104 0.7230
0.3014 0.1208 0.7334
0.4850 0.1312 0.7438
0.6686 0.1416 0.7542
0.8523 0.1520 0.7646
0.1515 0.3108 0.7566
0.3351 0.3212 0.7670
0.5187 0.3316 0.7774
0.7023 0.3419 0.7878
0.8859 0.3523 0.7982
0.1851 0.5111 0.7903
0.3687 0.5215 0.8007
0.5523 0.5319 0.8111
0.7359 0.5423 0.8214
0.9195 0.5527 0.8318
0.2187 0.7115 0.8239
0.4023 0.7219 0.8343
0.5859 0.7323 0.8447
0.7695 0.7427 0.8551
0.9531 0.7530 0.8655
0.2524 0.9118 0.8575
0.4360 0.9222 0.8679
0.6196 0.9326 0.8783
0.8032 0.9430 0.8887
0.9868 0.9534 0.8991
