luts/vintage.cube
# edite look: Vintage (CC0)
TITLE "Vintage"
LUT_3D_SIZE 17
DOMAIN_MIN 0.0 0.0 0.0
DOMAIN_MAX 1.0 1.0 1.0
0.1052 0.0978 0.0904
0.1511 0.1004 0.0930
0.1970 0.1030 0.0956
0.2429 0.1056 0.0982
0.2888 0.1082 0.1008
0.3347 0.1108 0.1034
0.3806 0.1134 0.1060
0.4265 0.1160 0.1086
0.4724 0.1186 0.1112
0.5183 0.1212 0.1138
0.5642 0.1238 0.1164
0.6101 0.1264 0.1189
0.6560 0.1290 0.1215
0.7019 0.1316 0.1241
0.7478 0.1341 0.1267
0.7937 0.1367 0.1293
0.8396 0.1393 0.1319
0.1136 0.1479 0.0988
0.1595 0.1505 0.1014
0.2054 0.1531 0.1040
0.2513 0.1557 0.1066
0.2972 0.1583 0.1092
0.3431 0.1609 0.1118
0.3890 0.1635 0.1144
0.4349 0.1661 0.1170
0.4808 0.1687 0.1196
0.5267 0.1713 0.1222
0.5726 0.1738 0.1248
0.6185 0.1764 0.1274
0.6644 0.1790 0.1300
0.7103 0.1816 0.1325
0.7562 0.1842 0.1351
0.8021 0.1868 0.1377
0.8480 0.1894 0.1403
0.1220 0.1980 0.1072
0.1679 0.2006 0.1098
0.2138 0.2032 0.1124
0.2597 0.2058 0.1150
0.3056 0.2084 0.1176
0.3515 0.2110 0.1202
0.3974 0.2136 0.1228
0.4433 0.2161 0.1254
0.4892 0.2187 0.1280
0.5351 0.2213 0.1306
0.5810 0.2239 0.1332
0.6269 0.2265 0.1358
0.6728 0.2291 0.1384
0.7187 0.2317 0.1410
0.7646 0.2343 0.1436
0.8105 0.2369 0.1462
0.8564 0.2395 0.1487
0.1304 0.2481 0.1156
0.1763 0.2507 0.1182
0.2222 0.2533 0.1208
0.2681 0.2559 0.1234
0.3140 0.2584 0.1260
0.3599 0.2610 0.1286
0.4058 0.2636 0.1312
0.4517 0.2662 0.1338
0.4976 0.2688 0.1364
0.5435 0.2714 0.1390
0.5894 0.2740 0.1416
0.6353 0.2766 0.1442
0.6812 0.2792 0.1468
0.7271 0.2818 0.1494
0.7730 0.2844 0.1520
0.8189 0.2870 0.1546
0.8648 0.2896 0.1572
0.1388 0.2982 0.1240
0.1847 0.3007 0.1266
0.2306 0.3033 0.1292
0.2765 0.3059 0.1318
0.3224 0.3085 0.1344
0.3683 0.3111 0.1370
0.4142 0.3137 0.1396
0.4601 0.3163 0.1422
0.5060 0.3189 0.1448
0.5519 0.3215 0.1474
0.5978 0.3241 0.1500
0.6438 0.3267 0.1526
0.6897 0.3293 0.1552
0.7356 0.3319 0.1578
0.7815 0.3345 0.1604
0.8274 0.3371 0.1630
0.8733 0.3397 0.1656
0.1472 0.3482 0.1324
0.1931 0.3508 0.1350
0.2390 0.3534 0.1376
0.2849 0.3560 0.1402
0.3308 0.3586 0.1428
0.3768 0.3612 0.1454
0.4227 0.3638 0.1480
0.4686 0.3664 0.1506
0.5145 0.3690 0.1532
0.5604 0.3716 0.1558
0.6063 0.3742 0.1584
0.6522 0.3768 0.1610
0.6981 0.3794 0.1636
0.7440 0.3820 0.1662
0.7899 0.3846 0.1688
0.8358 0.3872 0.1714
0.8817 0.3898 0.1740
0.1557 0.3983 0.1408
0.2016 0.4009 0.1434
0.2475 0.4035 0.1460
0.2934 0.4061 0.1486
0.3393 0.4087 0.1512
0.3852 0.4113 0.1538
0.4311 0.4139 0.1564
0.4770 0.4165 0.1590
0.5229 0.4191 0.1616
0.5688 0.4217 0.1642
0.6147 0.4243 0.1668
0.6606 0.4269 0.1694
0.7065 0.4295 0.1720
0.7524 0.4321 0.1746
0.7983 0.4347 0.1772
0.8442 0.4373 0.1798
0.8901 0.4399 0.1824
0.1641 0.4484 0.1492
0.2100 0.4510 0.1518
0.2559 0.4536 0.1544
0.3018 0.4562 0.1570
0.3477 0.4588 0.1596
0.3936 0.4614 0.1622
0.4395 0.4640 0.1648
0.4854 0.4666 0.1674
0.5313 0.4692 0.1700
0.5772 0.4718 0.1726
0.6231 0.4744 0.1752
0.6690 0.4770 0.1778
0.7149 0.4796 0.1804
0.7608 0.4822 0.1830
0.8067 0.4848 0.1856
0.8526 0.4874 0.1882
0.8985 0.4900 0.1908
0.1725 0.4985 0.1576
0.2184 0.5011 0.1602
0.2643 0.5037 0.1628
0.3102 0.5063 0.1654
0.3561 0.5089 0.1680
0.4020 0.5115 0.1706
0.4479 0.5141 0.1732
0.4938 0.5167 0.1758
0.5397 0.5193 0.1784
0.5856 0.5219 0.1810
0.6315 0.5245 0.1836
0.6774 0.5271 0.1862
0.7233 0.5297 0.1888
0.7692 0.5323 0.1914
0.8151 0.5349 0.1940
0.8610 0.5375 0.1966
0.9069 0.5401 0.1992
0.1809 0.5486 0.1661
0.2268 0.5512 0.1687
0.2727 0.5538 0.1712
0.3186 0.5564 0.1738
0.3645 0.5590 0.1764
0.4104 0.5616 0.1790
0.4563 0.5642 0.1816
0.5022 0.5668 0.1842
0.5481 0.5694 0.1868
0.5940 0.5720 0.1894
0.6399 0.5746 0.1920
0.6858 0.5772 0.1946
0.7317 0.5798 0.1972
0.7776 0.5824 0.1998
0.8235 0.5850 0.2024
0.8694 0.5875 0.2050
0.9153 0.5901 0.2076
0.1893 0.5987 0.1745
0.2352 0.6013 0.1771
0.2811 0.6039 0.1797
0.3270 0.6065 0.1823
0.3729 0.6091 0.1849
0.4188 0.6117 0.1874
0.4647 0.6143 0.1900
0.5106 0.6169 0.1926
0.5565 0.6195 0.1952
0.6024 0.6221 0.1978
0.6483 0.6247 0.2004
0.6942 0.6273 0.2030
0.7401 0.6298 0.2056
0.7860 0.6324 0.2082
0.8319 0.6350 0.2108
0.8778 0.6376 0.2134
0.9237 0.6402 0.2160
0.1977 0.6488 0.1829
0.2436 0.6514 0.1855
0.2895 0.6540 0.1881
0.3354 0.6566 0.1907
0.3813 0.6592 0.1933
0.4272 0.6618 0.1959
0.4731 0.6644 0.1985
0.5190 0.6670 0.2010
0.5649 0.6695 0.2036
0.6108 0.6721 0.2062
0.6567 0.6747 0.2088
0.7026 0.6773 0.2114
0.7485 0.6799 0.2140
0.7944 0.6825 0.2166
0.8403 0.6851 0.2192
0.8862 0.6877 0.2218
0.9321 0.6903 0.2244
0.2061 0.6989 0.1913
0.2520 0.7015 0.1939
0.2979 0.7041 0.1965
0.3438 0.7067 0.1991
0.3897 0.7093 0.2017
0.4356 0.7118 0.2043
0.4815 0.7144 0.2069
0.5274 0.7170 0.2095
0.5733 0.7196 0.2121
0.6192 0.7222 0.2147
0.6651 0.7248 0.2172
0.7110 0.7274 0.2198
0.7569 0.7300 0.2224
0.8028 0.7326 0.2250
0.8487 0.7352 0.2276
0.8946 0.7378 0.2302
0.9405 0.7404 0.2328
0.2145 0.7490 0.1997
0.2604 0.7516 0.2023
0.3063 0.7541 0.2049
0.3522 0.7567 0.2075
0.3981 0.7593 0.2101
0.4440 0.7619 0.2127
0.4899 0.7645 0.2153
0.5358 0.7671 0.2179
0.5817 0.7697 0.2205
0.6276 0.7723 0.2231
0.6735 0.7749 0.2257
0.7194 0.7775 0.2283
0.7653 0.7801 0.2308
0.8112 0.7827 0.2334
0.8571 0.7853 0.2360
0.9030 0.7879 0.2386
0.9489 0.7905 0.2412
0.2229 0.7990 0.2081
0.2688 0.8016 0.2107
0.3147 0.8042 0.2133
0.3606 0.8068 0.2159
0.4065 0.8094 0.2185
0.4524 0.8120 0.2211
0.4983 0.8146 0.2237
0.5442 0.8172 0.2263
0.5901 0.8198 0.2289
0.6360 0.8224 0.2315
0.6819 0.8250 0.2341
0.7278 0.8276 0.2367
0.7737 0.8302 0.2393
0.8196 0.8328 0.2419
0.8655 0.8354 0.2445
0.9114 0.8380 0.2470
0.9573 0.8406 0.2496
0.2313 0.8491 0.2165
0.2772 0.8517 0.2191
0.3231 0.8543 0.2217
0.3690 0.8569 0.2243
0.4149 0.8595 0.2269
0.4608 0.8621 0.2295
0.5067 0.8647 0.2321
0.5526 0.8673 0.2347
0.5985 0.8699 0.2373
0.6444 0.8725 0.2399
0.6903 0.8751 0.2425
0.7362 0.8777 0.2451
0.7821 0.8803 0.2477
0.8280 0.8829 0.2503
0.8739 0.8855 0.2529
0.9198 0.8881 0.2555
0.9657 0.8907 0.2581
0.2397 0.8992 0.2249
0.2856 0.9018 0.2275
0.3315 0.9044 0.2301
0.3774 0.9070 0.2327
0.4233 0.9096 0.2353
0.4692 0.9122 0.2379
0.5151 0.9148 0.2405
0.5610 0.9174 0.2431
0.6069 0.9200 0.2457
0.6528 0.9226 0.2483
0.6987 0.9252 0.2509
0.7446 0.9278 0.2535
0.7905 0.9304 0.2561
0.8365 0.9330 0.2587
0.8824 0.9356 0.2613
0.9283 0.9382 0.2639
0.9742 0.9408 0.2665
0.1060 0.0986 0.1299
0.1519 0.1012 0.1325
0.1978 0.1038 0.1351
0.2437 0.1064 0.1377
0.2896 0.1090 0.1403
0.3355 0.1116 0.1429
0.3814 0.1142 0.1455
0.4273 0.1168 0.1481
0.4732 0.1194 0.1507
0.5191 0.1220 0.1533
0.5650 0.1245 0.1559
0.6109 0.1271 0.1585
0.6568 0.1297 0.1611
0.7027 0.1323 0.1637
0.7486 0.1349 0.1663
0.7945 0.1375 0.1689
0.8404 0.1401 0.1715
0.1144 0.1487 0.1383
0.1603 0.1513 0.1409
0.2062 0.1539 0.1435
0.2521 0.1565 0.1461
0.2980 0.1591 0.1487
0.3439 0.1617 0.1513
0.3898 0.1643 0.1539
0.4357 0.1668 0.1565
0.4816 0.1694 0.1591
0.5275 0.1720 0.1617
0.5734 0.1746 0.1643
0.6193 0.1772 0.1669
0.6652 0.1798 0.1695
0.7111 0.1824 0.1721
0.7570 0.1850 0.1747
0.8029 0.1876 0.1773
0.8488 0.1902 0.1799
0.1228 0.1988 0.1467
0.1687 0.2014 0.1493
0.2146 0.2040 0.1519
0.2605 0.2066 0.1545
0.3064 0.2091 0.1571
0.3523 0.2117 0.1597
0.3982 0.2143 0.1623
0.4441 0.2169 0.1649
0.4900 0.2195 0.1675
0.5359 0.2221 0.1701
0.5818 0.2247 0.1727
0.6277 0.2273 0.1753
0.6736 0.2299 0.1779
0.7195 0.2325 0.1805
0.7654 0.2351 0.1831
0.8113 0.2377 0.1857
0.8572 0.2403 0.1883
0.1312 0.2489 0.1551
0.1771 0.2514 0.1577
0.2230 0.2540 0.1603
0.2689 0.2566 0.1629
0.3148 0.2592 0.1655
0.3607 0.2618 0.1681
0.4066 0.2644 0.1707
0.4525 0.2670 0.1733
0.4984 0.2696 0.1759
0.5443 0.2722 0.1785
0.5902 0.2748 0.1811
0.6361 0.2774 0.1837
0.6820 0.2800 0.1863
0.7279 0.2826 0.1889
0.7738 0.2852 0.1915
0.8197 0.2878 0.1941
0.8656 0.2904 0.1967
0.1396 0.2989 0.1636
0.1855 0.3015 0.1662
0.2314 0.3041 0.1687
0.2773 0.3067 0.1713
0.3232 0.3093 0.1739
0.3691 0.3119 0.1765
0.4150 0.3145 0.1791
0.4609 0.3171 0.1817
0.5068 0.3197 0.1843
0.5527 0.3223 0.1869
0.5986 0.3249 0.1895
0.6445 0.3275 0.1921
0.6904 0.3301 0.1947
0.7363 0.3327 0.1973
0.7822 0.3353 0.1999
0.8281 0.3379 0.2025
0.8740 0.3405 0.2051
0.1480 0.3490 0.1720
0.1939 0.3516 0.1746
0.2398 0.3542 0.1772
0.2857 0.3568 0.1798
0.3316 0.3594 0.1824
0.3775 0.3620 0.1849
0.4234 0.3646 0.1875
0.4693 0.3672 0.1901
0.5152 0.3698 0.1927
0.5611 0.3724 0.1953
0.6070 0.3750 0.1979
0.6529 0.3776 0.2005
0.6988 0.3802 0.2031
0.7448 0.3828 0.2057
0.7907 0.3854 0.2083
0.8366 0.3880 0.2109
0.8825 0.3906 0.2135
0.1564 0.3991 0.1804
0.2023 0.4017 0.1830
0.2482 0.4043 0.1856
0.2941 0.4069 0.1882
0.3400 0.4095 0.1908
0.3859 0.4121 0.1934
0.4318 0.4147 0.1960
0.4778 0.4173 0.1985
0.5237 0.4199 0.2011
0.5696 0.4225 0.2037
0.6155 0.4251 0.2063
0.6614 0.4277 0.2089
0.7073 0.4303 0.2115
0.7532 0.4329 0.2141
0.7991 0.4355 0.2167
0.8450 0.4381 0.2193
0.8909 0.4407 0.2219
0.1648 0.4492 0.1888
0.2108 0.4518 0.1914
0.2567 0.4544 0.1940
0.3026 0.4570 0.1966
0.3485 0.4596 0.1992
0.3944 0.4622 0.2018
0.4403 0.4648 0.2044
0.4862 0.4674 0.2070
0.5321 0.4700 0.2096
0.5780 0.4726 0.2121
0.6239 0.4752 0.2147
0.6698 0.4778 0.2173
0.7157 0.4804 0.2199
0.7616 0.4830 0.2225
0.8075 0.4856 0.2251
0.8534 0.4882 0.2277
0.8993 0.4908 0.2303
0.1733 0.4993 0.1972
0.2192 0.5019 0.1998
0.2651 0.5045 0.2024
0.3110 0.5071 0.2050
0.3569 0.5097 0.2076
0.4028 0.5123 0.2102
0.4487 0.5149 0.2128
0.4946 0.5175 0.2154
0.5405 0.5201 0.2180
0.5864 0.5227 0.2206
0.6323 0.5253 0.2232
0.6782 0.5279 0.2258
0.7241 0.5305 0.2283
0.7700 0.5331 0.2309
0.8159 0.5357 0.2335
0.8618 0.5382 0.2361
0.9077 0.5408 0.2387
0.1817 0.5494 0.2056
0.2276 0.5520 0.2082
0.2735 0.5546 0.2108
0.3194 0.5572 0.2134
0.3653 0.5598 0.2160
0.4112 0.5624 0.2186
0.4571 0.5650 0.2212
0.5030 0.5676 0.2238
0.5489 0.5702 0.2264
0.5948 0.5728 0.2290
0.6407 0.5754 0.2316
0.6866 0.5780 0.2342
0.7325 0.5805 0.2368
0.7784 0.5831 0.2394
0.8243 0.5857 0.2419
0.8702 0.5883 0.2445
0.9161 0.5909 0.2471
0.1901 0.5995 0.2140
0.2360 0.6021 0.2166
0.2819 0.6047 0.2192
0.3278 0.6073 0.2218
0.3737 0.6099 0.2244
0.4196 0.6125 0.2270
0.4655 0.6151 0.2296
0.5114 0.6177 0.2322
0.5573 0.6202 0.2348
0.6032 0.6228 0.2374
0.6491 0.6254 0.2400
0.6950 0.6280 0.2426
0.7409 0.6306 0.2452
0.7868 0.6332 0.2478
0.8327 0.6358 0.2504
0.8786 0.6384 0.2530
0.9245 0.6410 0.2556
0.1985 0.6496 0.2224
0.2444 0.6522 0.2250
0.2903 0.6548 0.2276
0.3362 0.6574 0.2302
0.3821 0.6600 0.2328
0.4280 0.6625 0.2354
0.4739 0.6651 0.2380
0.5198 0.6677 0.2406
0.5657 0.6703 0.2432
0.6116 0.6729 0.2458
0.6575 0.6755 0.2484
0.7034 0.6781 0.2510
0.7493 0.6807 0.2536
0.7952 0.6833 0.2562
0.8411 0.6859 0.2588
0.8870 0.6885 0.2614
0.9329 0.6911 0.2640
0.2069 0.6997 0.2308
0.2528 0.7023 0.2334
0.2987 0.7048 0.2360
0.3446 0.7074 0.2386
0.3905 0.7100 0.2412
0.4364 0.7126 0.2438
0.4823 0.7152 0.2464
0.5282 0.7178 0.2490
0.5741 0.7204 0.2516
0.6200 0.7230 0.2542
0.6659 0.7256 0.2568
0.7118 0.7282 0.2594
0.7577 0.7308 0.2620
0.8036 0.7334 0.2646
0.8495 0.7360 0.2672
0.8954 0.7386 0.2698
0.9413 0.7412 0.2724
0.2153 0.7497 0.2392
0.2612 0.7523 0.2418
0.3071 0.7549 0.2444
0.3530 0.7575 0.2470
0.3989 0.7601 0.2496
0.4448 0.7627 0.2522
0.4907 0.7653 0.2548
0.5366 0.7679 0.2574
0.5825 0.7705 0.2600
0.6284 0.7731 0.2626
0.6743 0.7757 0.2652
0.7202 0.7783 0.2678
0.7661 0.7809 0.2704
0.8120 0.7835 0.2730
0.8579 0.7861 0.2756
0.9038 0.7887 0.2782
0.9497 0.7913 0.2808
0.2237 0.7998 0.2476
0.2696 0.8024 0.2502
0.3155 0.8050 0.2528
0.3614 0.8076 0.2554
0.4073 0.8102 0.2580
0.4532 0.8128 0.2606
0.4991 0.8154 0.2632
0.5450 0.8180 0.2658
0.5909 0.8206 0.2684
0.6368 0.8232 0.2710
0.6827 0.8258 0.2736
0.7286 0.8284 0.2762
0.7745 0.8310 0.2788
0.8204 0.8336 0.2814
0.8663 0.8362 0.2840
0.9122 0.8388 0.2866
0.9581 0.8414 0.2892
0.2321 0.8499 0.2560
0.2780 0.8525 0.2586
0.3239 0.8551 0.2612
0.3698 0.8577 0.2638
0.4157 0.8603 0.2664
0.4616 0.8629 0.2690
0.5075 0.8655 0.2716
0.5534 0.8681 0.2742
0.5993 0.8707 0.2768
0.6452 0.8733 0.2794
0.6911 0.8759 0.2820
0.7370 0.8785 0.2846
0.7829 0.8811 0.2872
0.8288 0.8837 0.2898
0.8747 0.8863 0.2924
0.9206 0.8889 0.2950
0.9665 0.8915 0.2976
0.2405 0.9000 0.2645
0.2864 0.9026 0.2670
0.3323 0.9052 0.2696
0.3782 0.9078 0.2722
0.4241 0.9104 0.2748
0.4700 0.9130 0.2774
0.5159 0.9156 0.2800
0.5618 0.9182 0.2826
0.6077 0.9208 0.2852
0.6536 0.9234 0.2878
0.6995 0.9260 0.2904
0.7454 0.9286 0.2930
0.7913 0.9312 0.2956
0.8372 0.9338 0.2982
0.8831 0.9364 0.3008
0.9290 0.9390 0.3034
0.9749 0.9416 0.3060
0.1068 0.0994 0.1695
0.1527 0.1020 0.1721
0.1986 0.1046 0.1747
0.2445 0.1072 0.1773
0.2904 0.1098 0.1798
0.3363 0.1124 0.1824
0.3822 0.1150 0.1850
0.4281 0.1175 0.1876
0.4740 0.1201 0.1902
0.5199 0.1227 0.1928
0.5658 0.1253 0.1954
0.6117 0.1279 0.1980
0.6576 0.1305 0.2006
0.7035 0.1331 0.2032
0.7494 0.1357 0.2058
0.7953 0.1383 0.2084
0.8412 0.1409 0.2110
0.1152 0.1495 0.1779
0.1611 0.1521 0.1805
0.2070 0.1547 0.1831
0.2529 0.1573 0.1857
0.2988 0.1598 0.1883
0.3447 0.1624 0.1909
0.3906 0.1650 0.1935
0.4365 0.1676 0.1960
0.4824 0.1702 0.1986
0.5283 0.1728 0.2012
0.5742 0.1754 0.2038
0.6201 0.1780 0.2064
0.6660 0.1806 0.2090
0.7119 0.1832 0.2116
0.7578 0.1858 0.2142
0.8037 0.1884 0.2168
0.8496 0.1910 0.2194
0.1236 0.1996 0.1863
0.1695 0.2021 0.1889
0.2154 0.2047 0.1915
0.2613 0.2073 0.1941
0.3072 0.2099 0.1967
0.3531 0.2125 0.1993
0.3990 0.2151 0.2019
0.4449 0.2177 0.2045
0.4908 0.2203 0.2071
0.5367 0.2229 0.2096
0.5826 0.2255 0.2122
0.6285 0.2281 0.2148
0.6744 0.2307 0.2174
0.7203 0.2333 0.2200
0.7662 0.2359 0.2226
0.8121 0.2385 0.2252
0.8580 0.2411 0.2278
0.1320 0.2496 0.1947
0.1779 0.2522 0.1973
0.2238 0.2548 0.1999
0.2697 0.2574 0.2025
0.3156 0.2600 0.2051
0.3615 0.2626 0.2077
0.4074 0.2652 0.2103
0.4533 0.2678 0.2129
0.4992 0.2704 0.2155
0.5451 0.2730 0.2181
0.5910 0.2756 0.2207
0.6369 0.2782 0.2233
0.6828 0.2808 0.2258
0.7287 0.2834 0.2284
0.7746 0.2860 0.2310
0.8205 0.2886 0.2336
0.8664 0.2912 0.2362
0.1404 0.2997 0.2031
0.1863 0.3023 0.2057
0.2322 0.3049 0.2083
0.2781 0.3075 0.2109
0.3240 0.3101 0.2135
0.3699 0.3127 0.2161
0.4158 0.3153 0.2187
0.4617 0.3179 0.2213
0.5076 0.3205 0.2239
0.5535 0.3231 0.2265
0.5994 0.3257 0.2291
0.6453 0.3283 0.2317
0.6912 0.3309 0.2343
0.7371 0.3335 0.2369
0.7830 0.3361 0.2394
0.8289 0.3387 0.2420
0.8748 0.3413 0.2446
0.1488 0.3498 0.2115
0.1947 0.3524 0.2141
0.2406 0.3550 0.2167
0.2865 0.3576 0.2193
0.3324 0.3602 0.2219
0.3783 0.3628 0.2245
0.4242 0.3654 0.2271
0.4701 0.3680 0.2297
0.5160 0.3706 0.2323
0.5619 0.3732 0.2349
0.6078 0.3758 0.2375
0.6537 0.3784 0.2401
0.6996 0.3810 0.2427
0.7455 0.3836 0.2453
0.7914 0.3862 0.2479
0.8373 0.3888 0.2505
0.8832 0.3914 0.2531
0.1572 0.3999 0.2199
0.2031 0.4025 0.2225
0.2490 0.4051 0.2251
0.2949 0.4077 0.2277
0.3408 0.4103 0.2303
0.3867 0.4129 0.2329
0.4326 0.4155 0.2355
0.4785 0.4181 0.2381
0.5244 0.4207 0.2407
0.5703 0.4233 0.2433
0.6162 0.4259 0.2459
0.6621 0.4285 0.2485
0.7080 0.4311 0.2511
0.7539 0.4337 0.2537
0.7998 0.4363 0.2563
0.8458 0.4389 0.2589
0.8917 0.4415 0.2615
0.1656 0.4500 0.2283
0.2115 0.4526 0.2309
0.2574 0.4552 0.2335
0.3033 0.4578 0.2361
0.3492 0.4604 0.2387
0.3951 0.4630 0.2413
0.4410 0.4656 0.2439
0.4869 0.4682 0.2465
0.5328 0.4708 0.2491
0.5788 0.4734 0.2517
0.6247 0.4760 0.2543
0.6706 0.4786 0.2569
0.7165 0.4812 0.2595
0.7624 0.4838 0.2621
0.8083 0.4864 0.2647
0.8542 0.4889 0.2673
0.9001 0.4915 0.2699
0.1740 0.5001 0.2367
0.2199 0.5027 0.2393
0.2658 0.5053 0.2419
0.3118 0.5079 0.2445
0.3577 0.5105 0.2471
0.4036 0.5131 0.2497
0.4495 0.5157 0.2523
0.4954 0.5183 0.2549
0.5413 0.5209 0.2575
0.5872 0.5235 0.2601
0.6331 0.5261 0.2627
0.6790 0.5287 0.2653
0.7249 0.5312 0.2679
0.7708 0.5338 0.2705
0.8167 0.5364 0.2731
0.8626 0.5390 0.2757
0.9085 0.5416 0.2783
0.1825 0.5502 0.2451
0.2284 0.5528 0.2477
0.2743 0.5554 0.2503
0.3202 0.5580 0.2529
0.3661 0.5606 0.2555
0.4120 0.5632 0.2581
0.4579 0.5658 0.2607
0.5038 0.5684 0.2633
0.5497 0.5709 0.2659
0.5956 0.5735 0.2685
0.6415 0.5761 0.2711
0.6874 0.5787 0.2737
0.7333 0.5813 0.2763
0.7792 0.5839 0.2789
0.8251 0.5865 0.2815
0.8710 0.5891 0.2841
0.9169 0.5917 0.2867
0.1909 0.6003 0.2535
0.2368 0.6029 0.2561
0.2827 0.6055 0.2587
0.3286 0.6081 0.2613
0.3745 0.6107 0.2639
0.4204 0.6132 0.2665
0.4663 0.6158 0.2691
0.5122 0.6184 0.2717
0.5581 0.6210 0.2743
0.6040 0.6236 0.2769
0.6499 0.6262 0.2795
0.6958 0.6288 0.2821
0.7417 0.6314 0.2847
0.7876 0.6340 0.2873
0.8335 0.6366 0.2899
0.8794 0.6392 0.2925
0.9253 0.6418 0.2951
0.1993 0.6504 0.2620
0.2452 0.6530 0.2645
0.2911 0.6555 0.2671
0.3370 0.6581 0.2697
0.3829 0.6607 0.2723
0.4288 0.6633 0.2749
0.4747 0.6659 0.2775
0.5206 0.6685 0.2801
0.5665 0.6711 0.2827
0.6124 0.6737 0.2853
0.6583 0.6763 0.2879
0.7042 0.6789 0.2905
0.7501 0.6815 0.2931
0.7960 0.6841 0.2957
0.8419 0.6867 0.2983
0.8878 0.6893 0.3009
0.9337 0.6919 0.3035
0.2077 0.7004 0.2704
0.2536 0.7030 0.2730
0.2995 0.7056 0.2756
0.3454 0.7082 0.2781
0.3913 0.7108 0.2807
0.4372 0.7134 0.2833
0.4831 0.7160 0.2859
0.5290 0.7186 0.2885
0.5749 0.7212 0.2911
0.6208 0.7238 0.2937
0.6667 0.7264 0.2963
0.7126 0.7290 0.2989
0.7585 0.7316 0.3015
0.8044 0.7342 0.3041
0.8503 0.7368 0.3067
0.8962 0.7394 0.3093
0.9421 0.7420 0.3119
0.2161 0.7505 0.2788
0.2620 0.7531 0.2814
0.3079 0.7557 0.2840
0.3538 0.7583 0.2866
0.3997 0.7609 0.2892
0.4456 0.7635 0.2918
0.4915 0.7661 0.2943
0.5374 0.7687 0.2969
0.5833 0.7713 0.2995
0.6292 0.7739 0.3021
0.6751 0.7765 0.3047
0.7210 0.7791 0.3073
0.7669 0.7817 0.3099
0.8128 0.7843 0.3125
0.8587 0.7869 0.3151
0.9046 0.7895 0.3177
0.9505 0.7921 0.3203
0.2245 0.8006 0.2872
0.2704 0.8032 0.2898
0.3163 0.8058 0.2924
0.3622 0.8084 0.2950
0.4081 0.8110 0.2976
0.4540 0.8136 0.3002
0.4999 0.8162 0.3028
0.5458 0.8188 0.3054
0.5917 0.8214 0.3079
0.6376 0.8240 0.3105
0.6835 0.8266 0.3131
0.7294 0.8292 0.3157
0.7753 0.8318 0.3183
0.8212 0.8344 0.3209
0.8671 0.8370 0.3235
0.9130 0.8396 0.3261
0.9589 0.8422 0.3287
0.2329 0.8507 0.2956
0.2788 0.8533 0.2982
0.3247 0.8559 0.3008
0.3706 0.8585 0.3034
0.4165 0.8611 0.3060
0.4624 0.8637 0.3086
0.5083 0.8663 0.3112
0.5542 0.8689 0.3138
0.6001 0.8715 0.3164
0.6460 0.8741 0.3190
0.6919 0.8767 0.3216
0.7378 0.8793 0.3241
0.7837 0.8819 0.3267
0.8296 0.8845 0.3293
0.8755 0.8871 0.3319
0.9214 0.8897 0.3345
0.9673 0.8923 0.3371
0.2413 0.9008 0.3040
0.2872 0.9034 0.3066
0.3331 0.9060 0.3092
0.3790 0.9086 0.3118
0.4249 0.9112 0.3144
0.4708 0.9138 0.3170
0.5167 0.9164 0.3196
0.5626 0.9190 0.3222
0.6085 0.9216 0.3248
0.6544 0.9242 0.3274
0.7003 0.9268 0.3300
0.7462 0.9294 0.3326
0.7921 0.9320 0.3352
0.8380 0.9346 0.3377
0.8839 0.9372 0.3403
0.9298 0.9398 0.3429
0.9757 0.9423 0.3455
0.1076 0.1002 0.2090
0.1535 0.1028 0.2116
0.1994 0.1054 0.2142
0.2453 0.1080 0.2168
0.2912 0.1105 0.2194
0.3371 0.1131 0.2220
0.3830 0.1157 0.2246
0.4289 0.1183 0.2272
0.4748 0.1209 0.2298
0.5207 0.1235 0.2324
0.5666 0.1261 0.2350
0.6125 0.1287 0.2376
0.6584 0.1313 0.2402
0.7043 0.1339 0.2428
0.7502 0.1365 0.2454
0.7961 0.1391 0.2480
0.8420 0.1417 0.2505
0.1160 0.1503 0.2174
0.1619 0.1528 0.2200
0.2078 0.1554 0.2226
0.2537 0.1580 0.2252
0.2996 0.1606 0.2278
0.3455 0.1632 0.2304
0.3914 0.1658 0.2330
0.4373 0.1684 0.2356
0.4832 0.1710 0.2382
0.5291 0.1736 0.2408
0.5750 0.1762 0.2434
0.6209 0.1788 0.2460
0.6668 0.1814 0.2486
0.7127 0.1840 0.2512
0.7586 0.1866 0.2538
0.8045 0.1892 0.2564
