luts/vintage.cube
# edite look: Vintage (CC0)
TITLE "Vintage"
LUT_3D_SIZE 9
DOMAIN_MIN 0.0 0.0 0.0
DOMAIN_MAX 1.0 1.0 1.0
0.1052 0.0978 0.0904
0.1970 0.1030 0.0956
0.2888 0.1082 0.1008
0.3806 0.1134 0.1060
0.4724 0.1186 0.1112
0.5642 0.1238 0.1164
0.6560 0.1290 0.1215
0.7478 0.1341 0.1267
0.8396 0.1393 0.1319
0.1220 0.1980 0.1072
0.2138 0.2032 0.1124
0.3056 0.2084 0.1176
0.3974 0.2136 0.1228
0.4892 0.2187 0.1280
0.5810 0.2239 0.1332
0.6728 0.2291 0.1384
0.7646 0.2343 0.1436
0.8564 0.2395 0.1487
0.1388 0.2982 0.1240
0.2306 0.3033 0.1292
0.3224 0.3085 0.1344
0.4142 0.3137 0.1396
0.5060 0.3189 0.1448
0.5978 0.3241 0.1500
0.6897 0.3293 0.1552
0.7815 0.3345 0.1604
0.8733 0.3397 0.1656
0.1557 0.3983 0.1408
0.2475 0.4035 0.1460
0.3393 0.4087 0.1512
0.4311 0.4139 0.1564
0.5229 0.4191 0.1616
0.6147 0.4243 0.1668
0.7065 0.4295 0.1720
0.7983 0.4347 0.1772
0.8901 0.4399 0.1824
0.1725 0.4985 0.1576
0.2643 0.5037 0.1628
0.3561 0.5089 0.1680
0.4479 0.5141 0.1732
0.5397 0.5193 0.1784
0.6315 0.5245 0.1836
0.7233 0.5297 0.1888
0.8151 0.5349 0.1940
0.9069 0.5401 0.1992
0.1893 0.5987 0.1745
0.2811 0.6039 0.1797
0.3729 0.6091 0.1849
0.4647 0.6143 0.1900
0.5565 0.6195 0.1952
0.6483 0.6247 0.2004
0.7401 0.6298 0.2056
0.8319 0.6350 0.2108
0.9237 0.6402 0.2160
0.2061 0.6989 0.1913
0.2979 0.7041 0.1965
0.3897 0.7093 0.2017
0.4815 0.7144 0.2069
0.5733 0.7196 0.2121
0.6651 0.7248 0.2172
0.7569 0.7300 0.2224
0.8487 0.7352 0.2276
0.9405 0.7404 0.2328
0.2229 0.7990 0.2081
0.3147 0.8042 0.2133
0.4065 0.8094 0.2185
0.4983 0.8146 0.2237
0.5901 0.8198 0.2289
0.6819 0.8250 0.2341
0.7737 0.8302 0.2393
0.8655 0.8354 0.2445
0.9573 0.8406 0.2496
0.2397 0.8992 0.2249
0.3315 0.9044 0.2301
0.4233 0.9096 0.2353
0.5151 0.9148 0.2405
0.6069 0.9200 0.2457
0.6987 0.9252 0.2509
0.7905 0.9304 0.2561
0.8824 0.9356 0.2613
0.9742 0.9408 0.2665
0.1068 0.0994 0.1695
0.1986 0.1046 0.1747
0.2904 0.1098 0.1798
0.3822 0.1150 0.1850
0.4740 0.1201 0.1902
0.5658 0.1253 0.1954
0.6576 0.1305 0.2006
0.7494 0.1357 0.2058
0.8412 0.1409 0.2110
0.1236 0.1996 0.1863
0.2154 0.2047 0.1915
0.3072 0.2099 0.1967
0.3990 0.2151 0.2019
0.4908 0.2203 0.2071
0.5826 0.2255 0.2122
0.6744 0.2307 0.2174
0.7662 0.2359 0.2226
0.8580 0.2411 0.2278
0.1404 0.2997 0.2031
0.2322 0.3049 0.2083
0.3240 0.3101 0.2135
0.4158 0.3153 0.2187
0.5076 0.3205 0.2239
0.5994 0.3257 0.2291
0.6912 0.3309 0.2343
0.7830 0.3361 0.2394
0.8748 0.3413 0.2446
0.1572 0.3999 0.2199
0.2490 0.4051 0.2251
0.3408 0.4103 0.2303
0.4326 0.4155 0.2355
0.5244 0.4207 0.2407
0.6162 0.4259 0.2459
0.7080 0.4311 0.2511
0.7998 0.4363 0.2563
0.8917 0.4415 0.2615
0.1740 0.5001 0.2367
0.2658 0.5053 0.2419
0.3577 0.5105 0.2471
0.4495 0.5157 0.2523
0.5413 0.5209 0.2575
0.6331 0.5261 0.2627
0.7249 0.5312 0.2679
0.8167 0.5364 0.2731
0.9085 0.5416 0.2783
0.1909 0.6003 0.2535
0.2827 0.6055 0.2587
0.3745 0.6107 0.2639
0.4663 0.6158 0.2691
0.5581 0.6210 0.2743
0.6499 0.6262 0.2795
0.7417 0.6314 0.2847
0.8335 0.6366 0.2899
0.9253 0.6418 0.2951
0.2077 0.7004 0.2704
0.2995 0.7056 0.2756
0.3913 0.7108 0.2807
0.4831 0.7160 0.2859
0.5749 0.7212 0.2911
0.6667 0.7264 0.2963
0.7585 0.7316 0.3015
0.8503 0.7368 0.3067
0.9421 0.7420 0.3119
0.2245 0.8006 0.2872
0.3163 0.8058 0.2924
0.4081 0.8110 0.2976
0.4999 0.8162 0.3028
0.5917 0.8214 0.3079
0.6835 0.8266 0.3131
0.7753 0.8318 0.3183
0.8671 0.8370 0.3235
0.9589 0.8422 0.3287
0.2413 0.9008 0.3040
0.3331 0.9060 0.3092
0.4249 0.9112 0.3144
0.5167 0.9164 0.3196
0.6085 0.9216 0.3248
0.7003 0.9268 0.3300
0.7921 0.9320 0.3352
0.8839 0.9372 0.3403
0.9757 0.9423 0.3455
0.1084 0.1009 0.2485
0.2002 0.1061 0.2537
0.2920 0.1113 0.2589
0.3838 0.1165 0.2641
0.4756 0.1217 0.2693
0.5674 0.1269 0.2745
0.6592 0.1321 0.2797
0.7510 0.1373 0.2849
0.8428 0.1425 0.2901
0.1252 0.2011 0.2654
0.2170 0.2063 0.2706
0.3088 0.2115 0.2757
0.4006 0.2167 0.2809
0.4924 0.2219 0.2861
0.5842 0.2271 0.2913
0.6760 0.2323 0.2965
0.7678 0.2375 0.3017
0.8596 0.2427 0.3069
0.1420 0.3013 0.2822
0.2338 0.3065 0.2874
0.3256 0.3117 0.2926
0.4174 0.3169 0.2978
0.5092 0.3221 0.3029
0.6010 0.3273 0.3081
0.6928 0.3325 0.3133
0.7846 0.3377 0.3185
0.8764 0.3429 0.3237
0.1588 0.4015 0.2990
0.2506 0.4067 0.3042
0.3424 0.4119 0.3094
0.4342 0.4171 0.3146
0.5260 0.4223 0.3198
0.6178 0.4275 0.3250
0.7096 0.4326 0.3302
0.8014 0.4378 0.3353
0.8932 0.4430 0.3405
0.1756 0.5017 0.3158
0.2674 0.5069 0.3210
0.3592 0.5121 0.3262
0.4510 0.5172 0.3314
0.5428 0.5224 0.3366
0.6346 0.5276 0.3418
0.7264 0.5328 0.3470
0.8182 0.5380 0.3522
0.9100 0.5432 0.3574
0.1924 0.6018 0.3326
0.2842 0.6070 0.3378
0.3760 0.6122 0.3430
0.4678 0.6174 0.3482
0.5597 0.6226 0.3534
0.6515 0.6278 0.3586
0.7433 0.6330 0.3638
0.8351 0.6382 0.3690
0.9269 0.6434 0.3742
0.2093 0.7020 0.3494
0.3011 0.7072 0.3546
0.3929 0.7124 0.3598
0.4847 0.7176 0.3650
0.5765 0.7228 0.3702
0.6683 0.7280 0.3754
0.7601 0.7332 0.3806
0.8519 0.7384 0.3858
0.9437 0.7436 0.3910
0.2261 0.8022 0.3663
0.3179 0.8074 0.3714
0.4097 0.8126 0.3766
0.5015 0.8178 0.3818
0.5933 0.8230 0.3870
0.6851 0.8282 0.3922
0.7769 0.8334 0.3974
0.8687 0.8386 0.4026
0.9605 0.8437 0.4078
0.2429 0.9024 0.3831
0.3347 0.9076 0.3883
0.4265 0.9128 0.3935
0.5183 0.9180 0.3987
0.6101 0.9232 0.4038
0.7019 0.9283 0.4090
0.7937 0.9335 0.4142
0.8855 0.9387 0.4194
0.9773 0.9439 0.4246
0.1099 0.1025 0.3276
0.2017 0.1077 0.3328
0.2935 0.1129 0.3380
0.3853 0.1181 0.3432
0.4771 0.1233 0.3484
0.5690 0.1285 0.3536
0.6608 0.1337 0.3588
0.7526 0.1389 0.3640
0.8444 0.1441 0.3692
0.1268 0.2027 0.3444
0.2186 0.2079 0.3496
0.3104 0.2131 0.3548
0.4022 0.2183 0.3600
0.4940 0.2235 0.3652
0.5858 0.2287 0.3704
0.6776 0.2339 0.3756
0.7694 0.2391 0.3808
0.8612 0.2443 0.3860
0.1436 0.3029 0.3613
0.2354 0.3081 0.3664
0.3272 0.3133 0.3716
0.4190 0.3185 0.3768
0.5108 0.3237 0.3820
0.6026 0.3289 0.3872
0.6944 0.3340 0.3924
0.7862 0.3392 0.3976
0.8780 0.3444 0.4028
0.1604 0.4031 0.3781
0.2522 0.4083 0.3833
0.3440 0.4135 0.3885
0.4358 0.4186 0.3936
0.5276 0.4238 0.3988
0.6194 0.4290 0.4040
0.7112 0.4342 0.4092
0.8030 0.4394 0.4144
0.8948 0.4446 0.4196
0.1772 0.5032 0.3949
0.2690 0.5084 0.4001
0.3608 0.5136 0.4053
0.4526 0.5188 0.4105
0.5444 0.5240 0.4157
0.6362 0.5292 0.4209
0.7280 0.5344 0.4260
0.8198 0.5396 0.4312
0.9116 0.5448 0.4364
0.1940 0.6034 0.4117
0.2858 0.6086 0.4169
0.3776 0.6138 0.4221
0.4694 0.6190 0.4273
0.5612 0.6242 0.4325
0.6530 0.6294 0.4377
0.7448 0.6346 0.4429
0.8366 0.6398 0.4481
0.9284 0.6450 0.4532
0.2108 0.7036 0.4285
0.3026 0.7088 0.4337
0.3944 0.7140 0.4389
0.4862 0.7192 0.4441
0.5780 0.7244 0.4493
0.6698 0.7296 0.4545
0.7617 0.7348 0.4597
0.8535 0.7400 0.4649
0.9453 0.7451 0.4701
0.2277 0.8038 0.4453
0.3195 0.8090 0.4505
0.4113 0.8142 0.4557
0.5031 0.8194 0.4609
0.5949 0.8246 0.4661
0.6867 0.8297 0.4713
0.7785 0.8349 0.4765
0.8703 0.8401 0.4817
0.9621 0.8453 0.4869
0.2445 0.9040 0.4621
0.3363 0.9092 0.4673
0.4281 0.9143 0.4725
0.5199 0.9195 0.4777
0.6117 0.9247 0.4829
0.7035 0.9299 0.4881
0.7953 0.9351 0.4933
0.8871 0.9403 0.4985
0.9789 0.9455 0.5037
0.1115 0.1041 0.4067
0.2033 0.1093 0.4119
0.2951 0.1145 0.4171
0.3869 0.1197 0.4223
0.4787 0.1249 0.4275
0.5705 0.1301 0.4327
0.6623 0.1353 0.4379
0.7541 0.1405 0.4431
0.8459 0.1457 0.4482
0.1283 0.2043 0.4235
0.2201 0.2095 0.4287
0.3119 0.2147 0.4339
0.4037 0.2199 0.4391
0.4955 0.2251 0.4443
0.5873 0.2303 0.4495
0.6791 0.2354 0.4547
0.7710 0.2406 0.4599
0.8628 0.2458 0.4651
0.1451 0.3045 0.4403
0.2370 0.3097 0.4455
0.3288 0.3149 0.4507
0.4206 0.3200 0.4559
0.5124 0.3252 0.4611
0.6042 0.3304 0.4663
0.6960 0.3356 0.4715
0.7878 0.3408 0.4767
0.8796 0.3460 0.4819
0.1620 0.4046 0.4571
0.2538 0.4098 0.4623
0.3456 0.4150 0.4675
0.4374 0.4202 0.4727
0.5292 0.4254 0.4779
0.6210 0.4306 0.4831
0.7128 0.4358 0.4883
0.8046 0.4410 0.4935
0.8964 0.4462 0.4987
0.1788 0.5048 0.4740
0.2706 0.5100 0.4792
0.3624 0.5152 0.4844
0.4542 0.5204 0.4895
0.5460 0.5256 0.4947
0.6378 0.5308 0.4999
0.7296 0.5360 0.5051
0.8214 0.5412 0.5103
0.9132 0.5464 0.5155
0.1956 0.6050 0.4908
0.2874 0.6102 0.4960
0.3792 0.6154 0.5012
0.4710 0.6206 0.5064
0.5628 0.6258 0.5116
0.6546 0.6310 0.5167
0.7464 0.6362 0.5219
0.8382 0.6414 0.5271
0.9300 0.6465 0.5323
0.2124 0.7052 0.5076
0.3042 0.7104 0.5128
0.3960 0.7156 0.5180
0.4878 0.7208 0.5232
0.5796 0.7260 0.5284
0.6714 0.7311 0.5336
0.7632 0.7363 0.5388
0.8550 0.7415 0.5440
0.9468 0.7467 0.5491
0.2292 0.8054 0.5244
0.3210 0.8106 0.5296
0.4128 0.8157 0.5348
0.5046 0.8209 0.5400
0.5964 0.8261 0.5452
0.6882 0.8313 0.5504
0.7800 0.8365 0.5556
0.8718 0.8417 0.5608
0.9637 0.8469 0.5660
0.2460 0.9055 0.5412
0.3378 0.9107 0.5464
0.4297 0.9159 0.5516
0.5215 0.9211 0.5568
0.6133 0.9263 0.5620
0.7051 0.9315 0.5672
0.7969 0.9367 0.5724
0.8887 0.9419 0.5776
0.9805 0.9471 0.5828
0.1131 0.1057 0.4858
0.2049 0.1109 0.4910
0.2967 0.1161 0.4962
0.3885 0.1213 0.5014
0.4803 0.1265 0.5066
0.5721 0.1317 0.5117
0.6639 0.1368 0.5169
0.7557 0.1420 0.5221
0.8475 0.1472 0.5273
0.1299 0.2059 0.5026
0.2217 0.2111 0.5078
0.3135 0.2163 0.5130
0.4053 0.2214 0.5182
0.4971 0.2266 0.5234
0.5889 0.2318 0.5286
0.6807 0.2370 0.5338
0.7725 0.2422 0.5389
0.8643 0.2474 0.5441
0.1467 0.3060 0.5194
0.2385 0.3112 0.5246
0.3303 0.3164 0.5298
0.4221 0.3216 0.5350
0.5139 0.3268 0.5402
0.6057 0.3320 0.5454
0.6975 0.3372 0.5506
0.7893 0.3424 0.5558
0.8811 0.3476 0.5610
0.1635 0.4062 0.5362
0.2553 0.4114 0.5414
0.3471 0.4166 0.5466
0.4390 0.4218 0.5518
0.5308 0.4270 0.5570
0.6226 0.4322 0.5622
0.7144 0.4374 0.5674
0.8062 0.4426 0.5726
0.8980 0.4478 0.5778
0.1804 0.5064 0.5530
0.2722 0.5116 0.5582
0.3640 0.5168 0.5634
0.4558 0.5220 0.5686
0.5476 0.5272 0.5738
0.6394 0.5324 0.5790
0.7312 0.5376 0.5842
0.8230 0.5428 0.5894
0.9148 0.5479 0.5946
0.1972 0.6066 0.5699
0.2890 0.6118 0.5751
0.3808 0.6170 0.5802
0.4726 0.6222 0.5854
0.5644 0.6274 0.5906
0.6562 0.6325 0.5958
0.7480 0.6377 0.6010
0.8398 0.6429 0.6062
0.9316 0.6481 0.6114
0.2140 0.7068 0.5867
0.3058 0.7119 0.5919
0.3976 0.7171 0.5971
0.4894 0.7223 0.6023
0.5812 0.7275 0.6074
0.6730 0.7327 0.6126
0.7648 0.7379 0.6178
0.8566 0.7431 0.6230
0.9484 0.7483 0.6282
0.2308 0.8069 0.6035
0.3226 0.8121 0.6087
0.4144 0.8173 0.6139
0.5062 0.8225 0.6191
0.5980 0.8277 0.6243
0.6898 0.8329 0.6295
0.7816 0.8381 0.6347
0.8734 0.8433 0.6398
0.9652 0.8485 0.6450
0.2476 0.9071 0.6203
0.3394 0.9123 0.6255
0.4312 0.9175 0.6307
0.5230 0.9227 0.6359
0.6148 0.9279 0.6411
0.7066 0.9331 0.6463
0.7984 0.9383 0.6515
0.8902 0.9435 0.6567
0.9820 0.9487 0.6619
0.1147 0.1073 0.5649
0.2065 0.1125 0.5701
0.2983 0.1176 0.5752
0.3901 0.1228 0.5804
0.4819 0.1280 0.5856
0.5737 0.1332 0.5908
0.6655 0.1384 0.5960
0.7573 0.1436 0.6012
0.8491 0.1488 0.6064
0.1315 0.2074 0.5817
0.2233 0.2126 0.5869
0.3151 0.2178 0.5921
0.4069 0.2230 0.5973
0.4987 0.2282 0.6024
0.5905 0.2334 0.6076
0.6823 0.2386 0.6128
0.7741 0.2438 0.6180
0.8659 0.2490 0.6232
0.1483 0.3076 0.5985
0.2401 0.3128 0.6037
0.3319 0.3180 0.6089
0.4237 0.3232 0.6141
0.5155 0.3284 0.6193
0.6073 0.3336 0.6245
0.6991 0.3388 0.6297
0.7909 0.3440 0.6348
0.8827 0.3492 0.6400
0.1651 0.4078 0.6153
0.2569 0.4130 0.6205
0.3487 0.4182 0.6257
0.4405 0.4234 0.6309
0.5323 0.4286 0.6361
0.6241 0.4338 0.6413
0.7159 0.4390 0.6465
0.8077 0.4442 0.6517
0.8995 0.4493 0.6569
0.1819 0.5080 0.6321
0.2737 0.5132 0.6373
0.3655 0.5184 0.6425
0.4573 0.5236 0.6477
0.5491 0.5288 0.6529
0.6410 0.5339 0.6581
0.7328 0.5391 0.6633
0.8246 0.5443 0.6685
0.9164 0.5495 0.6737
0.1988 0.6082 0.6489
0.2906 0.6133 0.6541
0.3824 0.6185 0.6593
0.4742 0.6237 0.6645
0.5660 0.6289 0.6697
0.6578 0.6341 0.6749
0.7496 0.6393 0.6801
0.8414 0.6445 0.6853
0.9332 0.6497 0.6905
0.2156 0.7083 0.6658
0.3074 0.7135 0.6709
0.3992 0.7187 0.6761
0.4910 0.7239 0.6813
0.5828 0.7291 0.6865
0.6746 0.7343 0.6917
0.7664 0.7395 0.6969
0.8582 0.7447 0.7021
0.9500 0.7499 0.7073
0.2324 0.8085 0.6826
0.3242 0.8137 0.6878
0.4160 0.8189 0.6930
0.5078 0.8241 0.6982
0.5996 0.8293 0.7033
0.6914 0.8345 0.7085
0.7832 0.8397 0.7137
0.8750 0.8449 0.7189
0.9668 0.8501 0.7241
0.2492 0.9087 0.6994
0.3410 0.9139 0.7046
0.4328 0.9191 0.7098
0.5246 0.9243 0.7150
0.6164 0.9295 0.7202
0.7082 0.9347 0.7254
0.8000 0.9399 0.7305
0.8918 0.9450 0.7357
0.9836 0.9502 0.7409
0.1163 0.1088 0.6439
0.2081 0.1140 0.6491
0.2999 0.1192 0.6543
0.3917 0.1244 0.6595
0.4835 0.1296 0.6647
0.5753 0.1348 0.6699
0.6671 0.1400 0.6751
0.7589 0.1452 0.6803
0.8507 0.1504 0.6855
0.1331 0.2090 0.6608
0.2249 0.2142 0.6659
0.3167 0.2194 0.6711
0.4085 0.2246 0.6763
0.5003 0.2298 0.6815
0.5921 0.2350 0.6867
0.6839 0.2402 0.6919
0.7757 0.2454 0.6971
0.8675 0.2506 0.7023
0.1499 0.3092 0.6776
0.2417 0.3144 0.6828
0.3335 0.3196 0.6880
0.4253 0.3248 0.6931
0.5171 0.3300 0.6983
0.6089 0.3352 0.7035
0.7007 0.3404 0.7087
0.7925 0.3456 0.7139
0.8843 0.3507 0.7191
0.1667 0.4094 0.6944
0.2585 0.4146 0.6996
0.3503 0.4198 0.7048
0.4421 0.4250 0.7100
0.5339 0.4302 0.7152
0.6257 0.4353 0.7204
0.7175 0.4405 0.7255
0.8093 0.4457 0.7307
0.9011 0.4509 0.7359
0.1835 0.5096 0.7112
0.2753 0.5147 0.7164
0.3671 0.5199 0.7216
0.4589 0.5251 0.7268
0.5507 0.5303 0.7320
0.6425 0.5355 0.7372
0.7343 0.5407 0.7424
0.8261 0.5459 0.7476
0.9179 0.5511 0.7527
0.2003 0.6097 0.7280
0.2921 0.6149 0.7332
0.3839 0.6201 0.7384
0.4757 0.6253 0.7436
0.5675 0.6305 0.7488
0.6593 0.6357 0.7540
0.7511 0.6409 0.7592
0.8430 0.6461 0.7644
0.9348 0.6513 0.7696
0.2171 0.7099 0.7448
0.3090 0.7151 0.7500
0.4008 0.7203 0.7552
0.4926 0.7255 0.7604
0.5844 0.7307 0.7656
0.6762 0.7359 0.7708
0.7680 0.7411 0.7760
0.8598 0.7463 0.7812
0.9516 0.7515 0.7864
0.2340 0.8101 0.7616
0.3258 0.8153 0.7668
0.4176 0.8205 0.7720
0.5094 0.8257 0.7772
0.6012 0.8309 0.7824
0.6930 0.8361 0.7876
0.7848 0.8413 0.7928
0.8766 0.8464 0.7980
0.9684 0.8516 0.8032
0.2508 0.9103 0.7785
0.3426 0.9155 0.7837
0.4344 0.9207 0.7889
0.5262 0.9259 0.7940
0.6180 0.9310 0.7992
0.7098 0.9362 0.8044
0.8016 0.9414 0.8096
0.8934 0.9466 0.8148
0.9852 0.9518 0.8200
0.1178 0.1104 0.7230
0.2096 0.1156 0.7282
0.3014 0.1208 0.7334
0.3932 0.1260 0.7386
0.4850 0.1312 0.7438
0.5768 0.1364 0.7490
0.6686 0.1416 0.7542
0.7604 0.1468 0.7594
0.8523 0.1520 0.7646
0.1346 0.2106 0.7398
0.2264 0.2158 0.7450
0.3183 0.2210 0.7502
0.4101 0.2262 0.7554
0.5019 0.2314 0.7606
0.5937 0.2366 0.7658
0.6855 0.2418 0.7710
0.7773 0.2470 0.7762
0.8691 0.2521 0.7814
0.1515 0.3108 0.7566
0.2433 0.3160 0.7618
0.3351 0.3212 0.7670
0.4269 0.3264 0.7722
0.5187 0.3316 0.7774
0.6105 0.3367 0.7826
0.7023 0.3419 0.7878
0.7941 0.3471 0.7930
0.8859 0.3523 0.7982
0.1683 0.4110 0.7735
0.2601 0.4161 0.7787
0.3519 0.4213 0.7839
0.4437 0.4265 0.7890
0.5355 0.4317 0.7942
0.6273 0.4369 0.7994
0.7191 0.4421 0.8046
0.8109 0.4473 0.8098
0.9027 0.4525 0.8150
0.1851 0.5111 0.7903
0.2769 0.5163 0.7955
0.3687 0.5215 0.8007
0.4605 0.5267 0.8059
0.5523 0.5319 0.8111
0.6441 0.5371 0.8162
0.7359 0.5423 0.8214
0.8277 0.5475 0.8266
0.9195 0.5527 0.8318
0.2019 0.6113 0.8071
0.2937 0.6165 0.8123
0.3855 0.6217 0.8175
0.4773 0.6269 0.8227
0.5691 0.6321 0.8279
0.6609 0.6373 0.8331
0.7527 0.6425 0.8383
0.8445 0.6477 0.8435
0.9363 0.6529 0.8486
0.2187 0.7115 0.8239
0.3105 0.7167 0.8291
0.4023 0.7219 0.8343
0.4941 0.7271 0.8395
0.5859 0.7323 0.8447
0.6777 0.7375 0.8499
0.7695 0.7427 0.8551
0.8613 0.7478 0.8603
0.9531 0.7530 0.8655
0.2355 0.8117 0.8407
0.3273 0.8169 0.8459
0.4191 0.8221 0.8511
0.5110 0.8273 0.8563
0.6028 0.8324 0.8615
0.6946 0.8376 0.8667
0.7864 0.8428 0.8719
0.8782 0.8480 0.8771
0.9700 0.8532 0.8823
0.2524 0.9118 0.8575
0.3442 0.9170 0.8627
0.4360 0.9222 0.8679
0.5278 0.9274 0.8731
0.6196 0.9326 0.8783
0.7114 0.9378 0.8835
0.8032 0.9430 0.8887
0.8950 0.9482 0.8939
0.9868 0.9534 0.8991
