luts/warm.cube
# edite look: Warm (CC0)
TITLE "Warm"
LUT_3D_SIZE 17
DOMAIN_MIN 0.0 0.0 0.0
DOMAIN_MAX 1.0 1.0 1.0
0.0000 0.0000 0.0000
0.0723 0.0000 0.0000
0.1477 0.0000 0.0000
0.2231 0.0000 0.0000
0.2986 0.0000 0.0000
0.3740 0.0000 0.0000
0.4494 0.0000 0.0000
0.5248 0.0000 0.0000
0.6002 0.0000 0.0000
0.6756 0.0000 0.0000
0.7511 0.0000 0.0000
0.8265 0.0000 0.0000
0.9019 0.0000 0.0000
0.9773 0.0000 0.0000
1.0000 0.0000 0.0000
1.0000 0.0000 0.0000
1.0000 0.0000 0.0000
0.0000 0.0430 0.0000
0.0666 0.0413 0.0000
0.1420 0.0395 0.0000
0.2175 0.0378 0.0000
0.2929 0.0360 0.0000
0.3683 0.0342 0.0000
0.4437 0.0325 0.0000
0.5191 0.0307 0.0000
0.5945 0.0290 0.0000
0.6700 0.0272 0.0000
0.7454 0.0255 0.0000
0.8208 0.0237 0.0000
0.8962 0.0219 0.0000
0.9716 0.0202 0.0000
1.0000 0.0184 0.0000
1.0000 0.0167 0.0000
1.0000 0.0149 0.0000
0.0000 0.1116 0.0000
0.0609 0.1098 0.0000
0.1363 0.1081 0.0000
0.2118 0.1063 0.0000
0.2872 0.1046 0.0000
0.3626 0.1028 0.0000
0.4380 0.1010 0.0000
0.5134 0.0993 0.0000
0.5888 0.0975 0.0000
0.6643 0.0958 0.0000
0.7397 0.0940 0.0000
0.8151 0.0922 0.0000
0.8905 0.0905 0.0000
0.9659 0.0887 0.0000
1.0000 0.0870 0.0000
1.0000 0.0852 0.0000
1.0000 0.0835 0.0000
0.0000 0.1801 0.0000
0.0552 0.1784 0.0000
0.1307 0.1766 0.0000
0.2061 0.1749 0.0000
0.2815 0.1731 0.0000
0.3569 0.1713 0.0000
0.4323 0.1696 0.0000
0.5077 0.1678 0.0000
0.5832 0.1661 0.0000
0.6586 0.1643 0.0000
0.7340 0.1625 0.0000
0.8094 0.1608 0.0000
0.8848 0.1590 0.0000
0.9602 0.1573 0.0000
1.0000 0.1555 0.0000
1.0000 0.1538 0.0000
1.0000 0.1520 0.0000
0.0000 0.2487 0.0000
0.0496 0.2469 0.0000
0.1250 0.2452 0.0000
0.2004 0.2434 0.0000
0.2758 0.2416 0.0000
0.3512 0.2399 0.0000
0.4266 0.2381 0.0000
0.5021 0.2364 0.0000
0.5775 0.2346 0.0000
0.6529 0.2329 0.0000
0.7283 0.2311 0.0000
0.8037 0.2293 0.0000
0.8791 0.2276 0.0000
0.9546 0.2258 0.0000
1.0000 0.2241 0.0000
1.0000 0.2223 0.0000
1.0000 0.2205 0.0000
0.0000 0.3172 0.0000
0.0439 0.3155 0.0000
0.1193 0.3137 0.0000
0.1947 0.3119 0.0000
0.2701 0.3102 0.0000
0.3455 0.3084 0.0000
0.4209 0.3067 0.0000
0.4964 0.3049 0.0000
0.5718 0.3032 0.0000
0.6472 0.3014 0.0000
0.7226 0.2996 0.0000
0.7980 0.2979 0.0000
0.8735 0.2961 0.0000
0.9489 0.2944 0.0000
1.0000 0.2926 0.0000
1.0000 0.2909 0.0000
1.0000 0.2891 0.0000
0.0000 0.3858 0.0000
0.0382 0.3840 0.0000
0.1136 0.3823 0.0000
0.1890 0.3805 0.0000
0.2644 0.3787 0.0000
0.3398 0.3770 0.0000
0.4153 0.3752 0.0000
0.4907 0.3735 0.0000
0.5661 0.3717 0.0000
0.6415 0.3699 0.0000
0.7169 0.3682 0.0000
0.7923 0.3664 0.0000
0.8678 0.3647 0.0000
0.9432 0.3629 0.0000
1.0000 0.3612 0.0000
1.0000 0.3594 0.0000
1.0000 0.3576 0.0000
0.0000 0.4543 0.0000
0.0325 0.4526 0.0000
0.1079 0.4508 0.0000
0.1833 0.4490 0.0000
0.2587 0.4473 0.0000
0.3342 0.4455 0.0000
0.4096 0.4438 0.0000
0.4850 0.4420 0.0000
0.5604 0.4403 0.0000
0.6358 0.4385 0.0000
0.7112 0.4367 0.0000
0.7867 0.4350 0.0000
0.8621 0.4332 0.0000
0.9375 0.4315 0.0000
1.0000 0.4297 0.0000
1.0000 0.4279 0.0000
1.0000 0.4262 0.0000
0.0000 0.5229 0.0000
0.0268 0.5211 0.0000
0.1022 0.5193 0.0000
0.1776 0.5176 0.0000
0.2530 0.5158 0.0000
0.3285 0.5141 0.0000
0.4039 0.5123 0.0000
0.4793 0.5106 0.0000
0.5547 0.5088 0.0000
0.6301 0.5070 0.0000
0.7056 0.5053 0.0000
0.7810 0.5035 0.0000
0.8564 0.5018 0.0000
0.9318 0.5000 0.0000
1.0000 0.4983 0.0000
1.0000 0.4965 0.0000
1.0000 0.4947 0.0000
0.0000 0.5914 0.0000
0.0211 0.5897 0.0000
0.0965 0.5879 0.0000
0.1719 0.5861 0.0000
0.2474 0.5844 0.0000
0.3228 0.5826 0.0000
0.3982 0.5809 0.0000
0.4736 0.5791 0.0000
0.5490 0.5773 0.0000
0.6244 0.5756 0.0000
0.6999 0.5738 0.0000
0.7753 0.5721 0.0000
0.8507 0.5703 0.0000
0.9261 0.5686 0.0000
1.0000 0.5668 0.0000
1.0000 0.5650 0.0000
1.0000 0.5633 0.0000
0.0000 0.6600 0.0000
0.0154 0.6582 0.0000
0.0908 0.6564 0.0000
0.1663 0.6547 0.0000
0.2417 0.6529 0.0000
0.3171 0.6512 0.0000
0.3925 0.6494 0.0000
0.4679 0.6476 0.0000
0.5433 0.6459 0.0000
0.6188 0.6441 0.0000
0.6942 0.6424 0.0000
0.7696 0.6406 0.0000
0.8450 0.6389 0.0000
0.9204 0.6371 0.0000
0.9958 0.6353 0.0000
1.0000 0.6336 0.0000
1.0000 0.6318 0.0000
0.0000 0.7285 0.0000
0.0097 0.7267 0.0000
0.0852 0.7250 0.0000
0.1606 0.7232 0.0000
0.2360 0.7215 0.0000
0.3114 0.7197 0.0000
0.3868 0.7180 0.0000
0.4622 0.7162 0.0000
0.5377 0.7144 0.0000
0.6131 0.7127 0.0000
0.6885 0.7109 0.0000
0.7639 0.7092 0.0000
0.8393 0.7074 0.0000
0.9147 0.7056 0.0000
0.9902 0.7039 0.0000
1.0000 0.7021 0.0000
1.0000 0.7004 0.0000
0.0000 0.7970 0.0000
0.0040 0.7953 0.0000
0.0795 0.7935 0.0000
0.1549 0.7918 0.0000
0.2303 0.7900 0.0000
0.3057 0.7883 0.0000
0.3811 0.7865 0.0000
0.4565 0.7847 0.0000
0.5320 0.7830 0.0000
0.6074 0.7812 0.0000
0.6828 0.7795 0.0000
0.7582 0.7777 0.0000
0.8336 0.7760 0.0000
0.9090 0.7742 0.0000
0.9845 0.7724 0.0000
1.0000 0.7707 0.0000
1.0000 0.7689 0.0000
0.0000 0.8656 0.0000
0.0000 0.8638 0.0000
0.0738 0.8621 0.0000
0.1492 0.8603 0.0000
0.2246 0.8586 0.0000
0.3000 0.8568 0.0000
0.3754 0.8550 0.0000
0.4509 0.8533 0.0000
0.5263 0.8515 0.0000
0.6017 0.8498 0.0000
0.6771 0.8480 0.0000
0.7525 0.8463 0.0000
0.8279 0.8445 0.0000
0.9034 0.8427 0.0000
0.9788 0.8410 0.0000
1.0000 0.8392 0.0000
1.0000 0.8375 0.0000
0.0000 0.9341 0.0000
0.0000 0.9324 0.0000
0.0681 0.9306 0.0000
0.1435 0.9289 0.0000
0.2189 0.9271 0.0000
0.2943 0.9254 0.0000
0.3698 0.9236 0.0000
0.4452 0.9218 0.0000
0.5206 0.9201 0.0000
0.5960 0.9183 0.0000
0.6714 0.9166 0.0000
0.7468 0.9148 0.0000
0.8223 0.9130 0.0000
0.8977 0.9113 0.0000
0.9731 0.9095 0.0000
1.0000 0.9078 0.0000
1.0000 0.9060 0.0000
0.0000 1.0000 0.0000
0.0000 1.0000 0.0000
0.0624 0.9992 0.0000
0.1378 0.9974 0.0000
0.2132 0.9957 0.0000
0.2886 0.9939 0.0000
0.3641 0.9921 0.0000
0.4395 0.9904 0.0000
0.5149 0.9886 0.0000
0.5903 0.9869 0.0000
0.6657 0.9851 0.0000
0.7411 0.9833 0.0000
0.8166 0.9816 0.0000
0.8920 0.9798 0.0000
0.9674 0.9781 0.0000
1.0000 0.9763 0.0000
1.0000 0.9746 0.0000
0.0000 1.0000 0.0000
0.0000 1.0000 0.0000
0.0567 1.0000 0.0000
0.1321 1.0000 0.0000
0.2075 1.0000 0.0000
0.2830 1.0000 0.0000
0.3584 1.0000 0.0000
0.4338 1.0000 0.0000
0.5092 1.0000 0.0000
0.5846 1.0000 0.0000
0.6600 1.0000 0.0000
0.7355 1.0000 0.0000
0.8109 1.0000 0.0000
0.8863 1.0000 0.0000
0.9617 1.0000 0.0000
1.0000 1.0000 0.0000
1.0000 1.0000 0.0000
0.0000 0.0000 0.0438
0.0718 0.0000 0.0420
0.1472 0.0000 0.0403
0.2226 0.0000 0.0385
0.2980 0.0000 0.0367
0.3734 0.0000 0.0350
0.4489 0.0000 0.0332
0.5243 0.0000 0.0315
0.5997 0.0000 0.0297
0.6751 0.0000 0.0280
0.7505 0.0000 0.0262
0.8259 0.0000 0.0244
0.9014 0.0000 0.0227
0.9768 0.0000 0.0209
1.0000 0.0000 0.0192
1.0000 0.0000 0.0174
1.0000 0.0000 0.0156
0.0000 0.0425 0.0381
0.0661 0.0407 0.0363
0.1415 0.0390 0.0346
0.2169 0.0372 0.0328
0.2923 0.0355 0.0311
0.3677 0.0337 0.0293
0.4432 0.0319 0.0275
0.5186 0.0302 0.0258
0.5940 0.0284 0.0240
0.6694 0.0267 0.0223
0.7448 0.0249 0.0205
0.8202 0.0232 0.0187
0.8957 0.0214 0.0170
0.9711 0.0196 0.0152
1.0000 0.0179 0.0135
1.0000 0.0161 0.0117
1.0000 0.0144 0.0100
0.0000 0.1110 0.0324
0.0604 0.1093 0.0306
0.1358 0.1075 0.0289
0.2112 0.1058 0.0271
0.2866 0.1040 0.0254
0.3621 0.1023 0.0236
0.4375 0.1005 0.0218
0.5129 0.0987 0.0201
0.5883 0.0970 0.0183
0.6637 0.0952 0.0166
0.7391 0.0935 0.0148
0.8146 0.0917 0.0131
0.8900 0.0899 0.0113
0.9654 0.0882 0.0095
1.0000 0.0864 0.0078
1.0000 0.0847 0.0060
1.0000 0.0829 0.0043
0.0000 0.1796 0.0267
0.0547 0.1778 0.0250
0.1301 0.1761 0.0232
0.2055 0.1743 0.0214
0.2810 0.1726 0.0197
0.3564 0.1708 0.0179
0.4318 0.1690 0.0162
0.5072 0.1673 0.0144
0.5826 0.1655 0.0126
0.6580 0.1638 0.0109
0.7335 0.1620 0.0091
0.8089 0.1603 0.0074
0.8843 0.1585 0.0056
0.9597 0.1567 0.0039
1.0000 0.1550 0.0021
1.0000 0.1532 0.0003
1.0000 0.1515 0.0000
0.0000 0.2481 0.0210
0.0490 0.2464 0.0193
0.1244 0.2446 0.0175
0.1998 0.2429 0.0157
0.2753 0.2411 0.0140
0.3507 0.2393 0.0122
0.4261 0.2376 0.0105
0.5015 0.2358 0.0087
0.5769 0.2341 0.0070
0.6523 0.2323 0.0052
0.7278 0.2306 0.0034
0.8032 0.2288 0.0017
0.8786 0.2270 0.0000
0.9540 0.2253 0.0000
1.0000 0.2235 0.0000
1.0000 0.2218 0.0000
1.0000 0.2200 0.0000
0.0000 0.3167 0.0153
0.0433 0.3149 0.0136
0.1187 0.3132 0.0118
0.1942 0.3114 0.0101
0.2696 0.3097 0.0083
0.3450 0.3079 0.0065
0.4204 0.3061 0.0048
0.4958 0.3044 0.0030
0.5712 0.3026 0.0013
0.6467 0.3009 0.0000
0.7221 0.2991 0.0000
0.7975 0.2973 0.0000
0.8729 0.2956 0.0000
0.9483 0.2938 0.0000
1.0000 0.2921 0.0000
1.0000 0.2903 0.0000
1.0000 0.2886 0.0000
0.0000 0.3852 0.0096
0.0376 0.3835 0.0079
0.1131 0.3817 0.0061
0.1885 0.3800 0.0044
0.2639 0.3782 0.0026
0.3393 0.3764 0.0009
0.4147 0.3747 0.0000
0.4901 0.3729 0.0000
0.5656 0.3712 0.0000
0.6410 0.3694 0.0000
0.7164 0.3676 0.0000
0.7918 0.3659 0.0000
0.8672 0.3641 0.0000
0.9426 0.3624 0.0000
1.0000 0.3606 0.0000
1.0000 0.3589 0.0000
1.0000 0.3571 0.0000
0.0000 0.4538 0.0040
0.0319 0.4520 0.0022
0.1074 0.4503 0.0004
0.1828 0.4485 0.0000
0.2582 0.4467 0.0000
0.3336 0.4450 0.0000
0.4090 0.4432 0.0000
0.4844 0.4415 0.0000
0.5599 0.4397 0.0000
0.6353 0.4380 0.0000
0.7107 0.4362 0.0000
0.7861 0.4344 0.0000
0.8615 0.4327 0.0000
0.9370 0.4309 0.0000
1.0000 0.4292 0.0000
1.0000 0.4274 0.0000
1.0000 0.4256 0.0000
0.0000 0.5223 0.0000
0.0263 0.5206 0.0000
0.1017 0.5188 0.0000
0.1771 0.5170 0.0000
0.2525 0.5153 0.0000
0.3279 0.5135 0.0000
0.4033 0.5118 0.0000
0.4788 0.5100 0.0000
0.5542 0.5083 0.0000
0.6296 0.5065 0.0000
0.7050 0.5047 0.0000
0.7804 0.5030 0.0000
0.8558 0.5012 0.0000
0.9313 0.4995 0.0000
1.0000 0.4977 0.0000
1.0000 0.4960 0.0000
1.0000 0.4942 0.0000
0.0000 0.5909 0.0000
0.0206 0.5891 0.0000
0.0960 0.5874 0.0000
0.1714 0.5856 0.0000
0.2468 0.5838 0.0000
0.3222 0.5821 0.0000
0.3977 0.5803 0.0000
0.4731 0.5786 0.0000
0.5485 0.5768 0.0000
0.6239 0.5750 0.0000
0.6993 0.5733 0.0000
0.7747 0.5715 0.0000
0.8502 0.5698 0.0000
0.9256 0.5680 0.0000
1.0000 0.5663 0.0000
1.0000 0.5645 0.0000
1.0000 0.5627 0.0000
0.0000 0.6594 0.0000
0.0149 0.6577 0.0000
0.0903 0.6559 0.0000
0.1657 0.6541 0.0000
0.2411 0.6524 0.0000
0.3165 0.6506 0.0000
0.3920 0.6489 0.0000
0.4674 0.6471 0.0000
0.5428 0.6454 0.0000
0.6182 0.6436 0.0000
0.6936 0.6418 0.0000
0.7691 0.6401 0.0000
0.8445 0.6383 0.0000
0.9199 0.6366 0.0000
0.9953 0.6348 0.0000
1.0000 0.6330 0.0000
1.0000 0.6313 0.0000
0.0000 0.7280 0.0000
0.0092 0.7262 0.0000
0.0846 0.7244 0.0000
0.1600 0.7227 0.0000
0.2354 0.7209 0.0000
0.3109 0.7192 0.0000
0.3863 0.7174 0.0000
0.4617 0.7157 0.0000
0.5371 0.7139 0.0000
0.6125 0.7121 0.0000
0.6879 0.7104 0.0000
0.7634 0.7086 0.0000
0.8388 0.7069 0.0000
0.9142 0.7051 0.0000
0.9896 0.7033 0.0000
1.0000 0.7016 0.0000
1.0000 0.6998 0.0000
0.0000 0.7965 0.0000
0.0035 0.7947 0.0000
0.0789 0.7930 0.0000
0.1543 0.7912 0.0000
0.2298 0.7895 0.0000
0.3052 0.7877 0.0000
0.3806 0.7860 0.0000
0.4560 0.7842 0.0000
0.5314 0.7824 0.0000
0.6068 0.7807 0.0000
0.6823 0.7789 0.0000
0.7577 0.7772 0.0000
0.8331 0.7754 0.0000
0.9085 0.7737 0.0000
0.9839 0.7719 0.0000
1.0000 0.7701 0.0000
1.0000 0.7684 0.0000
0.0000 0.8651 0.0000
0.0000 0.8633 0.0000
0.0732 0.8615 0.0000
0.1487 0.8598 0.0000
0.2241 0.8580 0.0000
0.2995 0.8563 0.0000
0.3749 0.8545 0.0000
0.4503 0.8527 0.0000
0.5257 0.8510 0.0000
0.6012 0.8492 0.0000
0.6766 0.8475 0.0000
0.7520 0.8457 0.0000
0.8274 0.8440 0.0000
0.9028 0.8422 0.0000
0.9782 0.8404 0.0000
1.0000 0.8387 0.0000
1.0000 0.8369 0.0000
0.0000 0.9336 0.0000
0.0000 0.9318 0.0000
0.0675 0.9301 0.0000
0.1430 0.9283 0.0000
0.2184 0.9266 0.0000
0.2938 0.9248 0.0000
0.3692 0.9231 0.0000
0.4446 0.9213 0.0000
0.5200 0.9195 0.0000
0.5955 0.9178 0.0000
0.6709 0.9160 0.0000
0.7463 0.9143 0.0000
0.8217 0.9125 0.0000
0.8971 0.9107 0.0000
0.9725 0.9090 0.0000
1.0000 0.9072 0.0000
1.0000 0.9055 0.0000
0.0000 1.0000 0.0000
0.0000 1.0000 0.0000
0.0619 0.9986 0.0000
0.1373 0.9969 0.0000
0.2127 0.9951 0.0000
0.2881 0.9934 0.0000
0.3635 0.9916 0.0000
0.4389 0.9898 0.0000
0.5144 0.9881 0.0000
0.5898 0.9863 0.0000
0.6652 0.9846 0.0000
0.7406 0.9828 0.0000
0.8160 0.9811 0.0000
0.8914 0.9793 0.0000
0.9669 0.9775 0.0000
1.0000 0.9758 0.0000
1.0000 0.9740 0.0000
0.0000 1.0000 0.0000
0.0000 1.0000 0.0000
0.0562 1.0000 0.0000
0.1316 1.0000 0.0000
0.2070 1.0000 0.0000
0.2824 1.0000 0.0000
0.3578 1.0000 0.0000
0.4333 1.0000 0.0000
0.5087 1.0000 0.0000
0.5841 1.0000 0.0000
0.6595 1.0000 0.0000
0.7349 1.0000 0.0000
0.8103 1.0000 0.0000
0.8858 1.0000 0.0000
0.9612 1.0000 0.0000
1.0000 1.0000 0.0000
1.0000 1.0000 0.0000
0.0000 0.0000 0.1131
0.0712 0.0000 0.1113
0.1466 0.0000 0.1095
0.2221 0.0000 0.1078
0.2975 0.0000 0.1060
0.3729 0.0000 0.1043
0.4483 0.0000 0.1025
0.5237 0.0000 0.1008
0.5991 0.0000 0.0990
0.6746 0.0000 0.0972
0.7500 0.0000 0.0955
0.8254 0.0000 0.0937
0.9008 0.0000 0.0920
0.9762 0.0000 0.0902
1.0000 0.0000 0.0884
1.0000 0.0000 0.0867
1.0000 0.0000 0.0849
0.0000 0.0420 0.1074
0.0655 0.0402 0.1056
0.1410 0.0384 0.1039
0.2164 0.0367 0.1021
0.2918 0.0349 0.1003
0.3672 0.0332 0.0986
0.4426 0.0314 0.0968
0.5180 0.0297 0.0951
0.5935 0.0279 0.0933
0.6689 0.0261 0.0915
0.7443 0.0244 0.0898
0.8197 0.0226 0.0880
0.8951 0.0209 0.0863
0.9705 0.0191 0.0845
1.0000 0.0173 0.0828
1.0000 0.0156 0.0810
1.0000 0.0138 0.0792
0.0000 0.1105 0.1017
0.0598 0.1087 0.0999
0.1353 0.1070 0.0982
0.2107 0.1052 0.0964
0.2861 0.1035 0.0947
0.3615 0.1017 0.0929
0.4369 0.1000 0.0911
0.5124 0.0982 0.0894
0.5878 0.0964 0.0876
0.6632 0.0947 0.0859
0.7386 0.0929 0.0841
0.8140 0.0912 0.0823
0.8894 0.0894 0.0806
0.9649 0.0876 0.0788
1.0000 0.0859 0.0771
1.0000 0.0841 0.0753
1.0000 0.0824 0.0736
0.0000 0.1790 0.0960
0.0542 0.1773 0.0942
0.1296 0.1755 0.0925
0.2050 0.1738 0.0907
0.2804 0.1720 0.0890
0.3558 0.1703 0.0872
0.4312 0.1685 0.0854
0.5067 0.1667 0.0837
0.5821 0.1650 0.0819
0.6575 0.1632 0.0802
0.7329 0.1615 0.0784
0.8083 0.1597 0.0767
0.8837 0.1580 0.0749
0.9592 0.1562 0.0731
1.0000 0.1544 0.0714
1.0000 0.1527 0.0696
1.0000 0.1509 0.0679
0.0000 0.2476 0.0903
0.0485 0.2458 0.0885
0.1239 0.2441 0.0868
0.1993 0.2423 0.0850
0.2747 0.2406 0.0833
0.3501 0.2388 0.0815
0.4256 0.2370 0.0798
0.5010 0.2353 0.0780
0.5764 0.2335 0.0762
0.6518 0.2318 0.0745
0.7272 0.2300 0.0727
0.8026 0.2283 0.0710
0.8781 0.2265 0.0692
0.9535 0.2247 0.0675
1.0000 0.2230 0.0657
1.0000 0.2212 0.0639
1.0000 0.2195 0.0622
0.0000 0.3161 0.0846
0.0428 0.3144 0.0829
0.1182 0.3126 0.0811
0.1936 0.3109 0.0793
0.2690 0.3091 0.0776
0.3445 0.3074 0.0758
0.4199 0.3056 0.0741
0.4953 0.3038 0.0723
0.5707 0.3021 0.0706
0.6461 0.3003 0.0688
0.7215 0.2986 0.0670
0.7970 0.2968 0.0653
0.8724 0.2950 0.0635
0.9478 0.2933 0.0618
1.0000 0.2915 0.0600
1.0000 0.2898 0.0582
1.0000 0.2880 0.0565
0.0000 0.3847 0.0789
0.0371 0.3829 0.0772
0.1125 0.3812 0.0754
0.1879 0.3794 0.0737
0.2633 0.3777 0.0719
0.3388 0.3759 0.0701
0.4142 0.3741 0.0684
0.4896 0.3724 0.0666
0.5650 0.3706 0.0649
0.6404 0.3689 0.0631
0.7158 0.3671 0.0613
0.7913 0.3654 0.0596
0.8667 0.3636 0.0578
0.9421 0.3618 0.0561
1.0000 0.3601 0.0543
1.0000 0.3583 0.0526
1.0000 0.3566 0.0508
0.0000 0.4532 0.0732
0.0314 0.4515 0.0715
0.1068 0.4497 0.0697
0.1822 0.4480 0.0680
0.2577 0.4462 0.0662
0.3331 0.4444 0.0645
0.4085 0.4427 0.0627
0.4839 0.4409 0.0609
0.5593 0.4392 0.0592
0.6347 0.4374 0.0574
0.7102 0.4357 0.0557
0.7856 0.4339 0.0539
0.8610 0.4321 0.0521
0.9364 0.4304 0.0504
1.0000 0.4286 0.0486
1.0000 0.4269 0.0469
1.0000 0.4251 0.0451
0.0000 0.5218 0.0676
0.0257 0.5200 0.0658
0.1011 0.5183 0.0640
0.1766 0.5165 0.0623
0.2520 0.5147 0.0605
0.3274 0.5130 0.0588
0.4028 0.5112 0.0570
0.4782 0.5095 0.0552
0.5536 0.5077 0.0535
0.6291 0.5060 0.0517
0.7045 0.5042 0.0500
0.7799 0.5024 0.0482
0.8553 0.5007 0.0465
0.9307 0.4989 0.0447
1.0000 0.4972 0.0429
1.0000 0.4954 0.0412
1.0000 0.4937 0.0394
0.0000 0.5903 0.0619
0.0200 0.5886 0.0601
0.0954 0.5868 0.0583
0.1709 0.5851 0.0566
0.2463 0.5833 0.0548
0.3217 0.5815 0.0531
0.3971 0.5798 0.0513
0.4725 0.5780 0.0496
0.5479 0.5763 0.0478
0.6234 0.5745 0.0460
0.6988 0.5727 0.0443
0.7742 0.5710 0.0425
0.8496 0.5692 0.0408
0.9250 0.5675 0.0390
1.0000 0.5657 0.0373
1.0000 0.5640 0.0355
1.0000 0.5622 0.0337
0.0000 0.6589 0.0562
0.0143 0.6571 0.0544
0.0898 0.6554 0.0527
0.1652 0.6536 0.0509
0.2406 0.6518 0.0491
0.3160 0.6501 0.0474
0.3914 0.6483 0.0456
0.4668 0.6466 0.0439
0.5423 0.6448 0.0421
0.6177 0.6431 0.0404
0.6931 0.6413 0.0386
0.7685 0.6395 0.0368
0.8439 0.6378 0.0351
0.9193 0.6360 0.0333
0.9948 0.6343 0.0316
1.0000 0.6325 0.0298
1.0000 0.6307 0.0280
0.0000 0.7274 0.0505
0.0087 0.7257 0.0487
0.0841 0.7239 0.0470
0.1595 0.7221 0.0452
0.2349 0.7204 0.0435
0.3103 0.7186 0.0417
0.3857 0.7169 0.0399
0.4612 0.7151 0.0382
0.5366 0.7134 0.0364
0.6120 0.7116 0.0347
0.6874 0.7098 0.0329
0.7628 0.7081 0.0311
0.8382 0.7063 0.0294
0.9137 0.7046 0.0276
0.9891 0.7028 0.0259
1.0000 0.7011 0.0241
1.0000 0.6993 0.0224
0.0000 0.7960 0.0448
0.0030 0.7942 0.0430
0.0784 0.7925 0.0413
0.1538 0.7907 0.0395
0.2292 0.7889 0.0378
0.3046 0.7872 0.0360
0.3800 0.7854 0.0342
0.4555 0.7837 0.0325
0.5309 0.7819 0.0307
0.6063 0.7801 0.0290
0.6817 0.7784 0.0272
0.7571 0.7766 0.0255
0.8326 0.7749 0.0237
0.9080 0.7731 0.0219
0.9834 0.7714 0.0202
1.0000 0.7696 0.0184
1.0000 0.7678 0.0167
0.0000 0.8645 0.0391
0.0000 0.8628 0.0374
0.0727 0.8610 0.0356
0.1481 0.8592 0.0338
0.2235 0.8575 0.0321
0.2989 0.8557 0.0303
0.3744 0.8540 0.0286
0.4498 0.8522 0.0268
0.5252 0.8505 0.0250
0.6006 0.8487 0.0233
0.6760 0.8469 0.0215
0.7514 0.8452 0.0198
0.8269 0.8434 0.0180
0.9023 0.8417 0.0163
0.9777 0.8399 0.0145
1.0000 0.8381 0.0127
1.0000 0.8364 0.0110
0.0000 0.9331 0.0334
0.0000 0.9313 0.0317
0.0670 0.9295 0.0299
0.1424 0.9278 0.0281
0.2178 0.9260 0.0264
0.2933 0.9243 0.0246
0.3687 0.9225 0.0229
0.4441 0.9208 0.0211
0.5195 0.9190 0.0194
0.5949 0.9172 0.0176
0.6703 0.9155 0.0158
0.7458 0.9137 0.0141
0.8212 0.9120 0.0123
0.8966 0.9102 0.0106
0.9720 0.9084 0.0088
1.0000 0.9067 0.0071
1.0000 0.9049 0.0053
0.0000 1.0000 0.0277
0.0000 0.9998 0.0260
0.0613 0.9981 0.0242
0.1367 0.9963 0.0225
0.2121 0.9946 0.0207
0.2876 0.9928 0.0189
0.3630 0.9911 0.0172
0.4384 0.9893 0.0154
0.5138 0.9875 0.0137
0.5892 0.9858 0.0119
0.6647 0.9840 0.0102
0.7401 0.9823 0.0084
0.8155 0.9805 0.0066
0.8909 0.9788 0.0049
0.9663 0.9770 0.0031
1.0000 0.9752 0.0014
1.0000 0.9735 0.0000
0.0000 1.0000 0.0220
0.0000 1.0000 0.0203
0.0556 1.0000 0.0185
0.1310 1.0000 0.0168
0.2065 1.0000 0.0150
0.2819 1.0000 0.0133
0.3573 1.0000 0.0115
0.4327 1.0000 0.0097
0.5081 1.0000 0.0080
0.5835 1.0000 0.0062
0.6590 1.0000 0.0045
0.7344 1.0000 0.0027
0.8098 1.0000 0.0009
0.8852 1.0000 0.0000
0.9606 1.0000 0.0000
1.0000 1.0000 0.0000
1.0000 1.0000 0.0000
0.0000 0.0000 0.1823
0.0707 0.0000 0.1806
0.1461 0.0000 0.1788
0.2215 0.0000 0.1771
0.2969 0.0000 0.1753
0.3724 0.0000 0.1736
0.4478 0.0000 0.1718
0.5232 0.0000 0.1700
0.5986 0.0000 0.1683
0.6740 0.0000 0.1665
0.7494 0.0000 0.1648
0.8249 0.0000 0.1630
0.9003 0.0000 0.1612
0.9757 0.0000 0.1595
1.0000 0.0000 0.1577
1.0000 0.0000 0.1560
1.0000 0.0000 0.1542
0.0000 0.0414 0.1767
0.0650 0.0397 0.1749
0.1404 0.0379 0.1731
0.2158 0.0361 0.1714
0.2912 0.0344 0.1696
0.3667 0.0326 0.1679
0.4421 0.0309 0.1661
0.5175 0.0291 0.1644
0.5929 0.0274 0.1626
0.6683 0.0256 0.1608
0.7438 0.0238 0.1591
0.8192 0.0221 0.1573
0.8946 0.0203 0.1556
0.9700 0.0186 0.1538
1.0000 0.0168 0.1520
1.0000 0.0150 0.1503
