luts/warm.cube
# edite look: Warm (CC0)
TITLE "Warm"
LUT_3D_SIZE 5
DOMAIN_MIN 0.0 0.0 0.0
DOMAIN_MAX 1.0 1.0 1.0
0.0000 0.0000 0.0000
0.2986 0.0000 0.0000
0.6002 0.0000 0.0000
0.9019 0.0000 0.0000
1.0000 0.0000 0.0000
0.0000 0.2487 0.0000
0.2758 0.2416 0.0000
0.5775 0.2346 0.0000
0.8791 0.2276 0.0000
1.0000 0.2205 0.0000
0.0000 0.5229 0.0000
0.2530 0.5158 0.0000
0.5547 0.5088 0.0000
0.8564 0.5018 0.0000
1.0000 0.4947 0.0000
0.0000 0.7970 0.0000
0.2303 0.7900 0.0000
0.5320 0.7830 0.0000
0.8336 0.7760 0.0000
1.0000 0.7689 0.0000
0.0000 1.0000 0.0000
0.2075 1.0000 0.0000
0.5092 1.0000 0.0000
0.8109 1.0000 0.0000
1.0000 1.0000 0.0000
0.0000 0.0000 0.2516
0.2964 0.0000 0.2446
0.5981 0.0000 0.2376
0.8997 0.0000 0.2305
1.0000 0.0000 0.2235
0.0000 0.2465 0.2289
0.2736 0.2395 0.2218
0.5753 0.2325 0.2148
0.8770 0.2254 0.2078
1.0000 0.2184 0.2007
0.0000 0.5207 0.2061
0.2509 0.5137 0.1991
0.5526 0.5066 0.1921
0.8542 0.4996 0.1850
1.0000 0.4926 0.1780
0.0000 0.7949 0.1834
0.2281 0.7879 0.1763
0.5298 0.7808 0.1693
0.8315 0.7738 0.1623
1.0000 0.7668 0.1552
0.0000 1.0000 0.1606
0.2054 1.0000 0.1536
0.5070 1.0000 0.1465
0.8087 1.0000 0.1395
1.0000 1.0000 0.1325
0.0000 0.0000 0.5288
0.2942 0.0000 0.5217
0.5959 0.0000 0.5147
0.8976 0.0000 0.5077
1.0000 0.0000 0.5006
0.0000 0.2444 0.5060
0.2715 0.2373 0.4990
0.5732 0.2303 0.4920
0.8748 0.2233 0.4849
1.0000 0.2162 0.4779
0.0000 0.5185 0.4833
0.2487 0.5115 0.4762
0.5504 0.5045 0.4692
0.8521 0.4974 0.4622
1.0000 0.4904 0.4551
0.0000 0.7927 0.4605
0.2260 0.7857 0.4535
0.5276 0.7787 0.4464
0.8293 0.7716 0.4394
1.0000 0.7646 0.4324
0.0000 1.0000 0.4378
0.2032 1.0000 0.4307
0.5049 1.0000 0.4237
0.8066 1.0000 0.4167
1.0000 1.0000 0.4096
0.0000 0.0000 0.8059
0.2921 0.0000 0.7989
0.5937 0.0000 0.7918
0.8954 0.0000 0.7848
1.0000 0.0000 0.7778
0.0000 0.2422 0.7832
0.2693 0.2352 0.7761
0.5710 0.2281 0.7691
0.8727 0.2211 0.7621
1.0000 0.2141 0.7550
0.0000 0.5164 0.7604
0.2466 0.5093 0.7534
0.5482 0.5023 0.7463
0.8499 0.4953 0.7393
1.0000 0.4883 0.7323
0.0000 0.7906 0.7376
0.2238 0.7835 0.7306
0.5255 0.7765 0.7236
0.8272 0.7695 0.7166
1.0000 0.7624 0.7095
0.0000 1.0000 0.7149
0.2011 1.0000 0.7079
0.5027 1.0000 0.7008
0.8044 1.0000 0.6938
1.0000 1.0000 0.6868
0.0000 0.0000 1.0000
0.2899 0.0000 1.0000
0.5916 0.0000 1.0000
0.8933 0.0000 1.0000
1.0000 0.0000 1.0000
0.0000 0.2400 1.0000
0.2672 0.2330 1.0000
0.5688 0.2260 1.0000
0.8705 0.2189 1.0000
1.0000 0.2119 1.0000
0.0000 0.5142 1.0000
0.2444 0.5072 1.0000
0.5461 0.5002 1.0000
0.8477 0.4931 1.0000
1.0000 0.4861 1.0000
0.0000 0.7884 1.0000
0.2217 0.7814 1.0000
0.5233 0.7743 1.0000
0.8250 0.7673 0.9937
1.0000 0.7603 0.9867
0.0000 1.0000 0.9920
0.1989 1.0000 0.9850
0.5006 1.0000 0.9780
0.8022 1.0000 0.9709
1.0000 1.0000 0.9639
