luts/warm.cube
# edite look: Warm (CC0)
TITLE "Warm"
LUT_3D_SIZE 9
DOMAIN_MIN 0.0 0.0 0.0
DOMAIN_MAX 1.0 1.0 1.0
0.0000 0.0000 0.0000
0.1477 0.0000 0.0000
0.2986 0.0000 0.0000
0.4494 0.0000 0.0000
0.6002 0.0000 0.0000
0.7511 0.0000 0.0000
0.9019 0.0000 0.0000
1.0000 0.0000 0.0000
1.0000 0.0000 0.0000
0.0000 0.1116 0.0000
0.1363 0.1081 0.0000
0.2872 0.1046 0.0000
0.4380 0.1010 0.0000
0.5888 0.0975 0.0000
0.7397 0.0940 0.0000
0.8905 0.0905 0.0000
1.0000 0.0870 0.0000
1.0000 0.0835 0.0000
0.0000 0.2487 0.0000
0.1250 0.2452 0.0000
0.2758 0.2416 0.0000
0.4266 0.2381 0.0000
0.5775 0.2346 0.0000
0.7283 0.2311 0.0000
0.8791 0.2276 0.0000
1.0000 0.2241 0.0000
1.0000 0.2205 0.0000
0.0000 0.3858 0.0000
0.1136 0.3823 0.0000
0.2644 0.3787 0.0000
0.4153 0.3752 0.0000
0.5661 0.3717 0.0000
0.7169 0.3682 0.0000
0.8678 0.3647 0.0000
1.0000 0.3612 0.0000
1.0000 0.3576 0.0000
0.0000 0.5229 0.0000
0.1022 0.5193 0.0000
0.2530 0.5158 0.0000
0.4039 0.5123 0.0000
0.5547 0.5088 0.0000
0.7056 0.5053 0.0000
0.8564 0.5018 0.0000
1.0000 0.4983 0.0000
1.0000 0.4947 0.0000
0.0000 0.6600 0.0000
0.0908 0.6564 0.0000
0.2417 0.6529 0.0000
0.3925 0.6494 0.0000
0.5433 0.6459 0.0000
0.6942 0.6424 0.0000
0.8450 0.6389 0.0000
0.9958 0.6353 0.0000
1.0000 0.6318 0.0000
0.0000 0.7970 0.0000
0.0795 0.7935 0.0000
0.2303 0.7900 0.0000
0.3811 0.7865 0.0000
0.5320 0.7830 0.0000
0.6828 0.7795 0.0000
0.8336 0.7760 0.0000
0.9845 0.7724 0.0000
1.0000 0.7689 0.0000
0.0000 0.9341 0.0000
0.0681 0.9306 0.0000
0.2189 0.9271 0.0000
0.3698 0.9236 0.0000
0.5206 0.9201 0.0000
0.6714 0.9166 0.0000
0.8223 0.9130 0.0000
0.9731 0.9095 0.0000
1.0000 0.9060 0.0000
0.0000 1.0000 0.0000
0.0567 1.0000 0.0000
0.2075 1.0000 0.0000
0.3584 1.0000 0.0000
0.5092 1.0000 0.0000
0.6600 1.0000 0.0000
0.8109 1.0000 0.0000
0.9617 1.0000 0.0000
1.0000 1.0000 0.0000
0.0000 0.0000 0.1131
0.1466 0.0000 0.1095
0.2975 0.0000 0.1060
0.4483 0.0000 0.1025
0.5991 0.0000 0.0990
0.7500 0.0000 0.0955
0.9008 0.0000 0.0920
1.0000 0.0000 0.0884
1.0000 0.0000 0.0849
0.0000 0.1105 0.1017
0.1353 0.1070 0.0982
0.2861 0.1035 0.0947
0.4369 0.1000 0.0911
0.5878 0.0964 0.0876
0.7386 0.0929 0.0841
0.8894 0.0894 0.0806
1.0000 0.0859 0.0771
1.0000 0.0824 0.0736
0.0000 0.2476 0.0903
0.1239 0.2441 0.0868
0.2747 0.2406 0.0833
0.4256 0.2370 0.0798
0.5764 0.2335 0.0762
0.7272 0.2300 0.0727
0.8781 0.2265 0.0692
1.0000 0.2230 0.0657
1.0000 0.2195 0.0622
0.0000 0.3847 0.0789
0.1125 0.3812 0.0754
0.2633 0.3777 0.0719
0.4142 0.3741 0.0684
0.5650 0.3706 0.0649
0.7158 0.3671 0.0613
0.8667 0.3636 0.0578
1.0000 0.3601 0.0543
1.0000 0.3566 0.0508
0.0000 0.5218 0.0676
0.1011 0.5183 0.0640
0.2520 0.5147 0.0605
0.4028 0.5112 0.0570
0.5536 0.5077 0.0535
0.7045 0.5042 0.0500
0.8553 0.5007 0.0465
1.0000 0.4972 0.0429
1.0000 0.4937 0.0394
0.0000 0.6589 0.0562
0.0898 0.6554 0.0527
0.2406 0.6518 0.0491
0.3914 0.6483 0.0456
0.5423 0.6448 0.0421
0.6931 0.6413 0.0386
0.8439 0.6378 0.0351
0.9948 0.6343 0.0316
1.0000 0.6307 0.0280
0.0000 0.7960 0.0448
0.0784 0.7925 0.0413
0.2292 0.7889 0.0378
0.3800 0.7854 0.0342
0.5309 0.7819 0.0307
0.6817 0.7784 0.0272
0.8326 0.7749 0.0237
0.9834 0.7714 0.0202
1.0000 0.7678 0.0167
0.0000 0.9331 0.0334
0.0670 0.9295 0.0299
0.2178 0.9260 0.0264
0.3687 0.9225 0.0229
0.5195 0.9190 0.0194
0.6703 0.9155 0.0158
0.8212 0.9120 0.0123
0.9720 0.9084 0.0088
1.0000 0.9049 0.0053
0.0000 1.0000 0.0220
0.0556 1.0000 0.0185
0.2065 1.0000 0.0150
0.3573 1.0000 0.0115
0.5081 1.0000 0.0080
0.6590 1.0000 0.0045
0.8098 1.0000 0.0009
0.9606 1.0000 0.0000
1.0000 1.0000 0.0000
0.0000 0.0000 0.2516
0.1456 0.0000 0.2481
0.2964 0.0000 0.2446
0.4472 0.0000 0.2411
0.5981 0.0000 0.2376
0.7489 0.0000 0.2340
0.8997 0.0000 0.2305
1.0000 0.0000 0.2270
1.0000 0.0000 0.2235
0.0000 0.1094 0.2403
0.1342 0.1059 0.2367
0.2850 0.1024 0.2332
0.4359 0.0989 0.2297
0.5867 0.0954 0.2262
0.7375 0.0918 0.2227
0.8884 0.0883 0.2192
1.0000 0.0848 0.2156
1.0000 0.0813 0.2121
0.0000 0.2465 0.2289
0.1228 0.2430 0.2254
0.2736 0.2395 0.2218
0.4245 0.2360 0.2183
0.5753 0.2325 0.2148
0.7261 0.2289 0.2113
0.8770 0.2254 0.2078
1.0000 0.2219 0.2043
1.0000 0.2184 0.2007
0.0000 0.3836 0.2175
0.1114 0.3801 0.2140
0.2623 0.3766 0.2105
0.4131 0.3731 0.2070
0.5639 0.3695 0.2034
0.7148 0.3660 0.1999
0.8656 0.3625 0.1964
1.0000 0.3590 0.1929
1.0000 0.3555 0.1894
0.0000 0.5207 0.2061
0.1001 0.5172 0.2026
0.2509 0.5137 0.1991
0.4017 0.5102 0.1956
0.5526 0.5066 0.1921
0.7034 0.5031 0.1885
0.8542 0.4996 0.1850
1.0000 0.4961 0.1815
1.0000 0.4926 0.1780
0.0000 0.6578 0.1947
0.0887 0.6543 0.1912
0.2395 0.6508 0.1877
0.3903 0.6472 0.1842
0.5412 0.6437 0.1807
0.6920 0.6402 0.1772
0.8428 0.6367 0.1736
0.9937 0.6332 0.1701
1.0000 0.6297 0.1666
0.0000 0.7949 0.1834
0.0773 0.7914 0.1799
0.2281 0.7879 0.1763
0.3790 0.7843 0.1728
0.5298 0.7808 0.1693
0.6806 0.7773 0.1658
0.8315 0.7738 0.1623
0.9823 0.7703 0.1588
1.0000 0.7668 0.1552
0.0000 0.9320 0.1720
0.0659 0.9285 0.1685
0.2168 0.9249 0.1650
0.3676 0.9214 0.1614
0.5184 0.9179 0.1579
0.6693 0.9144 0.1544
0.8201 0.9109 0.1509
0.9709 0.9074 0.1474
1.0000 0.9039 0.1439
0.0000 1.0000 0.1606
0.0545 1.0000 0.1571
0.2054 1.0000 0.1536
0.3562 1.0000 0.1501
0.5070 1.0000 0.1465
0.6579 1.0000 0.1430
0.8087 1.0000 0.1395
0.9596 1.0000 0.1360
1.0000 1.0000 0.1325
0.0000 0.0000 0.3902
0.1445 0.0000 0.3867
0.2953 0.0000 0.3832
0.4462 0.0000 0.3797
0.5970 0.0000 0.3761
0.7478 0.0000 0.3726
0.8987 0.0000 0.3691
1.0000 0.0000 0.3656
1.0000 0.0000 0.3621
0.0000 0.1083 0.3788
0.1331 0.1048 0.3753
0.2839 0.1013 0.3718
0.4348 0.0978 0.3683
0.5856 0.0943 0.3648
0.7364 0.0908 0.3612
0.8873 0.0872 0.3577
1.0000 0.0837 0.3542
1.0000 0.0802 0.3507
0.0000 0.2454 0.3674
0.1217 0.2419 0.3639
0.2726 0.2384 0.3604
0.4234 0.2349 0.3569
0.5742 0.2314 0.3534
0.7251 0.2279 0.3499
0.8759 0.2243 0.3463
1.0000 0.2208 0.3428
1.0000 0.2173 0.3393
0.0000 0.3825 0.3561
0.1104 0.3790 0.3526
0.2612 0.3755 0.3490
0.4120 0.3720 0.3455
0.5629 0.3685 0.3420
0.7137 0.3649 0.3385
0.8645 0.3614 0.3350
1.0000 0.3579 0.3315
1.0000 0.3544 0.3279
0.0000 0.5196 0.3447
0.0990 0.5161 0.3412
0.2498 0.5126 0.3377
0.4006 0.5091 0.3341
0.5515 0.5056 0.3306
0.7023 0.5020 0.3271
0.8531 0.4985 0.3236
1.0000 0.4950 0.3201
1.0000 0.4915 0.3166
0.0000 0.6567 0.3333
0.0876 0.6532 0.3298
0.2384 0.6497 0.3263
0.3893 0.6462 0.3228
0.5401 0.6427 0.3193
0.6909 0.6391 0.3157
0.8418 0.6356 0.3122
0.9926 0.6321 0.3087
1.0000 0.6286 0.3052
0.0000 0.7938 0.3219
0.0762 0.7903 0.3184
0.2271 0.7868 0.3149
0.3779 0.7833 0.3114
0.5287 0.7797 0.3079
0.6796 0.7762 0.3044
0.8304 0.7727 0.3008
0.9812 0.7692 0.2973
1.0000 0.7657 0.2938
0.0000 0.9309 0.3106
0.0648 0.9274 0.3070
0.2157 0.9239 0.3035
0.3665 0.9204 0.3000
0.5173 0.9168 0.2965
0.6682 0.9133 0.2930
0.8190 0.9098 0.2895
0.9698 0.9063 0.2859
1.0000 0.9028 0.2824
0.0000 1.0000 0.2992
0.0535 1.0000 0.2957
0.2043 1.0000 0.2922
0.3551 1.0000 0.2886
0.5060 1.0000 0.2851
0.6568 1.0000 0.2816
0.8076 1.0000 0.2781
0.9585 1.0000 0.2746
1.0000 1.0000 0.2711
0.0000 0.0000 0.5288
0.1434 0.0000 0.5253
0.2942 0.0000 0.5217
0.4451 0.0000 0.5182
0.5959 0.0000 0.5147
0.7467 0.0000 0.5112
0.8976 0.0000 0.5077
1.0000 0.0000 0.5042
1.0000 0.0000 0.5006
0.0000 0.1073 0.5174
0.1320 0.1037 0.5139
0.2829 0.1002 0.5104
0.4337 0.0967 0.5068
0.5845 0.0932 0.5033
0.7354 0.0897 0.4998
0.8862 0.0862 0.4963
1.0000 0.0827 0.4928
1.0000 0.0791 0.4893
0.0000 0.2444 0.5060
0.1206 0.2408 0.5025
0.2715 0.2373 0.4990
0.4223 0.2338 0.4955
0.5732 0.2303 0.4920
0.7240 0.2268 0.4884
0.8748 0.2233 0.4849
1.0000 0.2197 0.4814
1.0000 0.2162 0.4779
0.0000 0.3814 0.4946
0.1093 0.3779 0.4911
0.2601 0.3744 0.4876
0.4109 0.3709 0.4841
0.5618 0.3674 0.4806
0.7126 0.3639 0.4771
0.8634 0.3604 0.4735
1.0000 0.3568 0.4700
1.0000 0.3533 0.4665
0.0000 0.5185 0.4833
0.0979 0.5150 0.4797
0.2487 0.5115 0.4762
0.3996 0.5080 0.4727
0.5504 0.5045 0.4692
0.7012 0.5010 0.4657
0.8521 0.4974 0.4622
1.0000 0.4939 0.4586
1.0000 0.4904 0.4551
0.0000 0.6556 0.4719
0.0865 0.6521 0.4684
0.2374 0.6486 0.4649
0.3882 0.6451 0.4613
0.5390 0.6416 0.4578
0.6899 0.6381 0.4543
0.8407 0.6345 0.4508
0.9915 0.6310 0.4473
1.0000 0.6275 0.4438
0.0000 0.7927 0.4605
0.0751 0.7892 0.4570
0.2260 0.7857 0.4535
0.3768 0.7822 0.4500
0.5276 0.7787 0.4464
0.6785 0.7751 0.4429
0.8293 0.7716 0.4394
0.9801 0.7681 0.4359
1.0000 0.7646 0.4324
0.0000 0.9298 0.4491
0.0638 0.9263 0.4456
0.2146 0.9228 0.4421
0.3654 0.9193 0.4386
0.5163 0.9158 0.4351
0.6671 0.9122 0.4315
0.8179 0.9087 0.4280
0.9688 0.9052 0.4245
1.0000 0.9017 0.4210
0.0000 1.0000 0.4378
0.0524 1.0000 0.4342
0.2032 1.0000 0.4307
0.3541 1.0000 0.4272
0.5049 1.0000 0.4237
0.6557 1.0000 0.4202
0.8066 1.0000 0.4167
0.9574 1.0000 0.4131
1.0000 1.0000 0.4096
0.0000 0.0000 0.6673
0.1423 0.0000 0.6638
0.2932 0.0000 0.6603
0.4440 0.0000 0.6568
0.5948 0.0000 0.6533
0.7457 0.0000 0.6498
0.8965 0.0000 0.6462
1.0000 0.0000 0.6427
1.0000 0.0000 0.6392
0.0000 0.1062 0.6560
0.1309 0.1027 0.6524
0.2818 0.0991 0.6489
0.4326 0.0956 0.6454
0.5834 0.0921 0.6419
0.7343 0.0886 0.6384
0.8851 0.0851 0.6349
1.0000 0.0816 0.6314
1.0000 0.0781 0.6278
0.0000 0.2433 0.6446
0.1196 0.2398 0.6411
0.2704 0.2362 0.6376
0.4212 0.2327 0.6340
0.5721 0.2292 0.6305
0.7229 0.2257 0.6270
0.8737 0.2222 0.6235
1.0000 0.2187 0.6200
1.0000 0.2151 0.6165
0.0000 0.3804 0.6332
0.1082 0.3769 0.6297
0.2590 0.3733 0.6262
0.4099 0.3698 0.6227
0.5607 0.3663 0.6191
0.7115 0.3628 0.6156
0.8624 0.3593 0.6121
1.0000 0.3558 0.6086
1.0000 0.3522 0.6051
0.0000 0.5175 0.6218
0.0968 0.5139 0.6183
0.2476 0.5104 0.6148
0.3985 0.5069 0.6113
0.5493 0.5034 0.6078
0.7002 0.4999 0.6043
0.8510 0.4964 0.6007
1.0000 0.4928 0.5972
1.0000 0.4893 0.5937
0.0000 0.6546 0.6105
0.0854 0.6510 0.6069
0.2363 0.6475 0.6034
0.3871 0.6440 0.5999
0.5379 0.6405 0.5964
0.6888 0.6370 0.5929
0.8396 0.6335 0.5894
0.9904 0.6299 0.5858
1.0000 0.6264 0.5823
0.0000 0.7916 0.5991
0.0741 0.7881 0.5956
0.2249 0.7846 0.5920
0.3757 0.7811 0.5885
0.5266 0.7776 0.5850
0.6774 0.7741 0.5815
0.8282 0.7706 0.5780
0.9791 0.7670 0.5745
1.0000 0.7635 0.5709
0.0000 0.9287 0.5877
0.0627 0.9252 0.5842
0.2135 0.9217 0.5807
0.3644 0.9182 0.5772
0.5152 0.9147 0.5736
0.6660 0.9112 0.5701
0.8169 0.9076 0.5666
0.9677 0.9041 0.5631
1.0000 0.9006 0.5596
0.0000 1.0000 0.5763
0.0513 1.0000 0.5728
0.2021 1.0000 0.5693
0.3530 1.0000 0.5658
0.5038 1.0000 0.5623
0.6546 1.0000 0.5587
0.8055 1.0000 0.5552
0.9563 1.0000 0.5517
1.0000 1.0000 0.5482
0.0000 0.0000 0.8059
0.1412 0.0000 0.8024
0.2921 0.0000 0.7989
0.4429 0.0000 0.7954
0.5937 0.0000 0.7918
0.7446 0.0000 0.7883
0.8954 0.0000 0.7848
1.0000 0.0000 0.7813
1.0000 0.0000 0.7778
0.0000 0.1051 0.7945
0.1299 0.1016 0.7910
0.2807 0.0981 0.7875
0.4315 0.0946 0.7840
0.5824 0.0910 0.7805
0.7332 0.0875 0.7770
0.8840 0.0840 0.7734
1.0000 0.0805 0.7699
1.0000 0.0770 0.7664
0.0000 0.2422 0.7832
0.1185 0.2387 0.7796
0.2693 0.2352 0.7761
0.4202 0.2316 0.7726
0.5710 0.2281 0.7691
0.7218 0.2246 0.7656
0.8727 0.2211 0.7621
1.0000 0.2176 0.7585
1.0000 0.2141 0.7550
0.0000 0.3793 0.7718
0.1071 0.3758 0.7683
0.2579 0.3723 0.7647
0.4088 0.3687 0.7612
0.5596 0.3652 0.7577
0.7104 0.3617 0.7542
0.8613 0.3582 0.7507
1.0000 0.3547 0.7472
1.0000 0.3512 0.7436
0.0000 0.5164 0.7604
0.0957 0.5129 0.7569
0.2466 0.5093 0.7534
0.3974 0.5058 0.7499
0.5482 0.5023 0.7463
0.6991 0.4988 0.7428
0.8499 0.4953 0.7393
1.0000 0.4918 0.7358
1.0000 0.4883 0.7323
0.0000 0.6535 0.7490
0.0844 0.6500 0.7455
0.2352 0.6464 0.7420
0.3860 0.6429 0.7385
0.5369 0.6394 0.7350
0.6877 0.6359 0.7314
0.8385 0.6324 0.7279
0.9894 0.6289 0.7244
1.0000 0.6253 0.7209
0.0000 0.7906 0.7376
0.0730 0.7870 0.7341
0.2238 0.7835 0.7306
0.3746 0.7800 0.7271
0.5255 0.7765 0.7236
0.6763 0.7730 0.7201
0.8272 0.7695 0.7166
0.9780 0.7660 0.7130
1.0000 0.7624 0.7095
0.0000 0.9277 0.7263
0.0616 0.9241 0.7228
0.2124 0.9206 0.7192
0.3633 0.9171 0.7157
0.5141 0.9136 0.7122
0.6649 0.9101 0.7087
0.8158 0.9066 0.7052
0.9666 0.9030 0.7017
1.0000 0.8995 0.6981
0.0000 1.0000 0.7149
0.0502 1.0000 0.7114
0.2011 1.0000 0.7079
0.3519 1.0000 0.7043
0.5027 1.0000 0.7008
0.6536 1.0000 0.6973
0.8044 1.0000 0.6938
0.9552 1.0000 0.6903
1.0000 1.0000 0.6868
0.0000 0.0000 0.9445
0.1402 0.0000 0.9410
0.2910 0.0000 0.9374
0.4418 0.0000 0.9339
0.5927 0.0000 0.9304
0.7435 0.0000 0.9269
0.8943 0.0000 0.9234
1.0000 0.0000 0.9199
1.0000 0.0000 0.9164
0.0000 0.1040 0.9331
0.1288 0.1005 0.9296
0.2796 0.0970 0.9261
0.4305 0.0935 0.9226
0.5813 0.0900 0.9190
0.7321 0.0864 0.9155
0.8830 0.0829 0.9120
1.0000 0.0794 0.9085
1.0000 0.0759 0.9050
0.0000 0.2411 0.9217
0.1174 0.2376 0.9182
0.2682 0.2341 0.9147
0.4191 0.2306 0.9112
0.5699 0.2271 0.9077
0.7207 0.2235 0.9041
0.8716 0.2200 0.9006
1.0000 0.2165 0.8971
1.0000 0.2130 0.8936
0.0000 0.3782 0.9103
0.1060 0.3747 0.9068
0.2569 0.3712 0.9033
0.4077 0.3677 0.8998
0.5585 0.3641 0.8963
0.7094 0.3606 0.8928
0.8602 0.3571 0.8893
1.0000 0.3536 0.8857
1.0000 0.3501 0.8822
0.0000 0.5153 0.8990
0.0947 0.5118 0.8955
0.2455 0.5083 0.8919
0.3963 0.5048 0.8884
0.5472 0.5012 0.8849
0.6980 0.4977 0.8814
0.8488 0.4942 0.8779
0.9997 0.4907 0.8744
1.0000 0.4872 0.8708
0.0000 0.6524 0.8876
0.0833 0.6489 0.8841
0.2341 0.6454 0.8806
0.3849 0.6418 0.8770
0.5358 0.6383 0.8735
0.6866 0.6348 0.8700
0.8374 0.6313 0.8665
0.9883 0.6278 0.8630
1.0000 0.6243 0.8595
0.0000 0.7895 0.8762
0.0719 0.7860 0.8727
0.2227 0.7825 0.8692
0.3736 0.7789 0.8657
0.5244 0.7754 0.8622
0.6752 0.7719 0.8586
0.8261 0.7684 0.8551
0.9769 0.7649 0.8516
1.0000 0.7614 0.8481
0.0000 0.9266 0.8648
0.0605 0.9231 0.8613
0.2114 0.9195 0.8578
0.3622 0.9160 0.8543
0.5130 0.9125 0.8508
0.6639 0.9090 0.8473
0.8147 0.9055 0.8437
0.9655 0.9020 0.8402
1.0000 0.8985 0.8367
0.0000 1.0000 0.8535
0.0491 1.0000 0.8499
0.2000 1.0000 0.8464
0.3508 1.0000 0.8429
0.5016 1.0000 0.8394
0.6525 1.0000 0.8359
0.8033 1.0000 0.8324
0.9542 1.0000 0.8289
1.0000 1.0000 0.8253
0.0000 0.0000 1.0000
0.1391 0.0000 1.0000
0.2899 0.0000 1.0000
0.4407 0.0000 1.0000
0.5916 0.0000 1.0000
0.7424 0.0000 1.0000
0.8933 0.0000 1.0000
1.0000 0.0000 1.0000
1.0000 0.0000 1.0000
0.0000 0.1029 1.0000
0.1277 0.0994 1.0000
0.2785 0.0959 1.0000
0.4294 0.0924 1.0000
0.5802 0.0889 1.0000
0.7310 0.0854 1.0000
0.8819 0.0818 1.0000
1.0000 0.0783 1.0000
1.0000 0.0748 1.0000
0.0000 0.2400 1.0000
0.1163 0.2365 1.0000
0.2672 0.2330 1.0000
0.4180 0.2295 1.0000
0.5688 0.2260 1.0000
0.7197 0.2225 1.0000
0.8705 0.2189 1.0000
1.0000 0.2154 1.0000
1.0000 0.2119 1.0000
0.0000 0.3771 1.0000
0.1050 0.3736 1.0000
0.2558 0.3701 1.0000
0.4066 0.3666 1.0000
0.5575 0.3631 1.0000
0.7083 0.3595 1.0000
0.8591 0.3560 1.0000
1.0000 0.3525 1.0000
1.0000 0.3490 1.0000
0.0000 0.5142 1.0000
0.0936 0.5107 1.0000
0.2444 0.5072 1.0000
0.3952 0.5037 1.0000
0.5461 0.5002 1.0000
0.6969 0.4966 1.0000
0.8477 0.4931 1.0000
0.9986 0.4896 1.0000
1.0000 0.4861 1.0000
0.0000 0.6513 1.0000
0.0822 0.6478 1.0000
0.2330 0.6443 1.0000
0.3839 0.6408 1.0000
0.5347 0.6372 1.0000
0.6855 0.6337 1.0000
0.8364 0.6302 1.0000
0.9872 0.6267 1.0000
1.0000 0.6232 0.9980
0.0000 0.7884 1.0000
0.0708 0.7849 1.0000
0.2217 0.7814 1.0000
0.3725 0.7779 1.0000
0.5233 0.7743 1.0000
0.6742 0.7708 0.9972
0.8250 0.7673 0.9937
0.9758 0.7638 0.9902
1.0000 0.7603 0.9867
0.0000 0.9255 1.0000
0.0594 0.9220 0.9999
0.2103 0.9185 0.9964
0.3611 0.9150 0.9929
0.5119 0.9114 0.9893
0.6628 0.9079 0.9858
0.8136 0.9044 0.9823
0.9644 0.9009 0.9788
1.0000 0.8974 0.9753
0.0000 1.0000 0.9920
0.0481 1.0000 0.9885
0.1989 1.0000 0.9850
0.3497 1.0000 0.9815
0.5006 1.0000 0.9780
0.6514 1.0000 0.9745
0.8022 1.0000 0.9709
0.9531 1.0000 0.9674
1.0000 1.0000 0.9639
