luts/y2k.cube
# edite look: Y2K (CC0)
TITLE "Y2K"
LUT_3D_SIZE 17
DOMAIN_MIN 0.0 0.0 0.0
DOMAIN_MAX 1.0 1.0 1.0
0.0000 0.0000 0.0000
0.0392 0.0000 0.0000
0.1285 0.0000 0.0000
0.2177 0.0000 0.0000
0.3070 0.0000 0.0000
0.3962 0.0000 0.0000
0.4854 0.0000 0.0000
0.5747 0.0000 0.0000
0.6639 0.0000 0.0000
0.7532 0.0000 0.0000
0.8424 0.0000 0.0000
0.9316 0.0000 0.0000
1.0000 0.0000 0.0000
1.0000 0.0000 0.0000
1.0000 0.0000 0.0000
1.0000 0.0000 0.0000
1.0000 0.0000 0.0000
0.0000 0.0231 0.0000
0.0248 0.0185 0.0000
0.1140 0.0139 0.0000
0.2033 0.0093 0.0000
0.2925 0.0047 0.0000
0.3817 0.0001 0.0000
0.4710 0.0000 0.0000
0.5602 0.0000 0.0000
0.6495 0.0000 0.0000
0.7387 0.0000 0.0000
0.8279 0.0000 0.0000
0.9172 0.0000 0.0000
1.0000 0.0000 0.0000
1.0000 0.0000 0.0000
1.0000 0.0000 0.0000
1.0000 0.0000 0.0000
1.0000 0.0000 0.0000
0.0000 0.0963 0.0000
0.0103 0.0917 0.0000
0.0996 0.0871 0.0000
0.1888 0.0825 0.0000
0.2780 0.0778 0.0000
0.3673 0.0732 0.0000
0.4565 0.0686 0.0000
0.5458 0.0640 0.0000
0.6350 0.0594 0.0000
0.7242 0.0548 0.0000
0.8135 0.0502 0.0000
0.9027 0.0456 0.0000
0.9920 0.0410 0.0000
1.0000 0.0364 0.0000
1.0000 0.0318 0.0000
1.0000 0.0272 0.0000
1.0000 0.0226 0.0000
0.0000 0.1694 0.0000
0.0000 0.1648 0.0000
0.0851 0.1602 0.0000
0.1744 0.1556 0.0000
0.2636 0.1510 0.0000
0.3528 0.1464 0.0000
0.4421 0.1418 0.0000
0.5313 0.1372 0.0000
0.6205 0.1326 0.0000
0.7098 0.1280 0.0000
0.7990 0.1234 0.0000
0.8883 0.1187 0.0000
0.9775 0.1141 0.0000
1.0000 0.1095 0.0000
1.0000 0.1049 0.0000
1.0000 0.1003 0.0000
1.0000 0.0957 0.0000
0.0000 0.2425 0.0000
0.0000 0.2379 0.0000
0.0707 0.2333 0.0000
0.1599 0.2287 0.0000
0.2491 0.2241 0.0000
0.3384 0.2195 0.0000
0.4276 0.2149 0.0000
0.5169 0.2103 0.0000
0.6061 0.2057 0.0000
0.6953 0.2011 0.0000
0.7846 0.1965 0.0000
0.8738 0.1919 0.0000
0.9631 0.1873 0.0000
1.0000 0.1827 0.0000
1.0000 0.1781 0.0000
1.0000 0.1735 0.0000
1.0000 0.1689 0.0000
0.0000 0.3157 0.0000
0.0000 0.3111 0.0000
0.0562 0.3064 0.0000
0.1454 0.3018 0.0000
0.2347 0.2972 0.0000
0.3239 0.2926 0.0000
0.4132 0.2880 0.0000
0.5024 0.2834 0.0000
0.5916 0.2788 0.0000
0.6809 0.2742 0.0000
0.7701 0.2696 0.0000
0.8594 0.2650 0.0000
0.9486 0.2604 0.0000
1.0000 0.2558 0.0000
1.0000 0.2512 0.0000
1.0000 0.2466 0.0000
1.0000 0.2420 0.0000
0.0000 0.3888 0.0000
0.0000 0.3842 0.0000
0.0417 0.3796 0.0000
0.1310 0.3750 0.0000
0.2202 0.3704 0.0000
0.3095 0.3658 0.0000
0.3987 0.3612 0.0000
0.4879 0.3566 0.0000
0.5772 0.3520 0.0000
0.6664 0.3474 0.0000
0.7557 0.3427 0.0000
0.8449 0.3381 0.0000
0.9341 0.3335 0.0000
1.0000 0.3289 0.0000
1.0000 0.3243 0.0000
1.0000 0.3197 0.0000
1.0000 0.3151 0.0000
0.0000 0.4619 0.0000
0.0000 0.4573 0.0000
0.0273 0.4527 0.0000
0.1165 0.4481 0.0000
0.2058 0.4435 0.0000
0.2950 0.4389 0.0000
0.3842 0.4343 0.0000
0.4735 0.4297 0.0000
0.5627 0.4251 0.0000
0.6520 0.4205 0.0000
0.7412 0.4159 0.0000
0.8304 0.4113 0.0000
0.9197 0.4067 0.0000
1.0000 0.4021 0.0000
1.0000 0.3975 0.0000
1.0000 0.3929 0.0000
1.0000 0.3883 0.0000
0.0000 0.5351 0.0000
0.0000 0.5304 0.0000
0.0128 0.5258 0.0000
0.1021 0.5212 0.0000
0.1913 0.5166 0.0000
0.2806 0.5120 0.0000
0.3698 0.5074 0.0000
0.4590 0.5028 0.0000
0.5483 0.4982 0.0000
0.6375 0.4936 0.0000
0.7267 0.4890 0.0000
0.8160 0.4844 0.0000
0.9052 0.4798 0.0000
0.9945 0.4752 0.0000
1.0000 0.4706 0.0000
1.0000 0.4660 0.0000
1.0000 0.4614 0.0000
0.0000 0.6082 0.0000
0.0000 0.6036 0.0000
0.0000 0.5990 0.0000
0.0876 0.5944 0.0000
0.1769 0.5898 0.0000
0.2661 0.5852 0.0000
0.3553 0.5806 0.0000
0.4446 0.5760 0.0000
0.5338 0.5714 0.0000
0.6231 0.5667 0.0000
0.7123 0.5621 0.0000
0.8015 0.5575 0.0000
0.8908 0.5529 0.0000
0.9800 0.5483 0.0000
1.0000 0.5437 0.0000
1.0000 0.5391 0.0000
1.0000 0.5345 0.0000
0.0000 0.6813 0.0000
0.0000 0.6767 0.0000
0.0000 0.6721 0.0000
0.0732 0.6675 0.0000
0.1624 0.6629 0.0000
0.2516 0.6583 0.0000
0.3409 0.6537 0.0000
0.4301 0.6491 0.0000
0.5194 0.6445 0.0000
0.6086 0.6399 0.0000
0.6978 0.6353 0.0000
0.7871 0.6307 0.0000
0.8763 0.6261 0.0000
0.9656 0.6215 0.0000
1.0000 0.6169 0.0000
1.0000 0.6123 0.0000
1.0000 0.6076 0.0000
0.0000 0.7544 0.0000
0.0000 0.7498 0.0000
0.0000 0.7452 0.0000
0.0587 0.7406 0.0000
0.1479 0.7360 0.0000
0.2372 0.7314 0.0000
0.3264 0.7268 0.0000
0.4157 0.7222 0.0000
0.5049 0.7176 0.0000
0.5941 0.7130 0.0000
0.6834 0.7084 0.0000
0.7726 0.7038 0.0000
0.8619 0.6992 0.0000
0.9511 0.6946 0.0000
1.0000 0.6900 0.0000
1.0000 0.6854 0.0000
1.0000 0.6808 0.0000
0.0000 0.8276 0.0000
0.0000 0.8230 0.0000
0.0000 0.8184 0.0000
0.0442 0.8138 0.0000
0.1335 0.8092 0.0000
0.2227 0.8046 0.0000
0.3120 0.8000 0.0000
0.4012 0.7953 0.0000
0.4904 0.7907 0.0000
0.5797 0.7861 0.0000
0.6689 0.7815 0.0000
0.7582 0.7769 0.0000
0.8474 0.7723 0.0000
0.9366 0.7677 0.0000
1.0000 0.7631 0.0000
1.0000 0.7585 0.0000
1.0000 0.7539 0.0000
0.0000 0.9007 0.0000
0.0000 0.8961 0.0000
0.0000 0.8915 0.0000
0.0298 0.8869 0.0000
0.1190 0.8823 0.0000
0.2083 0.8777 0.0000
0.2975 0.8731 0.0000
0.3867 0.8685 0.0000
0.4760 0.8639 0.0000
0.5652 0.8593 0.0000
0.6545 0.8547 0.0000
0.7437 0.8501 0.0000
0.8329 0.8455 0.0000
0.9222 0.8409 0.0000
1.0000 0.8363 0.0000
1.0000 0.8316 0.0000
1.0000 0.8270 0.0000
0.0000 0.9738 0.0000
0.0000 0.9692 0.0000
0.0000 0.9646 0.0000
0.0153 0.9600 0.0000
0.1046 0.9554 0.0000
0.1938 0.9508 0.0000
0.2831 0.9462 0.0000
0.3723 0.9416 0.0000
0.4615 0.9370 0.0000
0.5508 0.9324 0.0000
0.6400 0.9278 0.0000
0.7293 0.9232 0.0000
0.8185 0.9186 0.0000
0.9077 0.9140 0.0000
0.9970 0.9094 0.0000
1.0000 0.9048 0.0000
1.0000 0.9002 0.0000
0.0000 1.0000 0.0000
0.0000 1.0000 0.0000
0.0000 1.0000 0.0000
0.0009 1.0000 0.0000
0.0901 1.0000 0.0000
0.1794 1.0000 0.0000
0.2686 1.0000 0.0000
0.3578 1.0000 0.0000
0.4471 1.0000 0.0000
0.5363 1.0000 0.0000
0.6256 1.0000 0.0000
0.7148 0.9963 0.0000
0.8040 0.9917 0.0000
0.8933 0.9871 0.0000
0.9825 0.9825 0.0000
1.0000 0.9779 0.0000
1.0000 0.9733 0.0000
0.0000 1.0000 0.0000
0.0000 1.0000 0.0000
0.0000 1.0000 0.0000
0.0000 1.0000 0.0000
0.0757 1.0000 0.0000
0.1649 1.0000 0.0000
0.2541 1.0000 0.0000
0.3434 1.0000 0.0000
0.4326 1.0000 0.0000
0.5219 1.0000 0.0000
0.6111 1.0000 0.0000
0.7003 1.0000 0.0000
0.7896 1.0000 0.0000
0.8788 1.0000 0.0000
0.9681 1.0000 0.0000
1.0000 1.0000 0.0000
1.0000 1.0000 0.0000
0.0000 0.0000 0.0432
0.0377 0.0000 0.0386
0.1269 0.0000 0.0340
0.2161 0.0000 0.0293
0.3054 0.0000 0.0247
0.3946 0.0000 0.0201
0.4839 0.0000 0.0155
0.5731 0.0000 0.0109
0.6623 0.0000 0.0063
0.7516 0.0000 0.0017
0.8408 0.0000 0.0000
0.9301 0.0000 0.0000
1.0000 0.0000 0.0000
1.0000 0.0000 0.0000
1.0000 0.0000 0.0000
1.0000 0.0000 0.0000
1.0000 0.0000 0.0000
0.0000 0.0216 0.0287
0.0232 0.0169 0.0241
0.1124 0.0123 0.0195
0.2017 0.0077 0.0149
0.2909 0.0031 0.0103
0.3802 0.0000 0.0057
0.4694 0.0000 0.0011
0.5586 0.0000 0.0000
0.6479 0.0000 0.0000
0.7371 0.0000 0.0000
0.8264 0.0000 0.0000
0.9156 0.0000 0.0000
1.0000 0.0000 0.0000
1.0000 0.0000 0.0000
1.0000 0.0000 0.0000
1.0000 0.0000 0.0000
1.0000 0.0000 0.0000
0.0000 0.0947 0.0142
0.0087 0.0901 0.0096
0.0980 0.0855 0.0050
0.1872 0.0809 0.0004
0.2765 0.0763 0.0000
0.3657 0.0717 0.0000
0.4549 0.0671 0.0000
0.5442 0.0625 0.0000
0.6334 0.0579 0.0000
0.7227 0.0532 0.0000
0.8119 0.0486 0.0000
0.9011 0.0440 0.0000
0.9904 0.0394 0.0000
1.0000 0.0348 0.0000
1.0000 0.0302 0.0000
1.0000 0.0256 0.0000
1.0000 0.0210 0.0000
0.0000 0.1678 0.0000
0.0000 0.1632 0.0000
0.0835 0.1586 0.0000
0.1728 0.1540 0.0000
0.2620 0.1494 0.0000
0.3513 0.1448 0.0000
0.4405 0.1402 0.0000
0.5297 0.1356 0.0000
0.6190 0.1310 0.0000
0.7082 0.1264 0.0000
0.7974 0.1218 0.0000
0.8867 0.1172 0.0000
0.9759 0.1126 0.0000
1.0000 0.1080 0.0000
1.0000 0.1034 0.0000
1.0000 0.0988 0.0000
1.0000 0.0942 0.0000
0.0000 0.2409 0.0000
0.0000 0.2363 0.0000
0.0691 0.2317 0.0000
0.1583 0.2271 0.0000
0.2476 0.2225 0.0000
0.3368 0.2179 0.0000
0.4260 0.2133 0.0000
0.5153 0.2087 0.0000
0.6045 0.2041 0.0000
0.6938 0.1995 0.0000
0.7830 0.1949 0.0000
0.8722 0.1903 0.0000
0.9615 0.1857 0.0000
1.0000 0.1811 0.0000
1.0000 0.1765 0.0000
1.0000 0.1719 0.0000
1.0000 0.1673 0.0000
0.0000 0.3141 0.0000
0.0000 0.3095 0.0000
0.0546 0.3049 0.0000
0.1439 0.3003 0.0000
0.2331 0.2957 0.0000
0.3223 0.2911 0.0000
0.4116 0.2865 0.0000
0.5008 0.2819 0.0000
0.5901 0.2772 0.0000
0.6793 0.2726 0.0000
0.7685 0.2680 0.0000
0.8578 0.2634 0.0000
0.9470 0.2588 0.0000
1.0000 0.2542 0.0000
1.0000 0.2496 0.0000
1.0000 0.2450 0.0000
1.0000 0.2404 0.0000
0.0000 0.3872 0.0000
0.0000 0.3826 0.0000
0.0402 0.3780 0.0000
0.1294 0.3734 0.0000
0.2186 0.3688 0.0000
0.3079 0.3642 0.0000
0.3971 0.3596 0.0000
0.4864 0.3550 0.0000
0.5756 0.3504 0.0000
0.6648 0.3458 0.0000
0.7541 0.3412 0.0000
0.8433 0.3366 0.0000
0.9326 0.3320 0.0000
1.0000 0.3274 0.0000
1.0000 0.3228 0.0000
1.0000 0.3181 0.0000
1.0000 0.3135 0.0000
0.0000 0.4603 0.0000
0.0000 0.4557 0.0000
0.0257 0.4511 0.0000
0.1149 0.4465 0.0000
0.2042 0.4419 0.0000
0.2934 0.4373 0.0000
0.3827 0.4327 0.0000
0.4719 0.4281 0.0000
0.5611 0.4235 0.0000
0.6504 0.4189 0.0000
0.7396 0.4143 0.0000
0.8289 0.4097 0.0000
0.9181 0.4051 0.0000
1.0000 0.4005 0.0000
1.0000 0.3959 0.0000
1.0000 0.3913 0.0000
1.0000 0.3867 0.0000
0.0000 0.5335 0.0000
0.0000 0.5289 0.0000
0.0113 0.5243 0.0000
0.1005 0.5197 0.0000
0.1897 0.5151 0.0000
0.2790 0.5105 0.0000
0.3682 0.5058 0.0000
0.4575 0.5012 0.0000
0.5467 0.4966 0.0000
0.6359 0.4920 0.0000
0.7252 0.4874 0.0000
0.8144 0.4828 0.0000
0.9036 0.4782 0.0000
0.9929 0.4736 0.0000
1.0000 0.4690 0.0000
1.0000 0.4644 0.0000
1.0000 0.4598 0.0000
0.0000 0.6066 0.0000
0.0000 0.6020 0.0000
0.0000 0.5974 0.0000
0.0860 0.5928 0.0000
0.1753 0.5882 0.0000
0.2645 0.5836 0.0000
0.3538 0.5790 0.0000
0.4430 0.5744 0.0000
0.5322 0.5698 0.0000
0.6215 0.5652 0.0000
0.7107 0.5606 0.0000
0.8000 0.5560 0.0000
0.8892 0.5514 0.0000
0.9784 0.5468 0.0000
1.0000 0.5421 0.0000
1.0000 0.5375 0.0000
1.0000 0.5329 0.0000
0.0000 0.6797 0.0000
0.0000 0.6751 0.0000
0.0000 0.6705 0.0000
0.0716 0.6659 0.0000
0.1608 0.6613 0.0000
0.2501 0.6567 0.0000
0.3393 0.6521 0.0000
0.4285 0.6475 0.0000
0.5178 0.6429 0.0000
0.6070 0.6383 0.0000
0.6963 0.6337 0.0000
0.7855 0.6291 0.0000
0.8747 0.6245 0.0000
0.9640 0.6199 0.0000
1.0000 0.6153 0.0000
1.0000 0.6107 0.0000
1.0000 0.6061 0.0000
0.0000 0.7529 0.0000
0.0000 0.7483 0.0000
0.0000 0.7437 0.0000
0.0571 0.7391 0.0000
0.1464 0.7345 0.0000
0.2356 0.7298 0.0000
0.3248 0.7252 0.0000
0.4141 0.7206 0.0000
0.5033 0.7160 0.0000
0.5926 0.7114 0.0000
0.6818 0.7068 0.0000
0.7710 0.7022 0.0000
0.8603 0.6976 0.0000
0.9495 0.6930 0.0000
1.0000 0.6884 0.0000
1.0000 0.6838 0.0000
1.0000 0.6792 0.0000
0.0000 0.8260 0.0000
0.0000 0.8214 0.0000
0.0000 0.8168 0.0000
0.0427 0.8122 0.0000
0.1319 0.8076 0.0000
0.2211 0.8030 0.0000
0.3104 0.7984 0.0000
0.3996 0.7938 0.0000
0.4889 0.7892 0.0000
0.5781 0.7846 0.0000
0.6673 0.7800 0.0000
0.7566 0.7754 0.0000
0.8458 0.7708 0.0000
0.9351 0.7661 0.0000
1.0000 0.7615 0.0000
1.0000 0.7569 0.0000
1.0000 0.7523 0.0000
0.0000 0.8991 0.0000
0.0000 0.8945 0.0000
0.0000 0.8899 0.0000
0.0282 0.8853 0.0000
0.1175 0.8807 0.0000
0.2067 0.8761 0.0000
0.2959 0.8715 0.0000
0.3852 0.8669 0.0000
0.4744 0.8623 0.0000
0.5637 0.8577 0.0000
0.6529 0.8531 0.0000
0.7421 0.8485 0.0000
0.8314 0.8439 0.0000
0.9206 0.8393 0.0000
1.0000 0.8347 0.0000
1.0000 0.8301 0.0000
1.0000 0.8255 0.0000
0.0000 0.9723 0.0000
0.0000 0.9677 0.0000
0.0000 0.9631 0.0000
0.0138 0.9585 0.0000
0.1030 0.9538 0.0000
0.1922 0.9492 0.0000
0.2815 0.9446 0.0000
0.3707 0.9400 0.0000
0.4600 0.9354 0.0000
0.5492 0.9308 0.0000
0.6384 0.9262 0.0000
0.7277 0.9216 0.0000
0.8169 0.9170 0.0000
0.9062 0.9124 0.0000
0.9954 0.9078 0.0000
1.0000 0.9032 0.0000
1.0000 0.8986 0.0000
0.0000 1.0000 0.0000
0.0000 1.0000 0.0000
0.0000 1.0000 0.0000
0.0000 1.0000 0.0000
0.0885 1.0000 0.0000
0.1778 1.0000 0.0000
0.2670 1.0000 0.0000
0.3563 1.0000 0.0000
0.4455 1.0000 0.0000
0.5347 1.0000 0.0000
0.6240 0.9994 0.0000
0.7132 0.9947 0.0000
0.8025 0.9901 0.0000
0.8917 0.9855 0.0000
0.9809 0.9809 0.0000
1.0000 0.9763 0.0000
1.0000 0.9717 0.0000
0.0000 1.0000 0.0000
0.0000 1.0000 0.0000
0.0000 1.0000 0.0000
0.0000 1.0000 0.0000
0.0741 1.0000 0.0000
0.1633 1.0000 0.0000
0.2526 1.0000 0.0000
0.3418 1.0000 0.0000
0.4310 1.0000 0.0000
0.5203 1.0000 0.0000
0.6095 1.0000 0.0000
0.6988 1.0000 0.0000
0.7880 1.0000 0.0000
0.8772 1.0000 0.0000
0.9665 1.0000 0.0000
1.0000 1.0000 0.0000
1.0000 1.0000 0.0000
0.0000 0.0000 0.1363
0.0361 0.0000 0.1317
0.1253 0.0000 0.1271
0.2146 0.0000 0.1225
0.3038 0.0000 0.1179
0.3930 0.0000 0.1133
0.4823 0.0000 0.1087
0.5715 0.0000 0.1041
0.6608 0.0000 0.0995
0.7500 0.0000 0.0949
0.8392 0.0000 0.0903
0.9285 0.0000 0.0857
1.0000 0.0000 0.0811
1.0000 0.0000 0.0765
1.0000 0.0000 0.0719
1.0000 0.0000 0.0673
1.0000 0.0000 0.0627
0.0000 0.0200 0.1219
0.0216 0.0154 0.1173
0.1109 0.0108 0.1127
0.2001 0.0062 0.1080
0.2893 0.0016 0.1034
0.3786 0.0000 0.0988
0.4678 0.0000 0.0942
0.5571 0.0000 0.0896
0.6463 0.0000 0.0850
0.7355 0.0000 0.0804
0.8248 0.0000 0.0758
0.9140 0.0000 0.0712
1.0000 0.0000 0.0666
1.0000 0.0000 0.0620
1.0000 0.0000 0.0574
1.0000 0.0000 0.0528
1.0000 0.0000 0.0482
0.0000 0.0931 0.1074
0.0072 0.0885 0.1028
0.0964 0.0839 0.0982
0.1856 0.0793 0.0936
0.2749 0.0747 0.0890
0.3641 0.0701 0.0844
0.4534 0.0655 0.0798
0.5426 0.0609 0.0752
0.6318 0.0563 0.0706
0.7211 0.0517 0.0660
0.8103 0.0471 0.0614
0.8996 0.0425 0.0568
0.9888 0.0379 0.0522
1.0000 0.0333 0.0476
1.0000 0.0286 0.0429
1.0000 0.0240 0.0383
1.0000 0.0194 0.0337
0.0000 0.1662 0.0930
0.0000 0.1616 0.0883
0.0820 0.1570 0.0837
0.1712 0.1524 0.0791
0.2604 0.1478 0.0745
0.3497 0.1432 0.0699
0.4389 0.1386 0.0653
0.5282 0.1340 0.0607
0.6174 0.1294 0.0561
0.7066 0.1248 0.0515
0.7959 0.1202 0.0469
0.8851 0.1156 0.0423
0.9744 0.1110 0.0377
1.0000 0.1064 0.0331
1.0000 0.1018 0.0285
1.0000 0.0972 0.0239
1.0000 0.0926 0.0193
0.0000 0.2394 0.0785
0.0000 0.2348 0.0739
0.0675 0.2302 0.0693
0.1567 0.2256 0.0647
0.2460 0.2210 0.0601
0.3352 0.2163 0.0555
0.4245 0.2117 0.0509
0.5137 0.2071 0.0463
0.6029 0.2025 0.0417
0.6922 0.1979 0.0371
0.7814 0.1933 0.0325
0.8707 0.1887 0.0278
0.9599 0.1841 0.0232
1.0000 0.1795 0.0186
1.0000 0.1749 0.0140
1.0000 0.1703 0.0094
1.0000 0.1657 0.0048
0.0000 0.3125 0.0640
0.0000 0.3079 0.0594
0.0530 0.3033 0.0548
0.1423 0.2987 0.0502
0.2315 0.2941 0.0456
0.3208 0.2895 0.0410
0.4100 0.2849 0.0364
0.4992 0.2803 0.0318
0.5885 0.2757 0.0272
0.6777 0.2711 0.0226
0.7670 0.2665 0.0180
0.8562 0.2619 0.0134
0.9454 0.2573 0.0088
1.0000 0.2526 0.0042
1.0000 0.2480 0.0000
1.0000 0.2434 0.0000
1.0000 0.2388 0.0000
0.0000 0.3856 0.0496
0.0000 0.3810 0.0450
0.0386 0.3764 0.0404
0.1278 0.3718 0.0358
0.2171 0.3672 0.0312
0.3063 0.3626 0.0266
0.3955 0.3580 0.0220
0.4848 0.3534 0.0174
0.5740 0.3488 0.0127
0.6633 0.3442 0.0081
0.7525 0.3396 0.0035
0.8417 0.3350 0.0000
0.9310 0.3304 0.0000
1.0000 0.3258 0.0000
1.0000 0.3212 0.0000
1.0000 0.3166 0.0000
1.0000 0.3120 0.0000
0.0000 0.4588 0.0351
0.0000 0.4542 0.0305
0.0241 0.4496 0.0259
0.1134 0.4450 0.0213
0.2026 0.4403 0.0167
0.2918 0.4357 0.0121
0.3811 0.4311 0.0075
0.4703 0.4265 0.0029
0.5596 0.4219 0.0000
0.6488 0.4173 0.0000
0.7380 0.4127 0.0000
0.8273 0.4081 0.0000
0.9165 0.4035 0.0000
1.0000 0.3989 0.0000
1.0000 0.3943 0.0000
1.0000 0.3897 0.0000
1.0000 0.3851 0.0000
0.0000 0.5319 0.0207
0.0000 0.5273 0.0161
0.0097 0.5227 0.0115
0.0989 0.5181 0.0069
0.1882 0.5135 0.0023
0.2774 0.5089 0.0000
0.3666 0.5043 0.0000
0.4559 0.4997 0.0000
0.5451 0.4951 0.0000
0.6344 0.4905 0.0000
0.7236 0.4859 0.0000
0.8128 0.4812 0.0000
0.9021 0.4766 0.0000
0.9913 0.4720 0.0000
1.0000 0.4674 0.0000
1.0000 0.4628 0.0000
1.0000 0.4582 0.0000
0.0000 0.6050 0.0062
0.0000 0.6004 0.0016
0.0000 0.5958 0.0000
0.0845 0.5912 0.0000
0.1737 0.5866 0.0000
0.2629 0.5820 0.0000
0.3522 0.5774 0.0000
0.4414 0.5728 0.0000
0.5307 0.5682 0.0000
0.6199 0.5636 0.0000
0.7091 0.5590 0.0000
0.7984 0.5544 0.0000
0.8876 0.5498 0.0000
0.9769 0.5452 0.0000
1.0000 0.5406 0.0000
1.0000 0.5360 0.0000
1.0000 0.5314 0.0000
0.0000 0.6782 0.0000
0.0000 0.6736 0.0000
0.0000 0.6690 0.0000
0.0700 0.6643 0.0000
0.1592 0.6597 0.0000
0.2485 0.6551 0.0000
0.3377 0.6505 0.0000
0.4270 0.6459 0.0000
0.5162 0.6413 0.0000
0.6054 0.6367 0.0000
0.6947 0.6321 0.0000
0.7839 0.6275 0.0000
0.8732 0.6229 0.0000
0.9624 0.6183 0.0000
1.0000 0.6137 0.0000
1.0000 0.6091 0.0000
1.0000 0.6045 0.0000
0.0000 0.7513 0.0000
0.0000 0.7467 0.0000
0.0000 0.7421 0.0000
0.0555 0.7375 0.0000
0.1448 0.7329 0.0000
0.2340 0.7283 0.0000
0.3233 0.7237 0.0000
0.4125 0.7191 0.0000
0.5017 0.7145 0.0000
0.5910 0.7099 0.0000
0.6802 0.7052 0.0000
0.7695 0.7006 0.0000
0.8587 0.6960 0.0000
0.9479 0.6914 0.0000
1.0000 0.6868 0.0000
1.0000 0.6822 0.0000
1.0000 0.6776 0.0000
0.0000 0.8244 0.0000
0.0000 0.8198 0.0000
0.0000 0.8152 0.0000
0.0411 0.8106 0.0000
0.1303 0.8060 0.0000
0.2196 0.8014 0.0000
0.3088 0.7968 0.0000
0.3980 0.7922 0.0000
0.4873 0.7876 0.0000
0.5765 0.7830 0.0000
0.6658 0.7784 0.0000
0.7550 0.7738 0.0000
0.8442 0.7692 0.0000
0.9335 0.7646 0.0000
1.0000 0.7600 0.0000
1.0000 0.7554 0.0000
1.0000 0.7508 0.0000
0.0000 0.8976 0.0000
0.0000 0.8929 0.0000
0.0000 0.8883 0.0000
0.0266 0.8837 0.0000
0.1159 0.8791 0.0000
0.2051 0.8745 0.0000
0.2944 0.8699 0.0000
0.3836 0.8653 0.0000
0.4728 0.8607 0.0000
0.5621 0.8561 0.0000
0.6513 0.8515 0.0000
0.7406 0.8469 0.0000
0.8298 0.8423 0.0000
0.9190 0.8377 0.0000
1.0000 0.8331 0.0000
1.0000 0.8285 0.0000
1.0000 0.8239 0.0000
0.0000 0.9707 0.0000
0.0000 0.9661 0.0000
0.0000 0.9615 0.0000
0.0122 0.9569 0.0000
0.1014 0.9523 0.0000
0.1907 0.9477 0.0000
0.2799 0.9431 0.0000
0.3691 0.9385 0.0000
0.4584 0.9339 0.0000
0.5476 0.9292 0.0000
0.6369 0.9246 0.0000
0.7261 0.9200 0.0000
0.8153 0.9154 0.0000
0.9046 0.9108 0.0000
0.9938 0.9062 0.0000
1.0000 0.9016 0.0000
1.0000 0.8970 0.0000
0.0000 1.0000 0.0000
0.0000 1.0000 0.0000
0.0000 1.0000 0.0000
0.0000 1.0000 0.0000
0.0870 1.0000 0.0000
0.1762 1.0000 0.0000
0.2654 1.0000 0.0000
0.3547 1.0000 0.0000
0.4439 1.0000 0.0000
0.5332 1.0000 0.0000
0.6224 0.9978 0.0000
0.7116 0.9932 0.0000
0.8009 0.9886 0.0000
0.8901 0.9840 0.0000
0.9794 0.9794 0.0000
1.0000 0.9748 0.0000
1.0000 0.9701 0.0000
0.0000 1.0000 0.0000
0.0000 1.0000 0.0000
0.0000 1.0000 0.0000
0.0000 1.0000 0.0000
0.0725 1.0000 0.0000
0.1617 1.0000 0.0000
0.2510 1.0000 0.0000
0.3402 1.0000 0.0000
0.4295 1.0000 0.0000
0.5187 1.0000 0.0000
0.6079 1.0000 0.0000
0.6972 1.0000 0.0000
0.7864 1.0000 0.0000
0.8757 1.0000 0.0000
0.9649 1.0000 0.0000
1.0000 1.0000 0.0000
1.0000 1.0000 0.0000
0.0000 0.0000 0.2295
0.0345 0.0000 0.2249
0.1237 0.0000 0.2203
0.2130 0.0000 0.2157
0.3022 0.0000 0.2111
0.3915 0.0000 0.2065
0.4807 0.0000 0.2019
0.5699 0.0000 0.1972
0.6592 0.0000 0.1926
0.7484 0.0000 0.1880
0.8377 0.0000 0.1834
0.9269 0.0000 0.1788
1.0000 0.0000 0.1742
1.0000 0.0000 0.1696
1.0000 0.0000 0.1650
1.0000 0.0000 0.1604
1.0000 0.0000 0.1558
0.0000 0.0184 0.2150
0.0200 0.0138 0.2104
0.1093 0.0092 0.2058
0.1985 0.0046 0.2012
0.2878 0.0000 0.1966
0.3770 0.0000 0.1920
0.4662 0.0000 0.1874
0.5555 0.0000 0.1828
0.6447 0.0000 0.1782
0.7340 0.0000 0.1736
0.8232 0.0000 0.1690
0.9124 0.0000 0.1644
1.0000 0.0000 0.1598
1.0000 0.0000 0.1552
1.0000 0.0000 0.1506
1.0000 0.0000 0.1460
