luts/y2k.cube
# edite look: Y2K (CC0)
TITLE "Y2K"
LUT_3D_SIZE 5
DOMAIN_MIN 0.0 0.0 0.0
DOMAIN_MAX 1.0 1.0 1.0
0.0000 0.0000 0.0000
0.3070 0.0000 0.0000
0.6639 0.0000 0.0000
1.0000 0.0000 0.0000
1.0000 0.0000 0.0000
0.0000 0.2425 0.0000
0.2491 0.2241 0.0000
0.6061 0.2057 0.0000
0.9631 0.1873 0.0000
1.0000 0.1689 0.0000
0.0000 0.5351 0.0000
0.1913 0.5166 0.0000
0.5483 0.4982 0.0000
0.9052 0.4798 0.0000
1.0000 0.4614 0.0000
0.0000 0.8276 0.0000
0.1335 0.8092 0.0000
0.4904 0.7907 0.0000
0.8474 0.7723 0.0000
1.0000 0.7539 0.0000
0.0000 1.0000 0.0000
0.0757 1.0000 0.0000
0.4326 1.0000 0.0000
0.7896 1.0000 0.0000
1.0000 1.0000 0.0000
0.0000 0.0000 0.3226
0.3006 0.0000 0.3042
0.6576 0.0000 0.2858
1.0000 0.0000 0.2674
1.0000 0.0000 0.2490
0.0000 0.2362 0.2648
0.2428 0.2178 0.2464
0.5998 0.1994 0.2280
0.9567 0.1810 0.2096
1.0000 0.1625 0.1911
0.0000 0.5287 0.2070
0.1850 0.5103 0.1886
0.5420 0.4919 0.1702
0.8989 0.4735 0.1517
1.0000 0.4551 0.1333
0.0000 0.8213 0.1492
0.1272 0.8028 0.1307
0.4841 0.7844 0.1123
0.8411 0.7660 0.0939
1.0000 0.7476 0.0755
0.0000 1.0000 0.0913
0.0693 1.0000 0.0729
0.4263 1.0000 0.0545
0.7833 1.0000 0.0361
1.0000 1.0000 0.0177
0.0000 0.0000 0.6953
0.2943 0.0000 0.6769
0.6513 0.0000 0.6584
1.0000 0.0000 0.6400
1.0000 0.0000 0.6216
0.0000 0.2299 0.6374
0.2365 0.2115 0.6190
0.5935 0.1931 0.6006
0.9504 0.1746 0.5822
1.0000 0.1562 0.5638
0.0000 0.5224 0.5796
0.1787 0.5040 0.5612
0.5356 0.4856 0.5428
0.8926 0.4672 0.5244
1.0000 0.4488 0.5060
0.0000 0.8150 0.5218
0.1209 0.7965 0.5034
0.4778 0.7781 0.4850
0.8348 0.7597 0.4666
1.0000 0.7413 0.4481
0.0000 1.0000 0.4640
0.0630 1.0000 0.4456
0.4200 1.0000 0.4271
0.7770 1.0000 0.4087
1.0000 1.0000 0.3903
0.0000 0.0000 1.0000
0.2880 0.0000 1.0000
0.6450 0.0000 1.0000
1.0000 0.0000 1.0000
1.0000 0.0000 0.9942
0.0000 0.2236 1.0000
0.2302 0.2052 0.9917
0.5872 0.1868 0.9733
0.9441 0.1683 0.9548
1.0000 0.1499 0.9364
0.0000 0.5161 0.9523
0.1724 0.4977 0.9338
0.5293 0.4793 0.9154
0.8863 0.4609 0.8970
1.0000 0.4424 0.8786
0.0000 0.8086 0.8944
0.1145 0.7902 0.8760
0.4715 0.7718 0.8576
0.8285 0.7534 0.8392
1.0000 0.7350 0.8208
0.0000 1.0000 0.8366
0.0567 1.0000 0.8182
0.4137 1.0000 0.7998
0.7706 1.0000 0.7814
1.0000 1.0000 0.7629
0.0000 0.0000 1.0000
0.2817 0.0000 1.0000
0.6387 0.0000 1.0000
0.9956 0.0000 1.0000
1.0000 0.0000 1.0000
0.0000 0.2173 1.0000
0.2239 0.1989 1.0000
0.5808 0.1804 1.0000
0.9378 0.1620 1.0000
1.0000 0.1436 1.0000
0.0000 0.5098 1.0000
0.1661 0.4914 1.0000
0.5230 0.4730 1.0000
0.8800 0.4545 1.0000
1.0000 0.4361 1.0000
0.0000 0.8023 1.0000
0.1082 0.7839 1.0000
0.4652 0.7655 1.0000
0.8221 0.7471 1.0000
1.0000 0.7287 1.0000
0.0000 1.0000 1.0000
0.0504 1.0000 1.0000
0.4074 1.0000 1.0000
0.7643 1.0000 1.0000
1.0000 1.0000 1.0000
