luts/y2k.cube
# edite look: Y2K (CC0)
TITLE "Y2K"
LUT_3D_SIZE 9
DOMAIN_MIN 0.0 0.0 0.0
DOMAIN_MAX 1.0 1.0 1.0
0.0000 0.0000 0.0000
0.1285 0.0000 0.0000
0.3070 0.0000 0.0000
0.4854 0.0000 0.0000
0.6639 0.0000 0.0000
0.8424 0.0000 0.0000
1.0000 0.0000 0.0000
1.0000 0.0000 0.0000
1.0000 0.0000 0.0000
0.0000 0.0963 0.0000
0.0996 0.0871 0.0000
0.2780 0.0778 0.0000
0.4565 0.0686 0.0000
0.6350 0.0594 0.0000
0.8135 0.0502 0.0000
0.9920 0.0410 0.0000
1.0000 0.0318 0.0000
1.0000 0.0226 0.0000
0.0000 0.2425 0.0000
0.0707 0.2333 0.0000
0.2491 0.2241 0.0000
0.4276 0.2149 0.0000
0.6061 0.2057 0.0000
0.7846 0.1965 0.0000
0.9631 0.1873 0.0000
1.0000 0.1781 0.0000
1.0000 0.1689 0.0000
0.0000 0.3888 0.0000
0.0417 0.3796 0.0000
0.2202 0.3704 0.0000
0.3987 0.3612 0.0000
0.5772 0.3520 0.0000
0.7557 0.3427 0.0000
0.9341 0.3335 0.0000
1.0000 0.3243 0.0000
1.0000 0.3151 0.0000
0.0000 0.5351 0.0000
0.0128 0.5258 0.0000
0.1913 0.5166 0.0000
0.3698 0.5074 0.0000
0.5483 0.4982 0.0000
0.7267 0.4890 0.0000
0.9052 0.4798 0.0000
1.0000 0.4706 0.0000
1.0000 0.4614 0.0000
0.0000 0.6813 0.0000
0.0000 0.6721 0.0000
0.1624 0.6629 0.0000
0.3409 0.6537 0.0000
0.5194 0.6445 0.0000
0.6978 0.6353 0.0000
0.8763 0.6261 0.0000
1.0000 0.6169 0.0000
1.0000 0.6076 0.0000
0.0000 0.8276 0.0000
0.0000 0.8184 0.0000
0.1335 0.8092 0.0000
0.3120 0.8000 0.0000
0.4904 0.7907 0.0000
0.6689 0.7815 0.0000
0.8474 0.7723 0.0000
1.0000 0.7631 0.0000
1.0000 0.7539 0.0000
0.0000 0.9738 0.0000
0.0000 0.9646 0.0000
0.1046 0.9554 0.0000
0.2831 0.9462 0.0000
0.4615 0.9370 0.0000
0.6400 0.9278 0.0000
0.8185 0.9186 0.0000
0.9970 0.9094 0.0000
1.0000 0.9002 0.0000
0.0000 1.0000 0.0000
0.0000 1.0000 0.0000
0.0757 1.0000 0.0000
0.2541 1.0000 0.0000
0.4326 1.0000 0.0000
0.6111 1.0000 0.0000
0.7896 1.0000 0.0000
0.9681 1.0000 0.0000
1.0000 1.0000 0.0000
0.0000 0.0000 0.1363
0.1253 0.0000 0.1271
0.3038 0.0000 0.1179
0.4823 0.0000 0.1087
0.6608 0.0000 0.0995
0.8392 0.0000 0.0903
1.0000 0.0000 0.0811
1.0000 0.0000 0.0719
1.0000 0.0000 0.0627
0.0000 0.0931 0.1074
0.0964 0.0839 0.0982
0.2749 0.0747 0.0890
0.4534 0.0655 0.0798
0.6318 0.0563 0.0706
0.8103 0.0471 0.0614
0.9888 0.0379 0.0522
1.0000 0.0286 0.0429
1.0000 0.0194 0.0337
0.0000 0.2394 0.0785
0.0675 0.2302 0.0693
0.2460 0.2210 0.0601
0.4245 0.2117 0.0509
0.6029 0.2025 0.0417
0.7814 0.1933 0.0325
0.9599 0.1841 0.0232
1.0000 0.1749 0.0140
1.0000 0.1657 0.0048
0.0000 0.3856 0.0496
0.0386 0.3764 0.0404
0.2171 0.3672 0.0312
0.3955 0.3580 0.0220
0.5740 0.3488 0.0127
0.7525 0.3396 0.0035
0.9310 0.3304 0.0000
1.0000 0.3212 0.0000
1.0000 0.3120 0.0000
0.0000 0.5319 0.0207
0.0097 0.5227 0.0115
0.1882 0.5135 0.0023
0.3666 0.5043 0.0000
0.5451 0.4951 0.0000
0.7236 0.4859 0.0000
0.9021 0.4766 0.0000
1.0000 0.4674 0.0000
1.0000 0.4582 0.0000
0.0000 0.6782 0.0000
0.0000 0.6690 0.0000
0.1592 0.6597 0.0000
0.3377 0.6505 0.0000
0.5162 0.6413 0.0000
0.6947 0.6321 0.0000
0.8732 0.6229 0.0000
1.0000 0.6137 0.0000
1.0000 0.6045 0.0000
0.0000 0.8244 0.0000
0.0000 0.8152 0.0000
0.1303 0.8060 0.0000
0.3088 0.7968 0.0000
0.4873 0.7876 0.0000
0.6658 0.7784 0.0000
0.8442 0.7692 0.0000
1.0000 0.7600 0.0000
1.0000 0.7508 0.0000
0.0000 0.9707 0.0000
0.0000 0.9615 0.0000
0.1014 0.9523 0.0000
0.2799 0.9431 0.0000
0.4584 0.9339 0.0000
0.6369 0.9246 0.0000
0.8153 0.9154 0.0000
0.9938 0.9062 0.0000
1.0000 0.8970 0.0000
0.0000 1.0000 0.0000
0.0000 1.0000 0.0000
0.0725 1.0000 0.0000
0.2510 1.0000 0.0000
0.4295 1.0000 0.0000
0.6079 1.0000 0.0000
0.7864 1.0000 0.0000
0.9649 1.0000 0.0000
1.0000 1.0000 0.0000
0.0000 0.0000 0.3226
0.1222 0.0000 0.3134
0.3006 0.0000 0.3042
0.4791 0.0000 0.2950
0.6576 0.0000 0.2858
0.8361 0.0000 0.2766
1.0000 0.0000 0.2674
1.0000 0.0000 0.2582
1.0000 0.0000 0.2490
0.0000 0.0899 0.2937
0.0933 0.0807 0.2845
0.2717 0.0715 0.2753
0.4502 0.0623 0.2661
0.6287 0.0531 0.2569
0.8072 0.0439 0.2477
0.9856 0.0347 0.2385
1.0000 0.0255 0.2293
1.0000 0.0163 0.2201
0.0000 0.2362 0.2648
0.0643 0.2270 0.2556
0.2428 0.2178 0.2464
0.4213 0.2086 0.2372
0.5998 0.1994 0.2280
0.7783 0.1902 0.2188
0.9567 0.1810 0.2096
1.0000 0.1718 0.2004
1.0000 0.1625 0.1911
0.0000 0.3825 0.2359
0.0354 0.3733 0.2267
0.2139 0.3641 0.2175
0.3924 0.3549 0.2083
0.5709 0.3456 0.1991
0.7493 0.3364 0.1899
0.9278 0.3272 0.1807
1.0000 0.3180 0.1714
1.0000 0.3088 0.1622
0.0000 0.5287 0.2070
0.0065 0.5195 0.1978
0.1850 0.5103 0.1886
0.3635 0.5011 0.1794
0.5420 0.4919 0.1702
0.7204 0.4827 0.1609
0.8989 0.4735 0.1517
1.0000 0.4643 0.1425
1.0000 0.4551 0.1333
0.0000 0.6750 0.1781
0.0000 0.6658 0.1689
0.1561 0.6566 0.1597
0.3346 0.6474 0.1505
0.5130 0.6382 0.1412
0.6915 0.6290 0.1320
0.8700 0.6198 0.1228
1.0000 0.6105 0.1136
1.0000 0.6013 0.1044
0.0000 0.8213 0.1492
0.0000 0.8121 0.1400
0.1272 0.8028 0.1307
0.3057 0.7936 0.1215
0.4841 0.7844 0.1123
0.6626 0.7752 0.1031
0.8411 0.7660 0.0939
1.0000 0.7568 0.0847
1.0000 0.7476 0.0755
0.0000 0.9675 0.1203
0.0000 0.9583 0.1110
0.0983 0.9491 0.1018
0.2767 0.9399 0.0926
0.4552 0.9307 0.0834
0.6337 0.9215 0.0742
0.8122 0.9123 0.0650
0.9907 0.9031 0.0558
1.0000 0.8939 0.0466
0.0000 1.0000 0.0913
0.0000 1.0000 0.0821
0.0693 1.0000 0.0729
0.2478 1.0000 0.0637
0.4263 1.0000 0.0545
0.6048 1.0000 0.0453
0.7833 1.0000 0.0361
0.9617 1.0000 0.0269
1.0000 1.0000 0.0177
0.0000 0.0000 0.5090
0.1190 0.0000 0.4997
0.2975 0.0000 0.4905
0.4760 0.0000 0.4813
0.6544 0.0000 0.4721
0.8329 0.0000 0.4629
1.0000 0.0000 0.4537
1.0000 0.0000 0.4445
1.0000 0.0000 0.4353
0.0000 0.0868 0.4800
0.0901 0.0776 0.4708
0.2686 0.0684 0.4616
0.4471 0.0592 0.4524
0.6255 0.0500 0.4432
0.8040 0.0408 0.4340
0.9825 0.0315 0.4248
1.0000 0.0223 0.4156
1.0000 0.0131 0.4064
0.0000 0.2331 0.4511
0.0612 0.2238 0.4419
0.2397 0.2146 0.4327
0.4181 0.2054 0.4235
0.5966 0.1962 0.4143
0.7751 0.1870 0.4051
0.9536 0.1778 0.3959
1.0000 0.1686 0.3867
1.0000 0.1594 0.3775
0.0000 0.3793 0.4222
0.0323 0.3701 0.4130
0.2108 0.3609 0.4038
0.3892 0.3517 0.3946
0.5677 0.3425 0.3854
0.7462 0.3333 0.3762
0.9247 0.3241 0.3670
1.0000 0.3149 0.3578
1.0000 0.3057 0.3486
0.0000 0.5256 0.3933
0.0034 0.5164 0.3841
0.1818 0.5072 0.3749
0.3603 0.4980 0.3657
0.5388 0.4887 0.3565
0.7173 0.4795 0.3473
0.8958 0.4703 0.3381
1.0000 0.4611 0.3288
1.0000 0.4519 0.3196
0.0000 0.6718 0.3644
0.0000 0.6626 0.3552
0.1529 0.6534 0.3460
0.3314 0.6442 0.3368
0.5099 0.6350 0.3276
0.6884 0.6258 0.3184
0.8668 0.6166 0.3091
1.0000 0.6074 0.2999
1.0000 0.5982 0.2907
0.0000 0.8181 0.3355
0.0000 0.8089 0.3263
0.1240 0.7997 0.3171
0.3025 0.7905 0.3079
0.4810 0.7813 0.2986
0.6595 0.7721 0.2894
0.8379 0.7629 0.2802
1.0000 0.7536 0.2710
1.0000 0.7444 0.2618
0.0000 0.9644 0.3066
0.0000 0.9552 0.2974
0.0951 0.9460 0.2882
0.2736 0.9367 0.2789
0.4521 0.9275 0.2697
0.6305 0.9183 0.2605
0.8090 0.9091 0.2513
0.9875 0.8999 0.2421
1.0000 0.8907 0.2329
0.0000 1.0000 0.2777
0.0000 1.0000 0.2685
0.0662 1.0000 0.2592
0.2447 1.0000 0.2500
0.4232 1.0000 0.2408
0.6016 1.0000 0.2316
0.7801 1.0000 0.2224
0.9586 1.0000 0.2132
1.0000 1.0000 0.2040
0.0000 0.0000 0.6953
0.1159 0.0000 0.6861
0.2943 0.0000 0.6769
0.4728 0.0000 0.6676
0.6513 0.0000 0.6584
0.8298 0.0000 0.6492
1.0000 0.0000 0.6400
1.0000 0.0000 0.6308
1.0000 0.0000 0.6216
0.0000 0.0836 0.6664
0.0869 0.0744 0.6572
0.2654 0.0652 0.6479
0.4439 0.0560 0.6387
0.6224 0.0468 0.6295
0.8009 0.0376 0.6203
0.9793 0.0284 0.6111
1.0000 0.0192 0.6019
1.0000 0.0100 0.5927
0.0000 0.2299 0.6374
0.0580 0.2207 0.6282
0.2365 0.2115 0.6190
0.4150 0.2023 0.6098
0.5935 0.1931 0.6006
0.7719 0.1839 0.5914
0.9504 0.1746 0.5822
1.0000 0.1654 0.5730
1.0000 0.1562 0.5638
0.0000 0.3762 0.6085
0.0291 0.3670 0.5993
0.2076 0.3577 0.5901
0.3861 0.3485 0.5809
0.5646 0.3393 0.5717
0.7430 0.3301 0.5625
0.9215 0.3209 0.5533
1.0000 0.3117 0.5441
1.0000 0.3025 0.5349
0.0000 0.5224 0.5796
0.0002 0.5132 0.5704
0.1787 0.5040 0.5612
0.3572 0.4948 0.5520
0.5356 0.4856 0.5428
0.7141 0.4764 0.5336
0.8926 0.4672 0.5244
1.0000 0.4580 0.5152
1.0000 0.4488 0.5060
0.0000 0.6687 0.5507
0.0000 0.6595 0.5415
0.1498 0.6503 0.5323
0.3283 0.6411 0.5231
0.5067 0.6319 0.5139
0.6852 0.6226 0.5047
0.8637 0.6134 0.4955
1.0000 0.6042 0.4863
1.0000 0.5950 0.4770
0.0000 0.8150 0.5218
0.0000 0.8057 0.5126
0.1209 0.7965 0.5034
0.2993 0.7873 0.4942
0.4778 0.7781 0.4850
0.6563 0.7689 0.4758
0.8348 0.7597 0.4666
1.0000 0.7505 0.4573
1.0000 0.7413 0.4481
0.0000 0.9612 0.4929
0.0000 0.9520 0.4837
0.0919 0.9428 0.4745
0.2704 0.9336 0.4653
0.4489 0.9244 0.4561
0.6274 0.9152 0.4468
0.8059 0.9060 0.4376
0.9843 0.8968 0.4284
1.0000 0.8875 0.4192
0.0000 1.0000 0.4640
0.0000 1.0000 0.4548
0.0630 1.0000 0.4456
0.2415 1.0000 0.4364
0.4200 1.0000 0.4271
0.5985 1.0000 0.4179
0.7770 1.0000 0.4087
0.9554 1.0000 0.3995
1.0000 1.0000 0.3903
0.0000 0.0000 0.8816
0.1127 0.0000 0.8724
0.2912 0.0000 0.8632
0.4697 0.0000 0.8540
0.6481 0.0000 0.8448
0.8266 0.0000 0.8355
1.0000 0.0000 0.8263
1.0000 0.0000 0.8171
1.0000 0.0000 0.8079
0.0000 0.0805 0.8527
0.0838 0.0713 0.8435
0.2623 0.0621 0.8343
0.4407 0.0529 0.8251
0.6192 0.0436 0.8158
0.7977 0.0344 0.8066
0.9762 0.0252 0.7974
1.0000 0.0160 0.7882
1.0000 0.0068 0.7790
0.0000 0.2267 0.8238
0.0549 0.2175 0.8146
0.2333 0.2083 0.8053
0.4118 0.1991 0.7961
0.5903 0.1899 0.7869
0.7688 0.1807 0.7777
0.9473 0.1715 0.7685
1.0000 0.1623 0.7593
1.0000 0.1531 0.7501
0.0000 0.3730 0.7949
0.0260 0.3638 0.7856
0.2044 0.3546 0.7764
0.3829 0.3454 0.7672
0.5614 0.3362 0.7580
0.7399 0.3270 0.7488
0.9184 0.3178 0.7396
1.0000 0.3085 0.7304
1.0000 0.2993 0.7212
0.0000 0.5193 0.7659
0.0000 0.5101 0.7567
0.1755 0.5009 0.7475
0.3540 0.4916 0.7383
0.5325 0.4824 0.7291
0.7110 0.4732 0.7199
0.8894 0.4640 0.7107
1.0000 0.4548 0.7015
1.0000 0.4456 0.6923
0.0000 0.6655 0.7370
0.0000 0.6563 0.7278
0.1466 0.6471 0.7186
0.3251 0.6379 0.7094
0.5036 0.6287 0.7002
0.6821 0.6195 0.6910
0.8605 0.6103 0.6818
1.0000 0.6011 0.6726
1.0000 0.5919 0.6634
0.0000 0.8118 0.7081
0.0000 0.8026 0.6989
0.1177 0.7934 0.6897
0.2962 0.7842 0.6805
0.4747 0.7750 0.6713
0.6531 0.7658 0.6621
0.8316 0.7565 0.6529
1.0000 0.7473 0.6437
1.0000 0.7381 0.6345
0.0000 0.9581 0.6792
0.0000 0.9488 0.6700
0.0888 0.9396 0.6608
0.2673 0.9304 0.6516
0.4457 0.9212 0.6424
0.6242 0.9120 0.6332
0.8027 0.9028 0.6240
0.9812 0.8936 0.6147
1.0000 0.8844 0.6055
0.0000 1.0000 0.6503
0.0000 1.0000 0.6411
0.0599 1.0000 0.6319
0.2384 1.0000 0.6227
0.4168 1.0000 0.6135
0.5953 1.0000 0.6043
0.7738 1.0000 0.5950
0.9523 1.0000 0.5858
1.0000 1.0000 0.5766
0.0000 0.0000 1.0000
0.1095 0.0000 1.0000
0.2880 0.0000 1.0000
0.4665 0.0000 1.0000
0.6450 0.0000 1.0000
0.8235 0.0000 1.0000
1.0000 0.0000 1.0000
1.0000 0.0000 1.0000
1.0000 0.0000 0.9942
0.0000 0.0773 1.0000
0.0806 0.0681 1.0000
0.2591 0.0589 1.0000
0.4376 0.0497 1.0000
0.6161 0.0405 1.0000
0.7945 0.0313 0.9930
0.9730 0.0221 0.9837
1.0000 0.0129 0.9745
1.0000 0.0037 0.9653
0.0000 0.2236 1.0000
0.0517 0.2144 1.0000
0.2302 0.2052 0.9917
0.4087 0.1960 0.9825
0.5872 0.1868 0.9733
0.7656 0.1775 0.9640
0.9441 0.1683 0.9548
1.0000 0.1591 0.9456
1.0000 0.1499 0.9364
0.0000 0.3698 0.9812
0.0228 0.3606 0.9720
0.2013 0.3514 0.9628
0.3798 0.3422 0.9535
0.5582 0.3330 0.9443
0.7367 0.3238 0.9351
0.9152 0.3146 0.9259
1.0000 0.3054 0.9167
1.0000 0.2962 0.9075
0.0000 0.5161 0.9523
0.0000 0.5069 0.9431
0.1724 0.4977 0.9338
0.3508 0.4885 0.9246
0.5293 0.4793 0.9154
0.7078 0.4701 0.9062
0.8863 0.4609 0.8970
1.0000 0.4517 0.8878
1.0000 0.4424 0.8786
0.0000 0.6624 0.9233
0.0000 0.6532 0.9141
0.1435 0.6440 0.9049
0.3219 0.6347 0.8957
0.5004 0.6255 0.8865
0.6789 0.6163 0.8773
0.8574 0.6071 0.8681
1.0000 0.5979 0.8589
1.0000 0.5887 0.8497
0.0000 0.8086 0.8944
0.0000 0.7994 0.8852
0.1145 0.7902 0.8760
0.2930 0.7810 0.8668
0.4715 0.7718 0.8576
0.6500 0.7626 0.8484
0.8285 0.7534 0.8392
1.0000 0.7442 0.8300
1.0000 0.7350 0.8208
0.0000 0.9549 0.8655
0.0000 0.9457 0.8563
0.0856 0.9365 0.8471
0.2641 0.9273 0.8379
0.4426 0.9181 0.8287
0.6211 0.9089 0.8195
0.7996 0.8997 0.8103
0.9780 0.8904 0.8011
1.0000 0.8812 0.7919
0.0000 1.0000 0.8366
0.0000 1.0000 0.8274
0.0567 1.0000 0.8182
0.2352 1.0000 0.8090
0.4137 1.0000 0.7998
0.5922 1.0000 0.7906
0.7706 1.0000 0.7814
0.9491 1.0000 0.7722
1.0000 1.0000 0.7629
0.0000 0.0000 1.0000
0.1064 0.0000 1.0000
0.2849 0.0000 1.0000
0.4633 0.0000 1.0000
0.6418 0.0000 1.0000
0.8203 0.0000 1.0000
0.9988 0.0000 1.0000
1.0000 0.0000 1.0000
1.0000 0.0000 1.0000
0.0000 0.0742 1.0000
0.0775 0.0650 1.0000
0.2559 0.0557 1.0000
0.4344 0.0465 1.0000
0.6129 0.0373 1.0000
0.7914 0.0281 1.0000
0.9699 0.0189 1.0000
1.0000 0.0097 1.0000
1.0000 0.0005 1.0000
0.0000 0.2204 1.0000
0.0486 0.2112 1.0000
0.2270 0.2020 1.0000
0.4055 0.1928 1.0000
0.5840 0.1836 1.0000
0.7625 0.1744 1.0000
0.9410 0.1652 1.0000
1.0000 0.1560 1.0000
1.0000 0.1468 1.0000
0.0000 0.3667 1.0000
0.0196 0.3575 1.0000
0.1981 0.3483 1.0000
0.3766 0.3391 1.0000
0.5551 0.3299 1.0000
0.7336 0.3206 1.0000
0.9120 0.3114 1.0000
1.0000 0.3022 1.0000
1.0000 0.2930 1.0000
0.0000 0.5130 1.0000
0.0000 0.5037 1.0000
0.1692 0.4945 1.0000
0.3477 0.4853 1.0000
0.5262 0.4761 1.0000
0.7046 0.4669 1.0000
0.8831 0.4577 1.0000
1.0000 0.4485 1.0000
1.0000 0.4393 1.0000
0.0000 0.6592 1.0000
0.0000 0.6500 1.0000
0.1403 0.6408 1.0000
0.3188 0.6316 1.0000
0.4973 0.6224 1.0000
0.6757 0.6132 1.0000
0.8542 0.6040 1.0000
1.0000 0.5948 1.0000
1.0000 0.5856 1.0000
0.0000 0.8055 1.0000
0.0000 0.7963 1.0000
0.1114 0.7871 1.0000
0.2899 0.7779 1.0000
0.4683 0.7686 1.0000
0.6468 0.7594 1.0000
0.8253 0.7502 1.0000
1.0000 0.7410 1.0000
1.0000 0.7318 1.0000
0.0000 0.9517 1.0000
0.0000 0.9425 1.0000
0.0825 0.9333 1.0000
0.2610 0.9241 1.0000
0.4394 0.9149 1.0000
0.6179 0.9057 1.0000
0.7964 0.8965 0.9966
0.9749 0.8873 0.9874
1.0000 0.8781 0.9782
0.0000 1.0000 1.0000
0.0000 1.0000 1.0000
0.0536 1.0000 1.0000
0.2320 1.0000 0.9953
0.4105 1.0000 0.9861
0.5890 1.0000 0.9769
0.7675 1.0000 0.9677
0.9460 1.0000 0.9585
1.0000 1.0000 0.9493
0.0000 0.0000 1.0000
0.1032 0.0000 1.0000
0.2817 0.0000 1.0000
0.4602 0.0000 1.0000
0.6387 0.0000 1.0000
0.8171 0.0000 1.0000
0.9956 0.0000 1.0000
1.0000 0.0000 1.0000
1.0000 0.0000 1.0000
0.0000 0.0710 1.0000
0.0743 0.0618 1.0000
0.2528 0.0526 1.0000
0.4313 0.0434 1.0000
0.6097 0.0342 1.0000
0.7882 0.0250 1.0000
0.9667 0.0158 1.0000
1.0000 0.0065 1.0000
1.0000 0.0000 1.0000
0.0000 0.2173 1.0000
0.0454 0.2081 1.0000
0.2239 0.1989 1.0000
0.4024 0.1896 1.0000
0.5808 0.1804 1.0000
0.7593 0.1712 1.0000
0.9378 0.1620 1.0000
1.0000 0.1528 1.0000
1.0000 0.1436 1.0000
0.0000 0.3635 1.0000
0.0165 0.3543 1.0000
0.1950 0.3451 1.0000
0.3734 0.3359 1.0000
0.5519 0.3267 1.0000
0.7304 0.3175 1.0000
0.9089 0.3083 1.0000
1.0000 0.2991 1.0000
1.0000 0.2899 1.0000
0.0000 0.5098 1.0000
0.0000 0.5006 1.0000
0.1661 0.4914 1.0000
0.3445 0.4822 1.0000
0.5230 0.4730 1.0000
0.7015 0.4638 1.0000
0.8800 0.4545 1.0000
1.0000 0.4453 1.0000
1.0000 0.4361 1.0000
0.0000 0.6561 1.0000
0.0000 0.6469 1.0000
0.1371 0.6376 1.0000
0.3156 0.6284 1.0000
0.4941 0.6192 1.0000
0.6726 0.6100 1.0000
0.8511 0.6008 1.0000
1.0000 0.5916 1.0000
1.0000 0.5824 1.0000
0.0000 0.8023 1.0000
0.0000 0.7931 1.0000
0.1082 0.7839 1.0000
0.2867 0.7747 1.0000
0.4652 0.7655 1.0000
0.6437 0.7563 1.0000
0.8221 0.7471 1.0000
1.0000 0.7379 1.0000
1.0000 0.7287 1.0000
0.0000 0.9486 1.0000
0.0000 0.9394 1.0000
0.0793 0.9302 1.0000
0.2578 0.9210 1.0000
0.4363 0.9118 1.0000
0.6148 0.9025 1.0000
0.7932 0.8933 1.0000
0.9717 0.8841 1.0000
1.0000 0.8749 1.0000
0.0000 1.0000 1.0000
0.0000 1.0000 1.0000
0.0504 1.0000 1.0000
0.2289 1.0000 1.0000
0.4074 1.0000 1.0000
0.5858 1.0000 1.0000
0.7643 1.0000 1.0000
0.9428 1.0000 1.0000
1.0000 1.0000 1.0000
